; generated by Slic3r 1.1.7 on 2016-01-19 at 12:12:26

; perimeters extrusion width = 0.50mm
; infill extrusion width = 0.60mm
; solid infill extrusion width = 0.60mm
; top infill extrusion width = 0.43mm

G21 ; set units to millimeters
G21                                      ; metric values
G90                                      ; absolute positioning
M82                                      ; set extruder to absolute mode
M107                                    ; start with the fan off
G92 E0                                 ; set extruder position to 0
M140 S110                           ; get bed heating up
G28                                      ; home all
M109 S150                           ; set to cleaning temp and wait
G1 Z150 E-30 F75                ; suck up XXmm of filament
M109 S170                           ; heat up rest of way
G1 X45 Y174 F11520           ; move behind scraper
G1 Z0  F1200                       ; CRITICAL: set Z to height of top of scraper
G1 X45 Y174 Z-.5 F4000      ; wiping ; plunge into wipe pad
G1 X55 Y172 Z-.5 F4000      ; wiping
G1 X45 Y174 Z0 F4000        ; wiping
G1 X55 Y172 F4000             ; wiping
G1 X45 Y174 F4000             ; wiping
G1 X55 Y172 F4000             ; wiping
G1 X45 Y174 F4000             ; wiping
G1 X55 Y172 F4000             ; wiping
G1 X60 Y174 F4000             ; wiping
G1 X80 Y172 F4000             ; wiping
G1 X60 Y174 F4000             ; wiping
G1 X80 Y172 F4000             ; wiping
G1 X60 Y174 F4000             ; wiping
G1 X90 Y172 F4000             ; wiping
G1 X80 Y174 F4000             ; wiping
G1 X100 Y172 F4000           ; wiping
G1 X80 Y174 F4000             ; wiping
G1 X100 Y172 F4000           ; wiping
G1 X80 Y174 F4000             ; wiping
G1 X100 Y172 F4000           ; wiping
G1 X110 Y174 F4000           ; wiping
G1 X100 Y172 F4000           ; wiping
G1 X110 Y174 F4000           ; wiping
G1 X100 Y172 F4000           ; wiping
G1 X110 Y174 F4000           ; wiping
G1 X115 Y172 Z-0.5 F1000  ; wipe slower and bury noz in cleanish area
G1 Z10                                 ; raise z
G28 X0 Y0                            ; home x and y
M109 S170                           ; set to probing temp
M204 S300                           ; set accel for probing
G29                                      ; Probe
M204 S2000                         ; set accel back to normal
G1 X5 Y15 Z10 F5000          ; get out the way
M400                                    ; clear buffer
G4 S1                                   ; pause
M109 S245                           ; set extruder temp and wait
G4 S25                                 ; wait for bed to temp up
G1 Z2 E0 F75                       ; extrude filament back into nozzle
M140 S105                           ; get bed temping up during first layer
G90 ; use absolute coordinates
G92 E0
M82 ; use absolute distances for extrusion
M204 S2000
G1 F600.000 E-1.00000
G92 E0
G1 Z0.350 F10500.000
G1 X63.179 Y28.331 F10500.000
G1 E1.00000 F600.000
G1 X64.319 Y26.420 E1.07379 F1500.000
G1 X66.057 Y25.029 E1.14758
G1 X69.025 Y24.279 E1.24907
G1 X86.015 Y24.279 E1.81234
G1 X88.206 Y24.676 E1.88613
G1 X89.816 Y25.569 E1.94718 F1500.000
G1 X90.749 Y26.311 E1.98670
G1 X91.705 Y27.206 E2.03012
G1 X92.084 Y27.613 E2.04856
G1 X92.581 Y28.180 E2.07356
G1 X93.372 Y29.224 E2.11700
G1 X94.072 Y30.332 E2.16042
G1 X94.330 Y30.811 E2.17846
G1 X94.674 Y31.495 E2.20385
G1 X95.176 Y32.705 E2.24728
G1 X95.574 Y33.953 E2.29071
G1 X95.864 Y35.231 E2.33414
G1 X96.044 Y36.528 E2.37757
G1 X96.114 Y37.745 E2.41797
G1 X96.093 Y118.807 E5.10538
G1 X95.970 Y120.103 E5.14854
G1 X95.878 Y120.669 E5.16754
G1 X95.738 Y121.385 E5.19173
G1 X95.399 Y122.642 E5.23490
G1 X94.954 Y123.866 E5.27807
G1 X94.715 Y124.410 E5.29777
G1 X94.408 Y125.049 E5.32125
G1 X93.764 Y126.181 E5.36442
G1 X93.027 Y127.254 E5.40760
G1 X92.202 Y128.262 E5.45077
G1 X91.295 Y129.196 E5.49394
G1 X90.827 Y129.617 E5.51481
G1 X90.343 Y130.027 E5.53585
G1 X89.811 Y130.435 E5.55807
G1 X87.831 Y131.451 E5.63186
G1 X86.015 Y131.721 E5.69270
G1 X69.025 Y131.721 E6.25597
G1 X66.835 Y131.324 E6.32976
G1 X64.923 Y130.184 E6.40355
G1 X63.533 Y128.446 E6.47734
G1 X62.782 Y125.478 E6.57883
G1 X62.782 Y30.522 E9.72687
G1 X63.166 Y28.405 E9.79817
G1 X63.800 Y28.450 F10500.000
G1 X64.934 Y26.667 E9.86823 F1500.000
G1 X66.644 Y25.429 E9.93822
G1 X69.025 Y24.900 E10.01908
G1 X86.015 Y24.900 E10.58236
G1 X88.089 Y25.297 E10.65235
G1 X89.438 Y26.062 E10.70375 F1500.000
G1 X90.332 Y26.772 E10.74161
G1 X91.250 Y27.630 E10.78328
G1 X91.629 Y28.037 E10.80171
G1 X92.093 Y28.564 E10.82496
G1 X92.853 Y29.565 E10.86665
G1 X93.525 Y30.627 E10.90833
G1 X93.784 Y31.106 E10.92636
G1 X94.105 Y31.743 E10.95001
G1 X94.588 Y32.904 E10.99169
G1 X94.970 Y34.101 E11.03337
G1 X95.250 Y35.327 E11.07505
G1 X95.424 Y36.572 E11.11673
G1 X95.493 Y37.745 E11.15568
G1 X95.474 Y118.759 E13.84149
G1 X95.357 Y120.003 E13.88291
G1 X95.265 Y120.569 E13.90191
G1 X95.136 Y121.233 E13.92436
G1 X94.811 Y122.440 E13.96579
G1 X94.386 Y123.616 E14.00723
G1 X93.863 Y124.751 E14.04866
G1 X93.246 Y125.838 E14.09009
G1 X92.540 Y126.869 E14.13153
G1 X91.749 Y127.836 E14.17296
G1 X90.879 Y128.734 E14.21439
G1 X89.964 Y129.534 E14.25469
G1 X89.433 Y129.942 E14.27689
G1 X87.545 Y130.887 E14.34688
G1 X86.015 Y131.100 E14.39809
G1 X69.025 Y131.100 E14.96136
G1 X66.951 Y130.703 E15.03135
G1 X65.170 Y129.570 E15.10134
G1 X63.933 Y127.859 E15.17134
G1 X63.404 Y125.478 E15.25220
G1 X63.404 Y30.522 E18.40024
G1 X63.786 Y28.524 E18.46767
G1 F600.000 E17.46767
G92 E0
G1 X69.352 Y125.151 F10500.000
G1 E1.00000 F600.000
G1 X69.352 Y30.849 E4.12634 F1500.000
G1 X85.904 Y30.849 E4.67508
G1 X86.351 Y31.192 E4.69376
G1 X86.909 Y31.697 E4.71871
G1 X87.422 Y32.247 E4.74364
G1 X87.886 Y32.839 E4.76856
G1 X88.298 Y33.467 E4.79349
G1 X88.656 Y34.129 E4.81842
G1 X88.956 Y34.818 E4.84334
G1 X89.196 Y35.531 E4.86827
G1 X89.378 Y36.278 E4.89377
G1 X89.491 Y37.004 E4.91812
G1 X89.544 Y37.754 E4.94305
G1 X89.533 Y38.506 E4.96797
G1 X89.458 Y39.254 E4.99290
G1 X89.320 Y39.993 E5.01783
G1 X89.120 Y40.718 E5.04276
G1 X88.859 Y41.423 E5.06768
G1 X86.582 Y46.237 E5.24423
G1 X84.964 Y50.515 E5.39585
G1 X83.694 Y54.908 E5.54748
G1 X82.781 Y59.390 E5.69910
G1 X82.231 Y63.930 E5.85072
G1 X82.048 Y68.493 E6.00213
G1 X82.048 Y100.507 E7.06344
G1 X82.098 Y101.739 E7.10434
G1 X82.248 Y102.970 E7.14545
G1 X82.497 Y104.185 E7.18657
G1 X82.844 Y105.376 E7.22768
G1 X83.286 Y106.535 E7.26880
G1 X83.820 Y107.654 E7.30991
G1 X84.443 Y108.726 E7.35103
G1 X85.151 Y109.744 E7.39214
G1 X85.939 Y110.702 E7.43326
G1 X87.321 Y112.131 E7.49915
G1 X87.792 Y112.711 E7.52393
G1 X88.214 Y113.328 E7.54871
G1 X88.460 Y113.765 E7.56535
G1 X88.581 Y113.979 E7.57349
G1 X88.892 Y114.659 E7.59827
G1 X89.145 Y115.362 E7.62305
G1 X89.338 Y116.084 E7.64783
G1 X89.468 Y116.820 E7.67261
G1 X89.537 Y117.565 E7.69739
G1 X89.542 Y118.312 E7.72217
G1 X89.484 Y119.057 E7.74695
G1 X89.363 Y119.795 E7.77173
G1 X89.181 Y120.520 E7.79651
G1 X88.938 Y121.227 E7.82129
G1 X88.636 Y121.911 E7.84607
G1 X88.278 Y122.567 E7.87085
G1 X87.865 Y123.190 E7.89563
G1 X87.402 Y123.776 E7.92041
G1 X86.890 Y124.321 E7.94519
G1 X86.334 Y124.822 E7.97000
G1 X85.905 Y125.151 E7.98794
G1 X69.427 Y125.151 E8.53420
G1 X69.602 Y124.718 F10500.000
G1 X69.974 Y124.530 F10500.000
G1 X69.974 Y31.470 E11.61935 F1500.000
G1 X85.693 Y31.470 E12.14048
G1 X85.953 Y31.670 E12.15134
G1 X86.473 Y32.140 E12.17459
G1 X86.949 Y32.652 E12.19776
G1 X87.381 Y33.201 E12.22093
G1 X87.764 Y33.786 E12.24411
G1 X88.096 Y34.401 E12.26728
G1 X88.375 Y35.042 E12.29046
G1 X88.599 Y35.704 E12.31363
G1 X88.765 Y36.383 E12.33681
G1 X88.873 Y37.074 E12.35998
G1 X88.922 Y37.771 E12.38315
G1 X88.912 Y38.470 E12.40633
G1 X88.843 Y39.166 E12.42951
G1 X88.714 Y39.853 E12.45268
G1 X88.528 Y40.527 E12.47585
G1 X88.285 Y41.182 E12.49903
G1 X86.010 Y45.994 E12.67548
G1 X84.374 Y50.318 E12.82876
G1 X83.090 Y54.760 E12.98204
G1 X82.167 Y59.290 E13.13532
G1 X81.611 Y63.880 E13.28860
G1 X81.426 Y68.481 E13.44125
G1 X81.426 Y100.519 E14.50339
G1 X81.478 Y101.789 E14.54554
G1 X81.634 Y103.070 E14.58832
G1 X81.894 Y104.335 E14.63111
G1 X82.255 Y105.574 E14.67389
G1 X82.715 Y106.779 E14.71667
G1 X83.271 Y107.944 E14.75946
G1 X83.919 Y109.060 E14.80224
G1 X84.655 Y110.120 E14.84503
G1 X85.475 Y111.116 E14.88781
G1 X86.855 Y112.544 E14.95363
G1 X87.294 Y113.083 E14.97667
G1 X87.685 Y113.657 E14.99971
G1 X87.919 Y114.071 E15.01547
G1 X88.027 Y114.262 E15.02275
G1 X88.316 Y114.894 E15.04578
G1 X88.551 Y115.548 E15.06882
G1 X88.730 Y116.219 E15.09186
G1 X88.852 Y116.903 E15.11490
G1 X88.916 Y117.595 E15.13794
G1 X88.920 Y118.290 E15.16097
G1 X88.867 Y118.983 E15.18401
G1 X88.754 Y119.669 E15.20705
G1 X88.585 Y120.343 E15.23009
G1 X88.359 Y121.000 E15.25313
G1 X88.078 Y121.636 E15.27616
G1 X87.745 Y122.246 E15.29920
G1 X87.362 Y122.825 E15.32224
G1 X86.931 Y123.370 E15.34528
G1 X86.455 Y123.877 E15.36832
G1 X85.937 Y124.343 E15.39144
G1 X85.694 Y124.530 E15.40159
G1 X70.049 Y124.530 E15.92026
G1 X70.404 Y124.059 F10500.000
G1 X70.444 Y124.099 E15.92214 F1500.000
G1 X71.324 Y124.099 E15.95131
G1 X70.404 Y123.179 E15.99444
G1 X70.404 Y122.299 E16.02361
G1 X72.204 Y124.099 E16.10800
G1 X73.084 Y124.099 E16.13717
G1 X70.404 Y121.420 E16.26281
G1 X70.404 Y120.540 E16.29198
G1 X73.964 Y124.099 E16.45887
G1 X74.844 Y124.099 E16.48804
G1 X70.404 Y119.660 E16.69619
G1 X70.404 Y118.780 E16.72536
G1 X75.724 Y124.099 E16.97476
G1 X76.603 Y124.099 E17.00394
G1 X70.404 Y117.900 E17.29459
G1 X70.404 Y117.020 E17.32376
G1 X77.483 Y124.099 E17.65567
G1 X78.363 Y124.099 E17.68485
G1 X70.404 Y116.140 E18.05801
G1 X70.404 Y115.260 E18.08718
G1 X79.243 Y124.099 E18.50160
G1 X80.123 Y124.099 E18.53077
G1 X70.404 Y114.380 E18.98645
G1 X70.404 Y113.500 E19.01562
G1 X81.003 Y124.099 E19.51255
G1 X81.883 Y124.099 E19.54172
G1 X70.404 Y112.620 E20.07990
G1 X70.404 Y111.740 E20.10908
G1 X82.763 Y124.099 E20.68851
G1 X83.643 Y124.099 E20.71769
G1 X70.404 Y110.861 E21.33838
G1 X70.404 Y109.981 E21.36755
G1 X84.523 Y124.099 E22.02950
G1 X85.403 Y124.099 E22.05867
G1 X70.404 Y109.101 E22.76187
G1 X70.404 Y108.221 E22.79104
G1 X85.939 Y123.756 E23.51938
G1 X86.379 Y123.316 E23.54001
G1 X70.404 Y107.341 E24.28898
G1 X70.404 Y106.461 E24.31815
G1 X86.793 Y122.850 E25.08655
G1 X87.165 Y122.342 E25.10742
G1 X70.404 Y105.581 E25.89325
G1 X70.404 Y104.701 E25.92242
G1 X87.500 Y121.797 E26.72395
G1 X87.795 Y121.212 E26.74567
G1 X70.404 Y103.821 E27.56103
G1 X70.404 Y102.941 E27.59020
G1 X88.047 Y120.584 E28.41737
G1 X88.250 Y119.908 E28.44078
G1 X70.404 Y102.061 E29.27751
G1 X70.404 Y101.181 E29.30668
G1 X88.399 Y119.176 E30.15035
G1 X88.482 Y118.379 E30.17692
G1 X70.404 Y100.302 E31.02448
G1 X70.404 Y99.422 E31.05366
G1 X88.474 Y117.491 E31.90085
G1 X88.339 Y116.477 E31.93478
G1 X70.404 Y98.542 E32.77566
G1 X70.404 Y97.662 E32.80483
G1 X87.984 Y115.242 E33.62907
G1 F600.000 E32.62907
G92 E0
G1 X86.888 Y113.266 F10500.000
G1 E1.00000 F600.000
G1 X70.404 Y96.782 E1.77285 F1500.000
G1 X70.404 Y95.902 E1.80202
G1 X83.225 Y108.723 E2.40315
G1 F600.000 E1.40315
G92 E0
G1 X82.311 Y106.929 F10500.000
G1 E1.00000 F600.000
G1 X70.404 Y95.022 E1.55824 F1500.000
G1 X70.404 Y94.142 E1.58741
G1 X81.794 Y105.532 E2.12144
G1 X81.449 Y104.307 E2.16365
G1 X70.404 Y93.262 E2.68147
G1 X70.404 Y92.382 E2.71064
G1 X81.221 Y103.200 E3.21780
G1 X81.093 Y102.192 E3.25149
G1 X70.404 Y91.502 E3.75265
G1 X70.404 Y90.622 E3.78182
G1 X81.025 Y101.243 E4.27977
G1 X80.996 Y100.334 E4.30992
G1 X70.404 Y89.743 E4.80652
G1 X70.404 Y88.863 E4.83569
G1 X80.996 Y99.455 E5.33228
G1 X80.996 Y98.575 E5.36146
G1 X70.404 Y87.983 E5.85805
G1 X70.404 Y87.103 E5.88722
G1 X80.996 Y97.695 E6.38382
G1 X80.996 Y96.815 E6.41299
G1 X70.404 Y86.223 E6.90959
G1 X70.404 Y85.343 E6.93876
G1 X80.996 Y95.935 E7.43535
G1 X80.996 Y95.055 E7.46453
G1 X70.404 Y84.463 E7.96112
G1 X70.404 Y83.583 E7.99029
G1 X80.996 Y94.175 E8.48689
G1 X80.996 Y93.295 E8.51606
G1 X70.404 Y82.703 E9.01266
G1 X70.404 Y81.823 E9.04183
G1 X80.996 Y92.415 E9.53842
G1 X80.996 Y91.535 E9.56760
G1 X70.404 Y80.943 E10.06419
G1 X70.404 Y80.063 E10.09336
G1 X80.996 Y90.655 E10.58996
G1 X80.996 Y89.775 E10.61913
G1 X70.404 Y79.184 E11.11573
G1 X70.404 Y78.304 E11.14490
G1 X80.996 Y88.896 E11.64149
G1 X80.996 Y88.016 E11.67067
G1 X70.404 Y77.424 E12.16726
G1 X70.404 Y76.544 E12.19643
G1 X80.996 Y87.136 E12.69303
G1 X80.996 Y86.256 E12.72220
G1 X70.404 Y75.664 E13.21880
G1 X70.404 Y74.784 E13.24797
G1 X80.996 Y85.376 E13.74457
G1 X80.996 Y84.496 E13.77374
G1 X70.404 Y73.904 E14.27033
G1 X70.404 Y73.024 E14.29950
G1 X80.996 Y83.616 E14.79610
G1 X80.996 Y82.736 E14.82527
G1 X70.404 Y72.144 E15.32187
G1 X70.404 Y71.264 E15.35104
G1 X80.996 Y81.856 E15.84764
G1 X80.996 Y80.976 E15.87681
G1 X70.404 Y70.384 E16.37340
G1 X70.404 Y69.504 E16.40257
G1 X80.996 Y80.096 E16.89917
G1 X80.996 Y79.216 E16.92834
G1 X70.404 Y68.625 E17.42494
G1 X70.404 Y67.745 E17.45411
G1 X80.996 Y78.337 E17.95071
G1 X80.996 Y77.457 E17.97988
G1 X70.404 Y66.865 E18.47647
G1 X70.404 Y65.985 E18.50565
G1 X80.996 Y76.577 E19.00224
G1 X80.996 Y75.697 E19.03141
G1 X70.404 Y65.105 E19.52801
G1 X70.404 Y64.225 E19.55718
G1 X80.996 Y74.817 E20.05378
G1 X80.996 Y73.937 E20.08295
G1 X70.404 Y63.345 E20.57954
G1 X70.404 Y62.465 E20.60872
G1 X80.996 Y73.057 E21.10531
G1 X80.996 Y72.177 E21.13448
G1 X70.404 Y61.585 E21.63108
G1 X70.404 Y60.705 E21.66025
G1 X80.996 Y71.297 E22.15685
G1 X80.996 Y70.417 E22.18602
G1 X70.404 Y59.825 E22.68261
G1 X70.404 Y58.945 E22.71179
G1 X80.996 Y69.537 E23.20838
G1 X80.996 Y68.657 E23.23755
G1 X70.404 Y58.066 E23.73415
G1 X70.404 Y57.186 E23.76332
G1 X81.023 Y67.804 E24.26118
G1 X81.057 Y66.958 E24.28924
G1 X70.404 Y56.306 E24.78869
G1 X70.404 Y55.426 E24.81786
G1 X81.091 Y66.113 E25.31891
G1 X81.125 Y65.267 E25.34698
G1 X70.404 Y54.546 E25.84961
G1 X70.404 Y53.666 E25.87879
G1 X81.159 Y64.421 E26.38302
G1 X81.212 Y63.594 E26.41047
G1 X70.404 Y52.786 E26.91722
G1 X70.404 Y51.906 E26.94639
G1 X81.307 Y62.810 E27.45759
G1 X81.403 Y62.025 E27.48380
G1 X70.404 Y51.026 E27.99946
G1 X70.404 Y50.146 E28.02863
G1 X81.498 Y61.240 E28.54875
G1 X81.593 Y60.455 E28.57496
G1 X70.404 Y49.266 E29.09954
G1 X70.404 Y48.386 E29.12871
G1 X81.688 Y59.670 E29.65774
G1 X81.806 Y58.908 E29.68330
G1 X70.404 Y47.507 E30.21787
G1 X70.404 Y46.627 E30.24704
G1 X81.955 Y58.177 E30.78860
G1 X82.104 Y57.446 E30.81333
G1 X70.404 Y45.747 E31.36186
G1 X70.404 Y44.867 E31.39104
G1 X82.253 Y56.715 E31.94655
G1 X82.402 Y55.984 E31.97128
G1 X70.404 Y43.987 E32.53378
G1 X70.404 Y43.107 E32.56295
G1 X82.550 Y55.253 E33.13243
G1 X82.708 Y54.531 E33.15693
G1 X70.404 Y42.227 E33.73381
G1 X70.404 Y41.347 E33.76298
G1 X82.905 Y53.849 E34.34910
G1 X83.103 Y53.166 E34.37266
G1 X70.404 Y40.467 E34.96803
G1 X70.404 Y39.587 E34.99720
G1 X83.300 Y52.483 E35.60182
G1 X83.497 Y51.801 E35.62538
G1 X70.404 Y38.707 E36.23925
G1 X70.404 Y37.827 E36.26842
G1 X83.695 Y51.118 E36.89154
G1 X83.892 Y50.435 E36.91510
G1 X70.404 Y36.948 E37.54746
G1 X70.404 Y36.068 E37.57663
G1 X84.117 Y49.780 E38.21955
G1 X84.358 Y49.142 E38.24218
G1 X70.404 Y35.188 E38.89643
G1 X70.404 Y34.308 E38.92560
G1 X84.600 Y48.504 E39.59116
G1 X84.841 Y47.865 E39.61379
G1 X70.404 Y33.428 E40.29068
G1 X70.404 Y32.548 E40.31986
G1 X85.083 Y47.227 E41.00807
G1 X85.324 Y46.588 E41.03070
G1 X70.637 Y31.901 E41.71933
G1 X71.517 Y31.901 E41.74850
G1 X85.566 Y45.950 E42.40720
G1 X85.841 Y45.345 E42.42924
G1 X72.396 Y31.901 E43.05956
G1 X73.276 Y31.901 E43.08873
G1 X86.123 Y44.747 E43.69103
G1 X86.406 Y44.150 E43.71294
G1 X74.156 Y31.901 E44.28724
G1 X75.036 Y31.901 E44.31641
G1 X86.688 Y43.552 E44.86270
G1 X86.971 Y42.955 E44.88461
G1 X75.916 Y31.901 E45.40289
G1 X76.796 Y31.901 E45.43206
G1 X87.253 Y42.358 E45.92233
G1 X87.536 Y41.760 E45.94424
G1 X77.676 Y31.901 E46.40650
G1 X78.556 Y31.901 E46.43567
G1 X87.818 Y41.163 E46.86992
G1 X88.067 Y40.532 E46.89241
G1 X79.436 Y31.901 E47.29708
G1 X80.316 Y31.901 E47.32625
G1 X88.268 Y39.853 E47.69907
G1 X88.413 Y39.118 E47.72388
G1 X81.196 Y31.901 E48.06228
