;This Gcode has been generated specifically for the LulzBot Mini
;Basic settings: Layer height: 0.35 Walls: 0.6 Fill: 30
;Filament Diameter: 2.9
;Nozzle Size: 0.6
G21                          ; metric values
G90                          ; absolute positioning
M82                          ; set extruder to absolute mode
M107                         ; start with the fan off
G92 E0                       ; set extruder position to 0
M140 S40; get bed heating up
G28                          ; home all
M907 X500                    ; reduce extruder torque for safety
M109 S160                    ; set to cleaning temp and wait
G1 Z150 E-30 F55             ; suck up XXmm of filament
M109 S170                    ; heat up rest of way
G1 X45 Y174 F11520           ; move behind scraper
G1 Z0  F1200                 ; CRITICAL: set Z to height of top of scraper
G1 X45 Y174 Z-.5 F4000       ; wiping ; plunge into wipe pad
G1 X55 Y172 Z-.5 F4000       ; wiping
G1 X45 Y174 Z0 F4000         ; wiping
G1 X55 Y172 F4000            ; wiping
G1 X45 Y174 F4000            ; wiping
G1 X55 Y172 F4000            ; wiping
G1 X45 Y174 F4000            ; wiping
G1 X55 Y172 F4000            ; wiping
G1 X60 Y174 F4000            ; wiping
G1 X80 Y172 F4000            ; wiping
G1 X60 Y174 F4000            ; wiping
G1 X80 Y172 F4000            ; wiping
G1 X60 Y174 F4000            ; wiping
G1 X90 Y172 F4000            ; wiping
G1 X80 Y174 F4000            ; wiping
G1 X100 Y172 F4000           ; wiping
G1 X80 Y174 F4000            ; wiping
G1 X100 Y172 F4000           ; wiping
G1 X80 Y174 F4000            ; wiping
G1 X100 Y172 F4000           ; wiping
G1 X110 Y174 F4000           ; wiping
G1 X100 Y172 F4000           ; wiping
G1 X110 Y174 F4000           ; wiping
G1 X100 Y172 F4000           ; wiping
G1 X110 Y174 F4000           ; wiping
G1 X115 Y172 Z-0.5 F1000     ; wipe slower and bury noz in cleanish area
G1 Z10                       ; raise z
G28 X0 Y0                    ; home x and y
M109 S180                    ; set to probing temp
M204 S300                    ; Set probing acceleration
G29                          ; Probe
M204 S2000                   ; Restore standard acceleration
G1 X5 Y15 Z10 F5000          ; get out the way
G4 S1                        ; pause
M400                         ; clear buffer
M109 S227    ; set extruder temp and wait
G1 Z2 E0 F45                 ; extrude filament back into nozzle
M140 S40; get bed temping up during first layer

;Layer count: 20
;LAYER:0
M107
G0 F10500 X46.581 Y61.641 Z0.400
;TYPE:SKIRT
G1 F480 X46.581 Y93.552 E1.44936
G1 X66.018 Y112.988 E2.69780
G1 X90.212 Y112.988 E3.79666
G1 X93.189 Y110.013 E3.98782
G1 X93.189 Y110.014 E3.98786
G1 X113.419 Y89.783 E5.28730
G1 X113.419 Y62.582 E6.52274
G1 X93.849 Y43.012 E7.77976
G1 X65.210 Y43.012 E9.08051
G1 X46.581 Y61.641 E10.27708
G0 F10500 X36.298 Y58.782
G1 F480 X26.632 Y49.116 E10.89795
G1 X25.582 Y48.021 E10.96685
G1 X24.890 Y47.185 E11.01614
G1 X24.232 Y46.284 E11.06681
G1 X23.627 Y45.340 E11.11774
G1 X23.082 Y44.358 E11.16875
G1 X22.600 Y43.343 E11.21978
G1 X22.162 Y42.246 E11.27343
G1 X21.830 Y41.227 E11.32211
G1 X21.549 Y40.145 E11.37288
G1 X21.335 Y39.044 E11.42382
G1 X21.190 Y37.929 E11.47489
G1 X21.116 Y36.812 E11.52573
G1 X21.112 Y35.689 E11.57674
G1 X21.181 Y34.511 E11.63034
G1 X21.315 Y33.445 E11.67913
G1 X21.532 Y32.291 E11.73246
G1 X21.798 Y31.254 E11.78109
G1 X22.158 Y30.134 E11.83452
G1 X22.552 Y29.139 E11.88313
G1 X23.048 Y28.074 E11.93649
G1 X23.565 Y27.135 E11.98517
G1 X24.160 Y26.191 E12.03585
G1 X24.850 Y25.233 E12.08947
G1 X25.571 Y24.363 E12.14079
G1 X26.300 Y23.585 E12.18922
G1 X27.111 Y22.820 E12.23986
G1 X27.974 Y22.100 E12.29090
G1 X28.880 Y21.438 E12.34187
G1 X29.875 Y20.800 E12.39555
G1 X30.814 Y20.285 E12.44419
G1 X31.820 Y19.807 E12.49478
G1 X32.865 Y19.388 E12.54591
G1 X33.932 Y19.038 E12.59692
G1 X35.076 Y18.739 E12.65062
G1 X36.128 Y18.540 E12.69925
G1 X37.234 Y18.397 E12.74990
G1 X38.352 Y18.321 E12.80080
G1 X39.534 Y18.317 E12.85448
G1 X40.605 Y18.384 E12.90322
G1 X41.770 Y18.528 E12.95653
G1 X42.822 Y18.727 E13.00516
G1 X43.907 Y19.002 E13.05600
G1 X45.030 Y19.363 E13.10958
G1 X46.026 Y19.758 E13.15824
G1 X47.036 Y20.229 E13.20886
G1 X48.025 Y20.767 E13.25999
G1 X49.024 Y21.397 E13.31363
G1 X49.889 Y22.025 E13.36218
G1 X50.753 Y22.735 E13.41298
G1 X51.539 Y23.467 E13.46176
G1 X62.207 Y34.134 E14.14695
G1 X62.207 Y20.049 E14.78667
G1 X62.238 Y18.533 E14.85554
G1 X62.340 Y17.455 E14.90472
G1 X62.511 Y16.352 E14.95542
G1 X62.752 Y15.253 E15.00652
G1 X63.062 Y14.173 E15.05755
G1 X63.438 Y13.116 E15.10851
G1 X63.904 Y12.031 E15.16214
G1 X64.389 Y11.077 E15.21075
G1 X64.955 Y10.113 E15.26152
G1 X65.583 Y9.183 E15.31249
G1 X66.209 Y8.368 E15.35916
G1 X66.312 Y8.236 E15.36677
G1 X67.013 Y7.442 E15.41487
G1 X67.799 Y6.651 E15.46552
G1 X68.682 Y5.867 E15.51915
G1 X69.528 Y5.210 E15.56780
G1 X70.499 Y4.545 E15.62126
G1 X71.420 Y4.002 E15.66982
G1 X72.464 Y3.464 E15.72316
G1 X73.448 Y3.039 E15.77184
G1 X74.554 Y2.637 E15.82529
G1 X75.581 Y2.339 E15.87386
G1 X76.667 Y2.092 E15.92444
G1 X77.834 Y1.901 E15.97815
G1 X78.960 Y1.796 E16.02952
G1 X79.899 Y1.767 E16.07218
G1 X79.899 Y1.766 E16.07223
G1 X80.069 Y1.760 E16.07996
G1 X81.144 Y1.794 E16.12881
G1 X82.256 Y1.894 E16.17951
G1 X83.370 Y2.066 E16.23071
G1 X84.522 Y2.321 E16.28430
G1 X85.548 Y2.618 E16.33281
G1 X86.602 Y2.993 E16.38362
G1 X87.635 Y3.436 E16.43467
G1 X88.637 Y3.943 E16.48568
G1 X89.654 Y4.540 E16.53924
G1 X90.542 Y5.142 E16.58797
G1 X91.351 Y5.766 E16.63437
G1 X91.478 Y5.866 E16.64171
G1 X92.274 Y6.567 E16.68989
G1 X93.108 Y7.395 E16.74326
G1 X93.817 Y8.198 E16.79192
G1 X94.541 Y9.125 E16.84534
G1 X95.144 Y10.013 E16.89409
G1 X95.713 Y10.970 E16.94466
G1 X96.253 Y12.018 E16.99820
G1 X96.680 Y13.003 E17.04696
G1 X97.061 Y14.054 E17.09774
G1 X97.377 Y15.129 E17.14863
G1 X97.640 Y16.281 E17.20230
G1 X97.807 Y17.341 E17.25104
G1 X97.916 Y18.450 E17.30165
G1 X97.954 Y19.525 E17.35050
G1 X97.955 Y33.466 E17.98369
G1 X107.366 Y24.055 E18.58817
G1 X108.461 Y23.005 E18.65708
G1 X109.297 Y22.313 E18.70637
G1 X110.198 Y21.655 E18.75704
G1 X111.142 Y21.050 E18.80797
G1 X112.124 Y20.505 E18.85898
G1 X113.139 Y20.023 E18.91001
G1 X114.236 Y19.585 E18.96366
G1 X115.256 Y19.253 E19.01238
G1 X116.336 Y18.972 E19.06306
G1 X117.438 Y18.758 E19.11405
G1 X118.554 Y18.613 E19.16516
G1 X119.671 Y18.539 E19.21601
G1 X120.794 Y18.535 E19.26701
G1 X121.973 Y18.604 E19.32065
G1 X123.037 Y18.738 E19.36936
G1 X124.191 Y18.955 E19.42269
G1 X125.228 Y19.221 E19.47132
G1 X126.348 Y19.581 E19.52475
G1 X127.344 Y19.975 E19.57340
G1 X128.408 Y20.472 E19.62673
G1 X129.347 Y20.988 E19.67540
G1 X130.291 Y21.583 E19.72608
G1 X131.249 Y22.273 E19.77970
G1 X132.119 Y22.994 E19.83102
G1 X132.896 Y23.722 E19.87938
G1 X133.662 Y24.534 E19.93008
G1 X134.381 Y25.395 E19.98103
G1 X135.045 Y26.302 E20.03208
G1 X135.682 Y27.297 E20.08574
G1 X136.198 Y28.237 E20.13445
G1 X136.677 Y29.245 E20.18513
G1 X137.094 Y30.289 E20.23619
G1 X137.444 Y31.355 E20.28715
G1 X137.742 Y32.497 E20.34076
G1 X137.943 Y33.549 E20.38940
G1 X138.087 Y34.659 E20.44024
G1 X138.161 Y35.777 E20.49113
G1 X138.165 Y36.955 E20.54463
G1 X138.099 Y38.026 E20.59337
G1 X137.955 Y39.194 E20.64682
G1 X137.754 Y40.247 E20.69551
G1 X137.480 Y41.330 E20.74625
G1 X137.119 Y42.452 E20.79978
G1 X136.725 Y43.448 E20.84843
G1 X136.253 Y44.460 E20.89915
G1 X135.716 Y45.447 E20.95018
G1 X135.086 Y46.447 E21.00386
G1 X134.457 Y47.313 E21.05247
G1 X133.748 Y48.176 E21.10320
G1 X133.014 Y48.963 E21.15208
G1 X121.890 Y60.088 E21.86663
G1 X136.382 Y60.088 E22.52484
G1 X137.899 Y60.119 E22.59375
G1 X138.977 Y60.221 E22.64293
G1 X140.080 Y60.392 E22.69363
G1 X141.178 Y60.633 E22.74468
G1 X142.258 Y60.943 E22.79572
G1 X143.315 Y61.319 E22.84667
G1 X144.399 Y61.785 E22.90026
G1 X145.354 Y62.270 E22.94891
G1 X146.320 Y62.837 E22.99978
G1 X147.249 Y63.464 E23.05069
G1 X148.063 Y64.090 E23.09733
G1 X148.195 Y64.193 E23.10493
G1 X148.989 Y64.894 E23.15304
G1 X149.779 Y65.679 E23.20362
G1 X150.565 Y66.563 E23.25735
G1 X151.221 Y67.410 E23.30600
G1 X151.885 Y68.378 E23.35932
G1 X152.430 Y69.301 E23.40800
G1 X152.967 Y70.346 E23.46137
G1 X153.392 Y71.329 E23.51001
G1 X153.794 Y72.433 E23.56337
G1 X154.093 Y73.462 E23.61204
G1 X154.339 Y74.550 E23.66270
G1 X154.529 Y75.715 E23.71631
G1 X154.636 Y76.841 E23.76769
G1 X154.664 Y77.781 E23.81040
G1 X154.665 Y77.781 E23.81044
G1 X154.671 Y77.949 E23.81808
G1 X154.638 Y79.025 E23.86697
G1 X154.536 Y80.138 E23.91774
G1 X154.365 Y81.249 E23.96879
G1 X154.111 Y82.403 E24.02246
G1 X153.812 Y83.430 E24.07104
G1 X153.438 Y84.483 E24.12179
G1 X152.996 Y85.514 E24.17274
G1 X152.490 Y86.518 E24.22381
G1 X151.891 Y87.536 E24.27745
G1 X151.289 Y88.421 E24.32607
G1 X150.667 Y89.231 E24.37245
G1 X150.565 Y89.361 E24.37995
G1 X149.863 Y90.156 E24.42813
G1 X149.036 Y90.989 E24.48144
G1 X148.233 Y91.698 E24.53009
G1 X147.307 Y92.421 E24.58345
G1 X146.420 Y93.024 E24.63216
G1 X145.461 Y93.595 E24.68286
G1 X144.412 Y94.135 E24.73644
G1 X143.428 Y94.561 E24.78514
G1 X142.377 Y94.942 E24.83592
G1 X141.302 Y95.258 E24.88681
G1 X140.150 Y95.521 E24.94048
G1 X139.092 Y95.688 E24.98913
G1 X137.981 Y95.797 E25.03983
G1 X136.905 Y95.835 E25.08873
G1 X121.722 Y95.836 E25.77832
G1 X130.782 Y104.896 E26.36026
G1 X131.831 Y105.991 E26.42914
G1 X132.522 Y106.826 E26.47836
G1 X133.180 Y107.727 E26.52904
G1 X133.785 Y108.671 E26.57996
G1 X134.330 Y109.653 E26.63097
G1 X134.812 Y110.668 E26.68200
G1 X135.250 Y111.765 E26.73565
G1 X135.582 Y112.785 E26.78437
G1 X135.863 Y113.865 E26.83506
G1 X136.077 Y114.967 E26.88604
G1 X136.222 Y116.083 E26.93716
G1 X136.296 Y117.200 E26.98800
G1 X136.300 Y118.323 E27.03901
G1 X136.231 Y119.502 E27.09265
G1 X136.097 Y120.566 E27.14136
G1 X135.880 Y121.720 E27.19469
G1 X135.614 Y122.757 E27.24331
G1 X135.254 Y123.877 E27.29674
G1 X134.860 Y124.873 E27.34539
G1 X134.363 Y125.937 E27.39873
G1 X133.847 Y126.876 E27.44739
G1 X133.252 Y127.820 E27.49807
G1 X132.562 Y128.778 E27.55170
G1 X131.842 Y129.647 E27.60295
G1 X131.115 Y130.424 E27.65128
G1 X130.302 Y131.192 E27.70208
G1 X129.439 Y131.911 E27.75309
G1 X128.533 Y132.574 E27.80409
G1 X127.538 Y133.211 E27.85774
G1 X126.598 Y133.727 E27.90645
G1 X125.590 Y134.206 E27.95714
G1 X124.546 Y134.623 E28.00820
G1 X123.480 Y134.973 E28.05916
G1 X122.339 Y135.271 E28.11272
G1 X121.285 Y135.472 E28.16145
G1 X120.176 Y135.616 E28.21224
G1 X119.058 Y135.690 E28.26313
G1 X117.880 Y135.694 E28.31664
G1 X116.809 Y135.628 E28.36537
G1 X115.640 Y135.484 E28.41887
G1 X114.589 Y135.283 E28.46747
G1 X113.506 Y135.009 E28.51821
G1 X112.383 Y134.648 E28.57178
G1 X111.387 Y134.254 E28.62043
G1 X110.375 Y133.782 E28.67115
G1 X109.388 Y133.245 E28.72218
G1 X108.388 Y132.615 E28.77586
G1 X107.521 Y131.985 E28.82454
G1 X106.659 Y131.276 E28.87523
G1 X105.873 Y130.543 E28.92404
G1 X95.575 Y120.247 E29.58544
G1 X95.575 Y135.952 E30.29874
G1 X95.543 Y137.467 E30.36757
G1 X95.442 Y138.543 E30.41665
G1 X95.271 Y139.648 E30.46744
G1 X95.030 Y140.747 E30.51854
G1 X94.720 Y141.827 E30.56957
G1 X94.344 Y142.884 E30.62053
G1 X93.878 Y143.969 E30.67416
G1 X93.393 Y144.923 E30.72277
G1 X92.827 Y145.887 E30.77354
G1 X92.199 Y146.817 E30.82451
G1 X91.573 Y147.632 E30.87118
G1 X91.470 Y147.764 E30.87879
G1 X90.769 Y148.558 E30.92689
G1 X89.983 Y149.349 E30.97754
G1 X89.100 Y150.133 E31.03117
G1 X88.254 Y150.790 E31.07982
G1 X87.283 Y151.455 E31.13327
G1 X86.362 Y151.998 E31.18183
G1 X85.318 Y152.536 E31.23518
G1 X84.334 Y152.961 E31.28386
G1 X83.228 Y153.363 E31.33731
G1 X82.201 Y153.661 E31.38588
G1 X81.115 Y153.908 E31.43646
G1 X79.948 Y154.098 E31.49016
G1 X78.823 Y154.204 E31.54149
G1 X77.883 Y154.233 E31.58420
G1 X77.883 Y154.234 E31.58424
G1 X77.713 Y154.240 E31.59197
G1 X76.638 Y154.206 E31.64082
G1 X75.526 Y154.106 E31.69153
G1 X74.412 Y153.934 E31.74273
G1 X73.260 Y153.679 E31.79631
G1 X72.234 Y153.382 E31.84483
G1 X71.180 Y153.007 E31.89564
G1 X70.147 Y152.564 E31.94669
G1 X69.145 Y152.057 E31.99769
G1 X68.128 Y151.460 E32.05125
G1 X67.241 Y150.858 E32.09994
G1 X66.431 Y150.234 E32.14638
G1 X66.302 Y150.133 E32.15382
G1 X65.507 Y149.432 E32.20196
G1 X64.674 Y148.605 E32.25528
G1 X63.965 Y147.802 E32.30393
G1 X63.241 Y146.875 E32.35735
G1 X62.638 Y145.987 E32.40610
G1 X62.069 Y145.030 E32.45667
G1 X61.529 Y143.982 E32.51022
G1 X61.102 Y142.997 E32.55898
G1 X60.721 Y141.946 E32.60975
G1 X60.405 Y140.871 E32.66064
G1 X60.142 Y139.719 E32.71431
G1 X59.975 Y138.659 E32.76305
G1 X59.866 Y137.550 E32.81366
G1 X59.828 Y136.475 E32.86252
G1 X59.827 Y121.277 E33.55279
G1 X50.829 Y130.275 E34.13075
G1 X49.734 Y131.324 E34.19962
G1 X48.899 Y132.015 E34.24885
G1 X47.998 Y132.673 E34.29952
G1 X47.054 Y133.278 E34.35045
G1 X46.071 Y133.823 E34.40150
G1 X45.055 Y134.306 E34.45259
G1 X43.959 Y134.743 E34.50618
G1 X42.941 Y135.075 E34.55482
G1 X41.860 Y135.356 E34.60554
G1 X40.758 Y135.570 E34.65653
G1 X39.642 Y135.715 E34.70764
G1 X38.525 Y135.789 E34.75849
G1 X37.402 Y135.793 E34.80949
G1 X36.224 Y135.724 E34.86309
G1 X35.158 Y135.590 E34.91189
G1 X34.005 Y135.373 E34.96517
G1 X32.967 Y135.107 E35.01384
G1 X31.848 Y134.747 E35.06723
G1 X30.852 Y134.353 E35.11588
G1 X29.788 Y133.856 E35.16922
G1 X28.849 Y133.340 E35.21788
G1 X27.905 Y132.745 E35.26856
G1 X26.947 Y132.055 E35.32218
G1 X26.078 Y131.335 E35.37344
G1 X25.301 Y130.608 E35.42177
G1 X24.533 Y129.795 E35.47256
G1 X23.814 Y128.932 E35.52358
G1 X23.151 Y128.026 E35.57457
G1 X22.514 Y127.031 E35.62823
G1 X21.998 Y126.091 E35.67694
G1 X21.519 Y125.083 E35.72762
G1 X21.102 Y124.040 E35.77864
G1 X20.751 Y122.974 E35.82961
G1 X20.454 Y121.831 E35.88325
G1 X20.253 Y120.778 E35.93194
G1 X20.109 Y119.669 E35.98273
G1 X20.035 Y118.551 E36.03362
G1 X20.031 Y117.373 E36.08713
G1 X20.097 Y116.302 E36.13586
G1 X20.241 Y115.133 E36.18936
G1 X20.441 Y114.084 E36.23786
G1 X20.715 Y112.999 E36.28869
G1 X21.077 Y111.875 E36.34232
G1 X21.471 Y110.880 E36.39093
G1 X21.943 Y109.867 E36.44168
G1 X22.480 Y108.882 E36.49264
G1 X23.109 Y107.883 E36.54626
G1 X23.739 Y107.015 E36.59497
G1 X24.450 Y106.151 E36.64579
G1 X25.182 Y105.366 E36.69454
G1 X36.015 Y94.530 E37.39046
G1 X23.618 Y94.530 E37.95352
G1 X22.101 Y94.499 E38.02243
G1 X21.023 Y94.397 E38.07161
G1 X19.920 Y94.226 E38.12231
G1 X18.824 Y93.986 E38.17326
G1 X17.742 Y93.676 E38.22439
G1 X16.683 Y93.298 E38.27546
G1 X15.601 Y92.833 E38.32895
G1 X14.646 Y92.348 E38.37759
G1 X13.680 Y91.781 E38.42847
G1 X12.751 Y91.154 E38.47937
G1 X11.937 Y90.528 E38.52601
G1 X11.805 Y90.425 E38.53362
G1 X11.011 Y89.724 E38.58172
G1 X10.221 Y88.939 E38.63230
G1 X9.435 Y88.055 E38.68603
G1 X8.779 Y87.208 E38.73469
G1 X8.115 Y86.240 E38.78800
G1 X7.570 Y85.317 E38.83669
G1 X7.033 Y84.272 E38.89005
G1 X6.608 Y83.289 E38.93869
G1 X6.206 Y82.185 E38.99205
G1 X5.907 Y81.156 E39.04072
G1 X5.661 Y80.068 E39.09139
G1 X5.471 Y78.905 E39.14491
G1 X5.364 Y77.778 E39.19633
G1 X5.336 Y76.838 E39.23904
G1 X5.335 Y76.838 E39.23908
G1 X5.329 Y76.670 E39.24672
G1 X5.362 Y75.593 E39.29566
G1 X5.464 Y74.480 E39.34642
G1 X5.635 Y73.369 E39.39748
G1 X5.889 Y72.214 E39.45119
G1 X6.188 Y71.188 E39.49973
G1 X6.562 Y70.136 E39.55044
G1 X7.004 Y69.105 E39.60138
G1 X7.510 Y68.101 E39.65245
G1 X8.110 Y67.081 E39.70620
G1 X8.711 Y66.198 E39.75471
G1 X9.333 Y65.388 E39.80109
G1 X9.435 Y65.257 E39.80863
G1 X10.137 Y64.462 E39.85681
G1 X10.964 Y63.629 E39.91012
G1 X11.768 Y62.919 E39.95884
G1 X12.694 Y62.197 E40.01217
G1 X13.578 Y61.596 E40.06072
G1 X14.537 Y61.024 E40.11143
G1 X15.590 Y60.483 E40.16520
G1 X16.573 Y60.058 E40.21384
G1 X17.621 Y59.676 E40.26450
G1 X18.698 Y59.360 E40.31548
G1 X19.850 Y59.097 E40.36915
G1 X20.908 Y58.930 E40.41780
G1 X22.019 Y58.821 E40.46850
G1 X23.095 Y58.783 E40.51740
G1 X36.298 Y58.782 E41.11707
G1 F240 E39.11707
G1 Z0.500
G0 F10500 X42.869 Y60.050
;TYPE:WALL-OUTER
G1 Z0.400
G1 F240 E41.11707
G1 F480 X29.313 Y46.494 E41.98779
G1 X28.378 Y45.519 E42.04915
G1 X27.851 Y44.882 E42.08670
G1 X27.328 Y44.165 E42.12701
G1 X26.850 Y43.419 E42.16725
G1 X26.420 Y42.644 E42.20750
G1 X26.033 Y41.830 E42.24844
G1 X25.693 Y40.978 E42.29010
G1 X25.428 Y40.164 E42.32898
G1 X25.208 Y39.315 E42.36882
G1 X25.039 Y38.446 E42.40903
G1 X24.923 Y37.553 E42.44993
G1 X24.866 Y36.683 E42.48952
G1 X24.862 Y35.780 E42.53054
G1 X24.917 Y34.860 E42.57240
G1 X25.020 Y34.037 E42.61007
G1 X25.198 Y33.091 E42.65379
G1 X25.399 Y32.305 E42.69064
G1 X25.689 Y31.403 E42.73367
G1 X26.002 Y30.613 E42.77226
G1 X26.389 Y29.783 E42.81386
G1 X26.803 Y29.030 E42.85289
G1 X27.271 Y28.287 E42.89277
G1 X27.816 Y27.532 E42.93506
G1 X28.385 Y26.843 E42.97565
G1 X28.957 Y26.235 E43.01356
G1 X29.603 Y25.625 E43.05392
G1 X30.282 Y25.058 E43.09409
G1 X31.000 Y24.534 E43.13447
G1 X31.791 Y24.026 E43.17716
G1 X32.519 Y23.627 E43.21487
G1 X33.335 Y23.239 E43.25591
G1 X34.148 Y22.913 E43.29569
G1 X34.983 Y22.639 E43.33560
G1 X35.908 Y22.398 E43.37902
G1 X36.711 Y22.246 E43.41614
G1 X37.605 Y22.130 E43.45708
G1 X38.483 Y22.071 E43.49705
G1 X39.427 Y22.067 E43.53993
G1 X40.256 Y22.119 E43.57765
G1 X41.194 Y22.235 E43.62058
G1 X42.013 Y22.390 E43.65844
G1 X42.862 Y22.606 E43.69823
G1 X43.761 Y22.894 E43.74110
G1 X44.547 Y23.206 E43.77951
G1 X45.353 Y23.581 E43.81989
G1 X46.123 Y24.000 E43.85970
G1 X46.914 Y24.500 E43.90220
G1 X47.597 Y24.995 E43.94051
G1 X48.284 Y25.560 E43.98091
G1 X48.939 Y26.170 E44.02157
G1 X62.845 Y40.074 E44.91471
G1 X42.869 Y60.050 E46.19781
G0 F10500 X42.932 Y59.443
G0 X39.479 Y39.590
G0 X39.457 Y39.116
G1 F480 X39.541 Y39.109 E46.20163
G1 X40.248 Y38.880 E46.23539
G1 X40.878 Y38.480 E46.26928
G1 X41.389 Y37.935 E46.30321
G1 X41.708 Y37.355 E46.33328
G1 X41.749 Y37.281 E46.33712
G1 X41.934 Y36.558 E46.37102
G1 X41.934 Y35.812 E46.40490
G1 X41.769 Y35.167 E46.43514
G1 X41.747 Y35.086 E46.43895
G1 X41.430 Y34.509 E46.46885
G1 X41.389 Y34.435 E46.47269
G1 X40.935 Y33.951 E46.50283
G1 X40.876 Y33.889 E46.50672
G1 X40.248 Y33.491 E46.54049
G1 X39.618 Y33.286 E46.57058
G1 X39.541 Y33.260 E46.57427
G1 X38.883 Y33.219 E46.60421
G1 X38.796 Y33.212 E46.60818
G1 X38.141 Y33.337 E46.63846
G1 X38.058 Y33.353 E46.64230
G1 X37.385 Y33.671 E46.67611
G1 X36.808 Y34.146 E46.71006
G1 X36.419 Y34.683 E46.74017
G1 X36.370 Y34.750 E46.74394
G1 X36.126 Y35.366 E46.77404
G1 X36.095 Y35.445 E46.77789
G1 X36.013 Y36.098 E46.80778
G1 X36.002 Y36.183 E46.81167
G1 X36.095 Y36.926 E46.84568
G1 X36.370 Y37.620 E46.87959
G1 X36.809 Y38.224 E46.91350
G1 X37.385 Y38.699 E46.94741
G1 X38.059 Y39.017 E46.98126
G1 X38.792 Y39.157 E47.01515
G1 X39.457 Y39.116 E47.04541
G0 F10500 X39.479 Y39.590
G0 X37.881 Y39.567
G0 X31.606 Y37.288
G0 X31.190 Y37.060
G1 F480 X31.339 Y36.484 E47.07244
G1 X31.339 Y35.888 E47.09951
G1 X31.190 Y35.310 E47.12662
G1 X30.904 Y34.788 E47.15365
G1 X30.496 Y34.353 E47.18074
G1 X29.992 Y34.034 E47.20783
G1 X29.426 Y33.850 E47.23486
G1 X28.830 Y33.812 E47.26198
G1 X28.245 Y33.924 E47.28904
G1 X27.705 Y34.178 E47.31614
G1 X27.247 Y34.557 E47.34314
G1 X26.896 Y35.040 E47.37026
G1 X26.677 Y35.594 E47.39732
G1 X26.602 Y36.185 E47.42437
G1 X26.677 Y36.777 E47.45148
G1 X26.896 Y37.331 E47.47853
G1 X27.247 Y37.813 E47.50561
G1 X27.705 Y38.193 E47.53264
G1 X28.245 Y38.446 E47.55973
G1 X28.830 Y38.558 E47.58678
G1 X29.426 Y38.521 E47.61390
G1 X29.992 Y38.337 E47.64093
G1 X30.496 Y38.017 E47.66805
G1 X30.904 Y37.583 E47.69510
G1 X31.190 Y37.060 E47.72218
G0 F10500 X31.606 Y37.288
G0 X37.503 Y28.621
G0 X37.705 Y28.193
G1 F480 X38.245 Y28.446 E47.74926
G1 X38.830 Y28.558 E47.77632
G1 X39.426 Y28.521 E47.80344
G1 X39.992 Y28.337 E47.83047
G1 X40.496 Y28.017 E47.85758
G1 X40.904 Y27.583 E47.88464
G1 X41.190 Y27.060 E47.91171
G1 X41.339 Y26.484 E47.93873
G1 X41.339 Y25.888 E47.96580
G1 X41.190 Y25.310 E47.99291
G1 X40.904 Y24.788 E48.01995
G1 X40.496 Y24.353 E48.04704
G1 X39.992 Y24.034 E48.07413
G1 X39.426 Y23.850 E48.10116
G1 X38.830 Y23.812 E48.12828
G1 X38.245 Y23.924 E48.15533
G1 X37.705 Y24.178 E48.18244
G1 X37.247 Y24.557 E48.20944
G1 X36.896 Y25.040 E48.23656
G1 X36.677 Y25.594 E48.26361
G1 X36.602 Y26.185 E48.29067
G1 X36.677 Y26.777 E48.31777
G1 X36.896 Y27.331 E48.34483
G1 X37.247 Y27.813 E48.37191
G1 X37.705 Y28.193 E48.39894
G0 F10500 X38.893 Y28.817
;TYPE:SKIN
G1 F480 X56.311 Y46.234 E49.51770
G0 F10500 X56.841 Y45.704
G1 F480 X39.809 Y28.672 E50.61170
G0 F10500 X39.875 Y28.875
G0 X38.068 Y28.996
G0 X36.390 Y27.609
G0 X36.137 Y26.296
G0 X36.347 Y26.271
G1 F480 X33.523 Y23.446 E50.79312
G0 F10500 X32.800 Y23.784
G1 F480 X55.780 Y46.765 E52.26920
G0 F10500 X55.250 Y47.295
G1 F480 X32.107 Y24.152 E53.75572
G0 F10500 X31.452 Y24.557
G1 F480 X40.039 Y33.145 E54.30731
G0 F10500 X40.103 Y32.945
G0 X41.351 Y33.555
G0 X42.238 Y35.086
G0 X42.032 Y35.138
G1 F480 X54.720 Y47.825 E55.12225
G0 F10500 X54.189 Y48.356
G1 F480 X42.195 Y36.362 E55.89265
G0 F10500 X42.026 Y37.253
G1 F480 X53.659 Y48.886 E56.63985
G0 F10500 X53.129 Y49.416
G1 F480 X41.674 Y37.961 E57.37563
G0 F10500 X41.185 Y38.533
G1 F480 X52.598 Y49.947 E58.10874
G0 F10500 X52.068 Y50.477
G1 F480 X40.575 Y38.984 E58.84696
G0 F10500 X40.687 Y39.163
G0 X41.856 Y38.274
G0 X42.507 Y36.631
G0 X42.281 Y34.868
G0 X41.241 Y33.442
G0 X40.627 Y28.496
G0 X40.514 Y28.316
G1 F480 X57.371 Y45.174 E59.92975
G0 F10500 X57.902 Y44.643
G1 F480 X41.058 Y27.800 E61.01163
G0 F10500 X41.444 Y27.125
G1 F480 X58.432 Y44.113 E62.10281
G0 F10500 X58.962 Y43.583
G1 F480 X41.601 Y26.221 E63.21797
G0 F10500 X41.814 Y26.221
G0 X41.727 Y25.098
G0 X41.360 Y24.632
G0 X41.174 Y24.733
G1 F480 X59.493 Y43.052 E64.39463
G0 F10500 X59.346 Y42.903
G0 X51.390 Y50.859
G0 X51.538 Y51.007
G1 F480 X39.823 Y39.293 E65.14707
G0 F10500 X38.883 Y39.414
G1 F480 X51.007 Y51.538 E65.92582
G0 F10500 X50.477 Y52.068
G1 F480 X37.409 Y39.000 E66.76520
G0 F10500 X37.318 Y39.192
G0 X36.388 Y38.619
G0 X35.929 Y37.794
G0 X36.126 Y37.717
G1 F480 X27.238 Y28.829 E67.33609
G0 F10500 X27.662 Y28.192
G1 F480 X35.749 Y36.280 E67.85557
G0 F10500 X35.858 Y35.327
G1 F480 X28.113 Y27.582 E68.35305
G0 F10500 X28.593 Y27.002
G1 F480 X36.169 Y34.578 E68.83967
G0 F10500 X36.616 Y33.964
G1 F480 X29.108 Y26.456 E69.32192
G0 F10500 X29.652 Y25.940
G1 F480 X37.196 Y33.484 E69.80648
G0 F10500 X37.905 Y33.132
G1 F480 X30.223 Y25.450 E70.29991
G0 F10500 X30.822 Y24.989
G1 F480 X38.780 Y32.946 E70.81104
G0 F10500 X38.797 Y32.736
G0 X37.879 Y32.804
G0 X31.546 Y34.971
G0 X31.360 Y35.072
G1 F480 X49.416 Y53.129 E71.97084
G0 F10500 X48.886 Y53.659
G1 F480 X31.602 Y36.374 E73.08105
G0 F10500 X31.396 Y37.229
G1 F480 X48.356 Y54.189 E74.17043
G0 F10500 X47.825 Y54.720
G1 F480 X30.984 Y37.879 E75.25216
G0 F10500 X30.421 Y38.376
G1 F480 X47.295 Y55.250 E76.33600
G0 F10500 X46.765 Y55.780
G1 F480 X29.694 Y38.709 E77.43251
G0 F10500 X28.729 Y38.806
G1 F480 X46.234 Y56.311 E78.55688
G0 F10500 X45.704 Y56.841
G1 F480 X25.127 Y36.263 E79.87861
G0 F10500 X25.156 Y35.233
G1 F480 X26.370 Y36.446 E79.95656
G0 F10500 X26.445 Y35.461
G1 F480 X25.254 Y34.269 E80.03309
G0 F10500 X25.413 Y33.368
G1 F480 X26.788 Y34.742 E80.12138
G0 F10500 X27.286 Y34.180
G1 F480 X25.616 Y32.510 E80.22865
G0 F10500 X25.868 Y31.702
G1 F480 X27.941 Y33.774 E80.36177
G0 F10500 X28.779 Y33.552
G1 F480 X26.158 Y30.931 E80.53012
G0 F10500 X26.484 Y30.196
G1 F480 X30.069 Y33.782 E80.76042
G0 F10500 X30.134 Y33.582
G0 X27.030 Y29.598
G0 X26.845 Y29.496
G1 F480 X49.947 Y52.598 E82.24431
G0 F10500 X49.799 Y52.450
G0 X45.026 Y57.223
G0 X45.174 Y57.371
G1 F480 X25.173 Y37.370 E83.52901
G0 F10500 X25.334 Y38.593
G1 F480 X44.643 Y57.902 E84.76926
G0 F10500 X44.113 Y58.432
G1 F480 X25.648 Y39.967 E85.95530
G0 F10500 X25.854 Y39.915
G0 X26.118 Y35.451
G0 X27.396 Y33.691
G0 X29.534 Y33.283
G0 X36.293 Y25.275
G0 X36.489 Y25.352
G1 F480 X34.282 Y23.145 E86.09706
G0 F10500 X35.082 Y22.884
G1 F480 X36.852 Y24.654 E86.21075
G0 F10500 X37.369 Y24.111
G1 F480 X35.924 Y22.666 E86.30356
G0 F10500 X36.816 Y22.497
G1 F480 X38.045 Y23.726 E86.38251
G0 F10500 X38.935 Y23.555
G1 F480 X37.762 Y22.382 E86.45785
G0 F10500 X38.773 Y22.333
G1 F480 X40.461 Y24.021 E86.56627
G0 F10500 X40.575 Y23.841
G0 X41.015 Y22.691
G0 X41.041 Y22.480
G1 F480 X60.553 Y41.992 E87.81956
G0 F10500 X60.023 Y42.522
G1 F480 X39.858 Y22.357 E89.11480
G0 F10500 X39.845 Y22.568
G0 X42.323 Y22.958
G0 X42.375 Y22.753
G1 F480 X61.084 Y41.461 E90.31648
G0 F10500 X61.614 Y40.931
G1 F480 X43.925 Y23.242 E91.45268
G0 F10500 X43.847 Y23.437
G0 X45.843 Y24.388
G0 X45.946 Y24.202
G1 F480 X62.144 Y40.401 E92.49314
G0 F10500 X61.997 Y40.252
G0 X43.435 Y58.814
G0 X43.583 Y58.962
G1 F480 X26.225 Y41.605 E93.60804
G0 F10500 X26.424 Y41.527
G0 X27.670 Y43.820
G0 X27.492 Y43.932
G1 F480 X43.052 Y59.493 E94.60752
G0 F10500 X42.903 Y59.346
G0 X42.870 Y57.825
G1 F240 E92.60752
G1 Z0.500
G0 F10500 X42.831 Y62.531
;TYPE:WALL-OUTER
G1 Z0.400
G1 F240 E94.60752
G1 F480 X42.831 Y90.780 E95.89056
G1 X23.661 Y90.780 E96.76123
G1 X22.311 Y90.752 E96.82256
G1 X21.497 Y90.675 E96.85970
G1 X20.597 Y90.536 E96.90106
G1 X19.740 Y90.348 E96.94091
G1 X18.895 Y90.106 E96.98083
G1 X18.063 Y89.809 E97.02096
G1 X17.180 Y89.430 E97.06460
G1 X16.445 Y89.057 E97.10203
G1 X15.688 Y88.612 E97.14192
G1 X14.942 Y88.108 E97.18281
G1 X14.235 Y87.564 E97.22332
G1 X14.194 Y87.532 E97.22569
G1 X13.575 Y86.985 E97.26320
G1 X12.945 Y86.359 E97.30354
G1 X12.323 Y85.660 E97.34604
G1 X11.809 Y84.996 E97.38418
G1 X11.284 Y84.230 E97.42635
G1 X10.855 Y83.504 E97.46466
G1 X10.420 Y82.658 E97.50786
G1 X10.089 Y81.892 E97.54576
G1 X9.775 Y81.026 E97.58760
G1 X9.541 Y80.222 E97.62563
G1 X9.341 Y79.340 E97.66671
G1 X9.191 Y78.422 E97.70896
G1 X9.109 Y77.552 E97.74865
G1 X9.083 Y76.695 E97.78759
G1 X9.081 Y76.653 E97.78950
G1 X9.107 Y75.809 E97.82785
G1 X9.186 Y74.948 E97.86712
G1 X9.325 Y74.047 E97.90852
G1 X9.524 Y73.145 E97.95048
G1 X9.761 Y72.331 E97.98898
G1 X10.051 Y71.516 E98.02827
G1 X10.407 Y70.687 E98.06925
G1 X10.810 Y69.886 E98.10998
G1 X11.278 Y69.091 E98.15188
G1 X11.750 Y68.397 E98.19000
G1 X12.297 Y67.686 E98.23074
G1 X12.329 Y67.645 E98.23310
G1 X12.876 Y67.025 E98.27065
G1 X13.537 Y66.359 E98.31327
G1 X14.155 Y65.814 E98.35070
G1 X14.910 Y65.225 E98.39419
G1 X15.596 Y64.758 E98.43188
G1 X16.358 Y64.304 E98.47217
G1 X17.191 Y63.876 E98.51470
G1 X17.964 Y63.542 E98.55295
G1 X18.782 Y63.244 E98.59249
G1 X19.645 Y62.990 E98.63335
G1 X20.569 Y62.780 E98.67638
G1 X21.382 Y62.651 E98.71377
G1 X22.262 Y62.565 E98.75393
G1 X23.167 Y62.533 E98.79506
G1 X42.831 Y62.531 E99.68818
G0 F10500 X42.356 Y62.916
G0 X25.968 Y74.591
G0 X25.559 Y74.831
G1 F480 X25.031 Y74.303 E99.72209
G1 X24.388 Y73.923 E99.75601
G1 X23.759 Y73.740 E99.78577
G1 X23.674 Y73.715 E99.78979
G1 X23.009 Y73.695 E99.82001
G1 X22.930 Y73.691 E99.82360
G1 X22.197 Y73.854 E99.85770
G1 X21.606 Y74.155 E99.88783
G1 X21.531 Y74.194 E99.89167
G1 X21.035 Y74.632 E99.92172
G1 X20.972 Y74.688 E99.92555
G1 X20.552 Y75.304 E99.95941
G1 X20.299 Y76.007 E99.99335
G1 X20.238 Y76.661 E100.02318
G1 X20.229 Y76.747 E100.02711
G1 X20.333 Y77.404 E100.05732
G1 X20.346 Y77.488 E100.06118
G1 X20.609 Y78.096 E100.09127
G1 X20.643 Y78.173 E100.09509
G1 X21.049 Y78.696 E100.12516
G1 X21.101 Y78.763 E100.12901
G1 X21.690 Y79.218 E100.16282
G1 X22.374 Y79.515 E100.19669
G1 X23.112 Y79.632 E100.23062
G1 X23.774 Y79.570 E100.26082
G1 X23.858 Y79.561 E100.26466
G1 X24.558 Y79.309 E100.29845
G1 X25.175 Y78.890 E100.33232
G1 X25.642 Y78.359 E100.36444
G1 X26.007 Y77.668 E100.39994
G1 X26.170 Y76.937 E100.43395
G1 X26.147 Y76.191 E100.46785
G1 X25.957 Y75.533 E100.49896
G1 X25.559 Y74.831 E100.53561
G0 F10500 X25.968 Y74.591
G0 X24.618 Y73.393
G0 X18.523 Y71.139
G0 X18.101 Y70.923
G1 F480 X18.373 Y70.391 E100.56275
G1 X18.502 Y69.809 E100.58982
G1 X18.483 Y69.213 E100.61691
G1 X18.317 Y68.641 E100.64396
G1 X18.014 Y68.129 E100.67098
G1 X17.593 Y67.706 E100.69808
G1 X17.079 Y67.403 E100.72518
G1 X16.507 Y67.237 E100.75223
G1 X15.911 Y67.218 E100.77932
G1 X15.329 Y67.348 E100.80640
G1 X14.798 Y67.618 E100.83346
G1 X14.352 Y68.013 E100.86052
G1 X14.016 Y68.505 E100.88758
G1 X13.814 Y69.067 E100.91470
G1 X13.758 Y69.660 E100.94176
G1 X13.851 Y70.248 E100.96879
G1 X14.088 Y70.795 E100.99587
G1 X14.454 Y71.267 E101.02300
G1 X14.925 Y71.632 E101.05006
G1 X15.472 Y71.869 E101.07714
G1 X16.060 Y71.962 E101.10418
G1 X16.653 Y71.906 E101.13123
G1 X17.215 Y71.704 E101.15835
G1 X17.707 Y71.370 E101.18536
G1 X18.101 Y70.923 E101.21242
G0 F10500 X18.523 Y71.139
G0 X16.522 Y80.903
G0 X16.507 Y81.378
G1 F480 X15.911 Y81.359 E101.23951
G1 X15.329 Y81.489 E101.26659
G1 X14.798 Y81.759 E101.29365
G1 X14.352 Y82.154 E101.32071
G1 X14.016 Y82.646 E101.34777
G1 X13.814 Y83.208 E101.37489
G1 X13.758 Y83.801 E101.40194
G1 X13.851 Y84.389 E101.42898
G1 X14.088 Y84.938 E101.45614
G1 X14.454 Y85.408 E101.48320
G1 X14.925 Y85.773 E101.51026
G1 X15.472 Y86.010 E101.53734
G1 X16.060 Y86.103 E101.56438
G1 X16.653 Y86.047 E101.59143
G1 X17.215 Y85.845 E101.61855
G1 X17.707 Y85.511 E101.64556
G1 X18.101 Y85.064 E101.67262
G1 X18.373 Y84.532 E101.69976
G1 X18.502 Y83.950 E101.72684
G1 X18.483 Y83.355 E101.75388
G1 X18.317 Y82.782 E101.78097
G1 X18.014 Y82.270 E101.80799
G1 X17.593 Y81.847 E101.83510
G1 X17.079 Y81.544 E101.86220
G1 X16.507 Y81.378 E101.88925
G0 F10500 X17.108 Y81.278
;TYPE:SKIN
G1 F480 X9.644 Y73.814 E102.36868
G0 F10500 X9.850 Y72.959
G1 F480 X27.406 Y90.516 E103.49636
G0 F10500 X26.346 Y90.516
G1 F480 X18.580 Y82.750 E103.99519
G0 F10500 X18.761 Y83.992
G1 F480 X25.285 Y90.516 E104.41424
G0 F10500 X24.224 Y90.516
G1 F480 X18.522 Y84.813 E104.78052
G0 F10500 X18.104 Y85.455
G1 F480 X23.153 Y90.505 E105.10486
G0 F10500 X22.049 Y90.462
G1 F480 X17.533 Y85.946 E105.39493
G0 F10500 X16.800 Y86.274
G1 F480 X20.831 Y90.304 E105.65381
G0 F10500 X20.863 Y90.098
G0 X28.467 Y90.305
G0 X28.467 Y90.516
G1 F480 X10.102 Y72.151 E106.83343
G0 F10500 X10.394 Y71.382
G1 F480 X29.528 Y90.516 E108.06244
G0 F10500 X30.588 Y90.516
G1 F480 X10.720 Y70.647 E109.33863
G0 F10500 X11.078 Y69.945
G1 F480 X31.649 Y90.516 E110.65995
G0 F10500 X32.710 Y90.516
G1 F480 X21.703 Y79.509 E111.36695
G0 F10500 X23.147 Y79.892
G1 F480 X33.770 Y90.516 E112.04931
G0 F10500 X34.831 Y90.516
G1 F480 X24.076 Y79.761 E112.74013
G0 F10500 X24.822 Y79.446
G1 F480 X35.892 Y90.516 E113.45117
G0 F10500 X36.952 Y90.516
G1 F480 X25.431 Y78.994 E114.19122
G0 F10500 X25.910 Y78.413
G1 F480 X38.013 Y90.516 E114.96862
G0 F10500 X39.074 Y90.516
G1 F480 X26.266 Y77.708 E115.79130
G0 F10500 X26.428 Y76.810
G1 F480 X40.134 Y90.516 E116.67166
G0 F10500 X41.195 Y90.516
G1 F480 X26.237 Y75.558 E117.63244
G0 F10500 X26.442 Y75.500
G0 X25.384 Y73.847
G0 X24.362 Y73.421
G0 X24.303 Y73.623
G1 F480 X15.690 Y65.011 E118.18564
G0 F10500 X15.059 Y65.441
G1 F480 X16.612 Y66.993 E118.28536
G0 F10500 X15.578 Y67.020
G1 F480 X14.464 Y65.906 E118.35691
G0 F10500 X13.892 Y66.395
G1 F480 X14.514 Y67.547 E118.41590
G1 X13.095 Y67.188 E118.47139
G1 X13.774 Y68.398 E118.53441
G0 F10500 X13.536 Y69.220
G1 F480 X12.355 Y68.040 E118.61023
G0 F10500 X11.899 Y68.644
G1 F480 X13.613 Y70.358 E118.72032
G0 F10500 X13.418 Y70.441
G0 X11.656 Y69.385
G0 X11.471 Y69.277
G1 F480 X20.346 Y78.152 E119.29038
G0 F10500 X20.153 Y78.235
G0 X19.666 Y76.601
G0 X19.900 Y75.713
G0 X20.099 Y75.784
G1 F480 X16.499 Y72.184 E119.52162
G0 F10500 X17.321 Y71.945
G1 F480 X20.414 Y75.038 E119.72029
G0 F10500 X20.866 Y74.429
G1 F480 X17.939 Y71.502 E119.90829
G0 F10500 X18.403 Y70.905
G1 F480 X21.440 Y73.943 E120.10340
G0 F10500 X22.150 Y73.592
G1 F480 X18.698 Y70.140 E120.32513
G0 F10500 X18.724 Y69.106
G1 F480 X23.050 Y73.431 E120.60296
G0 F10500 X23.055 Y73.221
G0 X22.036 Y63.064
G0 X22.017 Y62.852
G1 F480 X42.568 Y83.403 E121.92299
G0 F10500 X42.568 Y82.343
G1 F480 X23.026 Y62.800 E123.17824
G0 F10500 X24.081 Y62.795
G1 F480 X42.568 Y81.282 E124.36569
G0 F10500 X42.568 Y80.221
G1 F480 X25.141 Y62.795 E125.48503
G0 F10500 X26.202 Y62.795
G1 F480 X42.568 Y79.161 E126.53625
G0 F10500 X42.568 Y78.100
G1 F480 X27.263 Y62.795 E127.51932
G0 F10500 X28.323 Y62.795
G1 F480 X42.568 Y77.039 E128.43427
G0 F10500 X42.568 Y75.979
G1 F480 X29.384 Y62.795 E129.28110
G0 F10500 X30.444 Y62.794
G1 F480 X42.568 Y74.918 E130.05985
G0 F10500 X42.568 Y73.858
G1 F480 X31.505 Y62.794 E130.77048
G0 F10500 X32.565 Y62.794
G1 F480 X42.568 Y72.797 E131.41299
G0 F10500 X42.568 Y71.736
G1 F480 X33.626 Y62.794 E131.98735
G0 F10500 X34.687 Y62.794
G1 F480 X42.568 Y70.676 E132.49359
G0 F10500 X42.568 Y69.615
G1 F480 X35.747 Y62.794 E132.93172
G0 F10500 X36.807 Y62.793
G1 F480 X42.568 Y68.554 E133.30176
G0 F10500 X42.568 Y67.494
G1 F480 X37.868 Y62.793 E133.60368
G0 F10500 X38.929 Y62.793
G1 F480 X42.568 Y66.433 E133.83745
G0 F10500 X42.568 Y65.372
G1 F480 X39.989 Y62.793 E134.00310
G0 F10500 X39.989 Y63.007
G0 X21.102 Y63.177
G0 X21.070 Y62.966
G1 F480 X42.568 Y84.464 E135.38396
G0 F10500 X42.568 Y85.525
G1 F480 X20.181 Y63.138 E136.82192
G0 F10500 X19.337 Y63.354
G1 F480 X42.568 Y86.585 E138.31409
G0 F10500 X42.568 Y87.646
G1 F480 X18.535 Y63.613 E139.85777
G0 F10500 X17.772 Y63.911
G1 F480 X42.568 Y88.707 E141.45046
G0 F10500 X42.568 Y89.767
G1 F480 X17.046 Y64.246 E143.08976
G0 F10500 X16.353 Y64.613
G1 F480 X42.255 Y90.516 E144.75352
G0 F10500 X42.255 Y90.305
G0 X19.516 Y89.790
G0 X19.458 Y89.992
G1 F480 X15.792 Y86.326 E144.98900
G0 F10500 X15.759 Y86.535
G0 X15.650 Y88.015
G0 X15.533 Y88.188
G1 F480 X11.666 Y84.321 E145.23738
G0 F10500 X11.840 Y84.202
G0 X13.325 Y84.100
G0 X13.534 Y84.068
G1 F480 X9.866 Y80.400 E145.47298
G0 F10500 X9.557 Y79.030
G1 F480 X13.587 Y83.060 E145.73184
G0 F10500 X13.914 Y82.327
G1 F480 X9.396 Y77.809 E146.02204
G0 F10500 X9.346 Y76.698
G1 F480 X14.403 Y81.755 E146.34686
G0 F10500 X15.045 Y81.336
G1 F480 X9.382 Y75.673 E146.71060
G0 F10500 X9.487 Y74.717
G1 F480 X15.867 Y81.098 E147.12043
G0 F10500 X15.822 Y80.892
G0 X10.630 Y81.947
G0 X10.435 Y82.030
G1 F480 X17.824 Y89.419 E147.59504
G0 F10500 X17.907 Y89.227
G0 X19.054 Y83.265
G0 X19.757 Y76.692
G0 X19.967 Y76.713
G1 F480 X15.361 Y72.106 E147.89093
G0 F10500 X15.277 Y72.301
G0 X16.779 Y72.470
G0 X18.089 Y71.803
G0 X41.050 Y63.007
G0 X41.050 Y62.793
G1 F480 X42.568 Y64.312 E147.98846
G0 F10500 X42.568 Y63.251
G1 F480 X42.111 Y62.793 E148.01785
G0 F10500 X42.111 Y63.007
G0 X41.256 Y64.107
G1 F240 E146.01785
G1 Z0.500
G0 F10500 X41.788 Y94.060
;TYPE:WALL-OUTER
G1 Z0.400
G1 F240 E148.01785
G1 F480 X61.764 Y114.037 E149.30098
G1 X48.209 Y127.592 E150.17164
G1 X47.240 Y128.520 E150.23258
G1 X46.596 Y129.054 E150.27057
G1 X45.879 Y129.577 E150.31088
G1 X45.133 Y130.055 E150.35112
G1 X44.358 Y130.485 E150.39138
G1 X43.546 Y130.871 E150.43221
G1 X42.694 Y131.211 E150.47388
G1 X41.881 Y131.476 E150.51271
G1 X41.029 Y131.697 E150.55269
G1 X40.160 Y131.866 E150.59290
G1 X39.274 Y131.981 E150.63348
G1 X38.396 Y132.039 E150.67344
G1 X37.500 Y132.043 E150.71414
G1 X36.573 Y131.988 E150.75632
G1 X35.746 Y131.884 E150.79417
G1 X34.807 Y131.707 E150.83757
G1 X34.012 Y131.504 E150.87484
G1 X33.117 Y131.216 E150.91754
G1 X32.337 Y130.907 E150.95565
G1 X31.488 Y130.511 E150.99820
G1 X30.744 Y130.102 E151.03676
G1 X30.001 Y129.634 E151.07664
G1 X29.246 Y129.089 E151.11893
G1 X28.566 Y128.527 E151.15900
G1 X27.941 Y127.941 E151.19791
G1 X27.338 Y127.304 E151.23775
G1 X26.772 Y126.624 E151.27793
G1 X26.247 Y125.906 E151.31833
G1 X25.740 Y125.115 E151.36101
G1 X25.340 Y124.386 E151.39877
G1 X24.952 Y123.570 E151.43981
G1 X24.627 Y122.757 E151.47958
G1 X24.351 Y121.918 E151.51969
G1 X24.111 Y120.995 E151.56301
G1 X23.959 Y120.194 E151.60004
G1 X23.842 Y119.293 E151.64130
G1 X23.785 Y118.423 E151.68090
G1 X23.781 Y117.470 E151.72419
G1 X23.832 Y116.650 E151.76150
G1 X23.948 Y115.712 E151.80443
G1 X24.102 Y114.906 E151.84170
G1 X24.325 Y114.022 E151.88311
G1 X24.608 Y113.144 E151.92501
G1 X24.917 Y112.364 E151.96311
G1 X25.297 Y111.549 E152.00395
G1 X25.714 Y110.783 E152.04356
G1 X26.210 Y109.995 E152.08585
G1 X26.714 Y109.300 E152.12485
G1 X27.263 Y108.633 E152.16408
G1 X27.884 Y107.967 E152.20544
G1 X41.788 Y94.060 E153.09862
G0 F10500 X41.725 Y94.668
G0 X38.390 Y114.512
G0 X38.272 Y114.971
G1 F480 X37.526 Y114.971 E153.13250
G1 X36.881 Y115.136 E153.16274
G1 X36.800 Y115.158 E153.16655
G1 X36.223 Y115.475 E153.19645
G1 X36.150 Y115.516 E153.20025
G1 X35.664 Y115.970 E153.23046
G1 X35.602 Y116.029 E153.23435
G1 X35.204 Y116.658 E153.26816
G1 X35.002 Y117.281 E153.29790
G1 X34.974 Y117.364 E153.30188
G1 X34.933 Y118.022 E153.33182
G1 X34.926 Y118.109 E153.33579
G1 X35.051 Y118.764 E153.36607
G1 X35.067 Y118.846 E153.36987
G1 X35.384 Y119.522 E153.40378
G1 X35.860 Y120.097 E153.43768
G1 X36.394 Y120.484 E153.46764
G1 X36.463 Y120.535 E153.47153
G1 X37.079 Y120.779 E153.50163
G1 X37.157 Y120.810 E153.50544
G1 X37.812 Y120.893 E153.53543
G1 X37.897 Y120.904 E153.53932
G1 X38.639 Y120.810 E153.57329
G1 X39.333 Y120.535 E153.60719
G1 X39.938 Y120.097 E153.64112
G1 X40.413 Y119.521 E153.67503
G1 X40.730 Y118.846 E153.70890
G1 X40.871 Y118.113 E153.74280
G1 X40.830 Y117.448 E153.77306
G1 X40.823 Y117.364 E153.77689
G1 X40.593 Y116.658 E153.81061
G1 X40.193 Y116.027 E153.84454
G1 X39.649 Y115.516 E153.87844
G1 X39.069 Y115.197 E153.90851
G1 X38.995 Y115.156 E153.91235
G1 X38.272 Y114.971 E153.94625
G0 F10500 X38.390 Y114.512
G0 X36.582 Y114.624
G0 X30.686 Y117.336
G0 X30.234 Y117.480
G1 F480 X30.050 Y116.913 E153.97332
G1 X29.731 Y116.410 E154.00037
G1 X29.296 Y116.002 E154.02746
G1 X28.774 Y115.715 E154.05452
G1 X28.196 Y115.566 E154.08163
G1 X27.600 Y115.566 E154.10870
G1 X27.024 Y115.715 E154.13572
G1 X26.501 Y116.002 E154.16281
G1 X26.067 Y116.410 E154.18987
G1 X25.747 Y116.913 E154.21695
G1 X25.563 Y117.480 E154.24402
G1 X25.526 Y118.075 E154.27110
G1 X25.638 Y118.661 E154.29819
G1 X25.891 Y119.199 E154.32520
G1 X26.271 Y119.660 E154.35233
G1 X26.753 Y120.009 E154.37936
G1 X27.307 Y120.229 E154.40643
G1 X27.899 Y120.304 E154.43353
G1 X28.490 Y120.229 E154.46059
G1 X29.044 Y120.009 E154.48767
G1 X29.527 Y119.660 E154.51473
G1 X29.906 Y119.199 E154.54184
G1 X30.160 Y118.661 E154.56886
G1 X30.272 Y118.075 E154.59596
G1 X30.234 Y117.480 E154.62303
G0 F10500 X30.686 Y117.336
G0 X36.272 Y125.587
G0 X36.501 Y126.002
G1 F480 X36.067 Y126.410 E154.65009
G1 X35.747 Y126.913 E154.67717
G1 X35.563 Y127.480 E154.70424
G1 X35.526 Y128.075 E154.73132
G1 X35.638 Y128.661 E154.75841
G1 X35.891 Y129.199 E154.78542
G1 X36.271 Y129.660 E154.81255
G1 X36.753 Y130.009 E154.83958
G1 X37.307 Y130.229 E154.86665
G1 X37.899 Y130.304 E154.89375
G1 X38.490 Y130.229 E154.92081
G1 X39.044 Y130.009 E154.94789
G1 X39.527 Y129.660 E154.97495
G1 X39.906 Y129.199 E155.00206
G1 X40.160 Y128.661 E155.02908
G1 X40.272 Y128.075 E155.05618
G1 X40.234 Y127.480 E155.08325
G1 X40.050 Y126.913 E155.11033
G1 X39.731 Y126.410 E155.13738
G1 X39.296 Y126.002 E155.16447
G1 X38.774 Y125.715 E155.19152
G1 X38.196 Y125.566 E155.21864
G1 X37.600 Y125.566 E155.24570
G1 X37.024 Y125.715 E155.27273
G1 X36.501 Y126.002 E155.29982
G0 F10500 X36.249 Y125.875
;TYPE:SKIN
G1 F480 X29.942 Y119.568 E155.70493
G0 F10500 X30.337 Y118.902
G1 F480 X36.910 Y125.476 E156.12716
G0 F10500 X37.798 Y125.302
G1 F480 X30.532 Y118.036 E156.59387
G0 F10500 X30.174 Y116.618
G1 F480 X39.209 Y125.653 E157.17420
G0 F10500 X39.312 Y125.470
G0 X37.528 Y124.993
G0 X35.622 Y126.042
G0 X35.566 Y126.315
G0 X35.742 Y126.428
G1 F480 X29.393 Y120.080 E157.58198
G0 F10500 X28.686 Y120.433
G1 F480 X35.396 Y127.143 E158.01298
G0 F10500 X35.263 Y128.071
G1 F480 X27.740 Y120.548 E158.49619
G0 F10500 X27.714 Y120.759
G0 X24.742 Y121.534
G0 X24.536 Y121.587
G1 F480 X34.239 Y131.289 E159.11940
G0 F10500 X35.597 Y131.586
G1 F480 X24.231 Y120.220 E159.84946
G0 F10500 X24.086 Y119.015
G1 F480 X36.809 Y131.738 E160.66668
G0 F10500 X37.908 Y131.777
G1 F480 X24.045 Y117.913 E161.55716
G0 F10500 X24.079 Y116.887
G1 F480 X25.263 Y118.071 E161.63321
G0 F10500 X25.396 Y117.143
G1 F480 X24.185 Y115.932 E161.71100
G0 F10500 X24.344 Y115.031
G1 F480 X25.742 Y116.428 E161.80076
G0 F10500 X26.249 Y115.875
G1 F480 X24.555 Y114.181 E161.90957
G0 F10500 X24.809 Y113.374
G1 F480 X26.911 Y115.476 E162.04458
G0 F10500 X27.797 Y115.302
G1 F480 X25.102 Y112.607 E162.21769
G0 F10500 X25.433 Y111.877
G1 F480 X29.209 Y115.653 E162.46023
G0 F10500 X29.312 Y115.470
G0 X25.983 Y111.282
G0 X25.795 Y111.179
G1 F480 X44.642 Y130.025 E163.67077
G0 F10500 X45.307 Y129.629
G1 F480 X36.517 Y120.839 E164.23537
G0 F10500 X37.905 Y121.167
G1 F480 X45.941 Y129.203 E164.75154
G0 F10500 X46.548 Y128.750
G1 F480 X38.819 Y121.020 E165.24802
G0 F10500 X39.556 Y120.696
G1 F480 X47.124 Y128.264 E165.73412
G0 F10500 X47.666 Y127.746
G1 F480 X40.160 Y120.239 E166.21628
G0 F10500 X40.638 Y119.657
G1 F480 X48.204 Y127.224 E166.70229
G0 F10500 X48.735 Y126.693
G1 F480 X40.978 Y118.936 E167.20054
G0 F10500 X41.128 Y118.026
G1 F480 X49.265 Y126.163 E167.72319
G0 F10500 X49.795 Y125.633
G1 F480 X40.894 Y116.731 E168.29495
G0 F10500 X41.095 Y116.665
G0 X55.481 Y119.650
G0 X55.629 Y119.799
G1 F480 X36.024 Y100.194 E169.55422
G0 F10500 X35.494 Y100.725
G1 F480 X55.099 Y120.329 E170.81345
G0 F10500 X54.568 Y120.860
G1 F480 X34.964 Y101.255 E172.07268
G0 F10500 X34.433 Y101.785
G1 F480 X54.038 Y121.390 E173.33195
G0 F10500 X53.508 Y121.920
G1 F480 X33.903 Y102.316 E174.59118
G0 F10500 X33.373 Y102.846
G1 F480 X52.977 Y122.451 E175.85042
G0 F10500 X52.447 Y122.981
G1 F480 X32.842 Y103.376 E177.10968
G0 F10500 X32.312 Y103.907
G1 F480 X51.917 Y123.511 E178.36891
G0 F10500 X51.386 Y124.042
G1 F480 X31.782 Y104.437 E179.62815
G0 F10500 X31.251 Y104.967
G1 F480 X50.856 Y124.572 E180.88741
G0 F10500 X50.326 Y125.102
G1 F480 X30.721 Y105.498 E182.14665
G0 F10500 X30.191 Y106.028
G1 F480 X39.063 Y114.900 E182.71651
G0 F10500 X37.808 Y114.706
G1 F480 X29.661 Y106.558 E183.23984
G0 F10500 X29.130 Y107.089
G1 F480 X36.900 Y114.858 E183.73889
G0 F10500 X36.179 Y115.198
G1 F480 X28.600 Y107.619 E184.22570
G0 F10500 X28.070 Y108.150
G1 F480 X35.594 Y115.674 E184.70898
G0 F10500 X35.134 Y116.275
G1 F480 X27.558 Y108.699 E185.19560
G0 F10500 X27.073 Y109.274
G1 F480 X34.812 Y117.014 E185.69272
G0 F10500 X34.675 Y117.936
G1 F480 X26.617 Y109.879 E186.21027
G0 F10500 X26.191 Y110.514
G1 F480 X35.001 Y119.323 E186.77612
G0 F10500 X34.809 Y119.412
G0 X40.353 Y126.505
G0 X40.174 Y126.618
G1 F480 X43.945 Y130.389 E187.01834
G0 F10500 X43.214 Y130.719
G1 F480 X40.532 Y128.036 E187.19064
G0 F10500 X40.336 Y128.902
G1 F480 X42.447 Y131.012 E187.32620
G0 F10500 X41.640 Y131.265
G1 F480 X39.942 Y129.568 E187.43524
G0 F10500 X39.393 Y130.080
G1 F480 X40.788 Y131.474 E187.52481
G0 F10500 X39.887 Y131.634
G1 F480 X38.686 Y130.433 E187.60195
G0 F10500 X37.740 Y130.548
G1 F480 X38.931 Y131.738 E187.67842
G0 F10500 X38.918 Y131.529
G0 X32.703 Y130.543
G0 X32.626 Y130.737
G1 F480 X25.085 Y123.196 E188.16279
G0 F10500 X25.282 Y123.118
G0 X26.427 Y125.307
G0 X26.249 Y125.420
G1 F480 X30.405 Y129.577 E188.42977
G0 F10500 X30.518 Y129.399
G0 X36.811 Y125.178
G0 X38.987 Y125.178
G0 X56.011 Y119.120
G0 X56.159 Y119.269
G1 F480 X36.555 Y99.664 E189.68900
G0 F10500 X37.085 Y99.134
G1 F480 X56.690 Y118.738 E190.94824
G0 F10500 X57.220 Y118.208
G1 F480 X37.615 Y98.603 E192.20750
G0 F10500 X38.146 Y98.073
G1 F480 X57.750 Y117.678 E193.46674
G0 F10500 X58.281 Y117.147
G1 F480 X38.676 Y97.543 E194.72597
G0 F10500 X39.206 Y97.012
G1 F480 X58.811 Y116.617 E195.98523
G0 F10500 X59.341 Y116.087
G1 F480 X39.737 Y96.482 E197.24447
G0 F10500 X40.267 Y95.952
G1 F480 X59.872 Y115.556 E198.50370
G0 F10500 X60.402 Y115.026
G1 F480 X40.797 Y95.421 E199.76297
G0 F10500 X41.328 Y94.891
G1 F480 X60.932 Y114.496 E201.02220
G0 F10500 X59.538 Y114.037
G1 F240 E199.02220
G1 Z0.500
G0 F10500 X63.576 Y116.738
;TYPE:WALL-OUTER
G1 Z0.400
G1 F240 E201.02220
G1 F480 X91.825 Y116.738 E202.30523
G1 X91.825 Y135.908 E203.17591
G1 X91.796 Y137.258 E203.23724
G1 X91.720 Y138.071 E203.27433
G1 X91.581 Y138.971 E203.31569
G1 X91.394 Y139.825 E203.35540
G1 X91.148 Y140.678 E203.39572
G1 X90.855 Y141.504 E203.43552
G1 X90.477 Y142.384 E203.47902
G1 X90.102 Y143.123 E203.51666
G1 X89.659 Y143.877 E203.55638
G1 X89.153 Y144.627 E203.59747
G1 X88.609 Y145.334 E203.63799
G1 X88.577 Y145.375 E203.64035
G1 X88.030 Y145.994 E203.67787
G1 X87.405 Y146.624 E203.71818
G1 X86.705 Y147.245 E203.76068
G1 X86.041 Y147.760 E203.79884
G1 X85.275 Y148.285 E203.84102
G1 X84.543 Y148.717 E203.87963
G1 X83.715 Y149.143 E203.92192
G1 X82.942 Y149.478 E203.96018
G1 X82.067 Y149.796 E204.00247
G1 X81.273 Y150.026 E204.04001
G1 X80.389 Y150.227 E204.08119
G1 X79.467 Y150.377 E204.12361
G1 X78.597 Y150.459 E204.16330
G1 X77.740 Y150.486 E204.20225
G1 X77.699 Y150.488 E204.20411
G1 X76.855 Y150.461 E204.24246
G1 X75.993 Y150.383 E204.28177
G1 X75.097 Y150.245 E204.32295
G1 X74.186 Y150.043 E204.36533
G1 X73.386 Y149.812 E204.40315
G1 X72.558 Y149.517 E204.44307
G1 X71.731 Y149.162 E204.48395
G1 X70.935 Y148.760 E204.52445
G1 X70.136 Y148.291 E204.56653
G1 X69.441 Y147.819 E204.60469
G1 X68.730 Y147.271 E204.64546
G1 X68.689 Y147.239 E204.64782
G1 X68.070 Y146.693 E204.68531
G1 X67.404 Y146.032 E204.72793
G1 X66.859 Y145.414 E204.76535
G1 X66.266 Y144.655 E204.80910
G1 X65.803 Y143.972 E204.84658
G1 X65.349 Y143.210 E204.88686
G1 X64.921 Y142.378 E204.92936
G1 X64.584 Y141.600 E204.96786
G1 X64.289 Y140.787 E205.00715
G1 X64.035 Y139.924 E205.04801
G1 X63.824 Y138.997 E205.09119
G1 X63.696 Y138.189 E205.12834
G1 X63.610 Y137.306 E205.16864
G1 X63.578 Y136.415 E205.20913
G1 X63.576 Y116.738 E206.10284
G0 F10500 X63.961 Y117.213
G0 X75.543 Y133.674
G0 X75.876 Y134.010
G1 F480 X75.348 Y134.537 E206.13672
G1 X74.968 Y135.180 E206.17064
G1 X74.786 Y135.810 E206.20042
G1 X74.760 Y135.895 E206.20446
G1 X74.740 Y136.560 E206.23468
G1 X74.736 Y136.639 E206.23827
G1 X74.899 Y137.372 E206.27238
G1 X75.200 Y137.962 E206.30246
G1 X75.239 Y138.037 E206.30630
G1 X75.676 Y138.534 E206.33636
G1 X75.733 Y138.597 E206.34022
G1 X76.349 Y139.017 E206.37408
G1 X77.052 Y139.269 E206.40800
G1 X77.706 Y139.331 E206.43783
G1 X77.792 Y139.340 E206.44176
G1 X78.448 Y139.236 E206.47193
G1 X78.532 Y139.223 E206.47579
G1 X79.141 Y138.960 E206.50592
G1 X79.218 Y138.926 E206.50974
G1 X79.742 Y138.519 E206.53988
G1 X79.809 Y138.467 E206.54373
G1 X80.265 Y137.878 E206.57756
G1 X80.560 Y137.193 E206.61143
G1 X80.677 Y136.457 E206.64528
G1 X80.614 Y135.795 E206.67548
G1 X80.605 Y135.711 E206.67932
G1 X80.354 Y135.012 E206.71305
G1 X79.935 Y134.394 E206.74697
G1 X79.406 Y133.927 E206.77902
G1 X78.713 Y133.562 E206.81459
G1 X77.982 Y133.398 E206.84862
G1 X77.235 Y133.422 E206.88256
G1 X76.578 Y133.612 E206.91362
G1 X75.876 Y134.010 E206.95028
G0 F10500 X75.543 Y133.674
G0 X74.438 Y134.950
G0 X72.183 Y141.046
G0 X71.967 Y141.467
G1 F480 X71.436 Y141.196 E206.97735
G1 X70.853 Y141.067 E207.00447
G1 X70.258 Y141.086 E207.03151
G1 X69.686 Y141.251 E207.05855
G1 X69.172 Y141.555 E207.08567
G1 X68.751 Y141.976 E207.11271
G1 X68.448 Y142.490 E207.13981
G1 X68.282 Y143.062 E207.16686
G1 X68.263 Y143.657 E207.19390
G1 X68.392 Y144.239 E207.22098
G1 X68.663 Y144.770 E207.24805
G1 X69.057 Y145.217 E207.27512
G1 X69.550 Y145.553 E207.30221
G1 X70.112 Y145.755 E207.32934
G1 X70.705 Y145.811 E207.35639
G1 X71.294 Y145.718 E207.38348
G1 X71.841 Y145.480 E207.41057
G1 X72.311 Y145.115 E207.43760
G1 X72.677 Y144.645 E207.46465
G1 X72.914 Y144.097 E207.49177
G1 X73.007 Y143.509 E207.51881
G1 X72.951 Y142.916 E207.54586
G1 X72.760 Y142.384 E207.57153
G1 X72.458 Y141.928 E207.59638
G1 X72.415 Y141.862 E207.59995
G1 X71.967 Y141.467 E207.62708
G0 F10500 X72.183 Y141.046
G0 X81.948 Y143.047
G0 X82.423 Y143.062
G1 F480 X82.404 Y143.657 E207.65412
G1 X82.533 Y144.239 E207.68119
G1 X82.805 Y144.771 E207.70833
G1 X83.199 Y145.217 E207.73536
G1 X83.691 Y145.553 E207.76242
G1 X84.253 Y145.755 E207.78954
G1 X84.846 Y145.811 E207.81660
G1 X85.435 Y145.718 E207.84368
G1 X85.982 Y145.480 E207.87077
G1 X86.452 Y145.115 E207.89780
G1 X86.818 Y144.645 E207.92486
G1 X87.055 Y144.097 E207.95198
G1 X87.148 Y143.509 E207.97901
G1 X87.092 Y142.916 E208.00607
G1 X86.901 Y142.384 E208.03174
G1 X86.599 Y141.928 E208.05658
G1 X86.556 Y141.862 E208.06016
G1 X86.108 Y141.467 E208.08729
G1 X85.577 Y141.196 E208.11436
G1 X84.994 Y141.067 E208.14148
G1 X84.399 Y141.086 E208.16852
G1 X83.827 Y141.251 E208.19556
G1 X83.313 Y141.555 E208.22268
G1 X82.892 Y141.976 E208.24972
G1 X82.589 Y142.490 E208.27682
G1 X82.423 Y143.062 E208.30387
G0 F10500 X82.158 Y143.145
;TYPE:SKIN
G1 F480 X78.504 Y139.492 E208.53855
G0 F10500 X79.265 Y139.192
G1 F480 X82.387 Y142.314 E208.73908
G0 F10500 X82.814 Y141.680
G1 F480 X79.878 Y138.744 E208.92766
G0 F10500 X80.008 Y138.914
G0 X78.540 Y139.804
G0 X77.509 Y139.789
G0 X77.530 Y139.578
G1 F480 X82.288 Y144.337 E209.23331
G0 F10500 X82.099 Y144.432
G0 X82.817 Y145.651
G0 X83.766 Y146.084
G0 X83.837 Y145.886
G1 F480 X85.656 Y147.704 E209.35012
G0 F10500 X86.264 Y147.252
G1 F480 X85.055 Y146.043 E209.42777
G0 F10500 X85.882 Y145.809
G1 F480 X87.118 Y146.515 E209.48940
G1 X86.769 Y145.105 E209.54526
G1 X87.918 Y145.724 E209.60454
G0 F10500 X88.411 Y145.157
G1 F480 X87.324 Y144.069 E209.67439
G0 F10500 X87.368 Y143.053
G1 F480 X88.873 Y144.558 E209.77106
G0 F10500 X89.306 Y143.930
G1 F480 X80.771 Y135.395 E210.31928
G0 F10500 X80.918 Y136.603
G1 F480 X85.144 Y140.828 E210.59069
G0 F10500 X84.141 Y140.886
G1 F480 X80.726 Y137.471 E210.81004
G0 F10500 X80.366 Y138.172
G1 F480 X83.393 Y141.199 E211.00447
G0 F10500 X83.286 Y141.019
G0 X85.048 Y140.491
G0 X86.990 Y141.482
G0 X89.526 Y143.165
G0 X89.709 Y143.273
G1 F480 X63.839 Y117.402 E212.66618
G0 F10500 X64.498 Y117.000
G1 F480 X90.081 Y142.583 E214.30943
G0 F10500 X90.416 Y141.858
G1 F480 X65.558 Y117.000 E215.90610
G0 F10500 X66.619 Y117.000
G1 F480 X90.718 Y141.100 E217.45406
G0 F10500 X90.982 Y140.303
G1 F480 X67.680 Y117.000 E218.95082
G0 F10500 X68.740 Y117.000
G1 F480 X91.204 Y139.464 E220.39372
G0 F10500 X91.375 Y138.575
G1 F480 X69.801 Y117.000 E221.77949
G0 F10500 X70.861 Y117.000
G1 F480 X91.496 Y137.635 E223.10492
G0 F10500 X91.546 Y136.624
G1 F480 X71.922 Y117.000 E224.36540
G0 F10500 X72.983 Y117.000
G1 F480 X91.561 Y135.579 E225.55873
G0 F10500 X91.561 Y134.518
G1 F480 X74.043 Y117.000 E226.68395
G0 F10500 X75.104 Y117.000
G1 F480 X91.561 Y133.457 E227.74101
G0 F10500 X91.561 Y132.397
G1 F480 X76.165 Y117.000 E228.72996
G0 F10500 X77.225 Y117.000
G1 F480 X91.561 Y131.336 E229.65078
G0 F10500 X91.561 Y130.275
G1 F480 X78.286 Y117.000 E230.50346
G0 F10500 X79.347 Y117.000
G1 F480 X91.561 Y129.215 E231.28802
G0 F10500 X91.561 Y128.154
G1 F480 X80.407 Y117.000 E232.00446
G0 F10500 X81.468 Y117.000
G1 F480 X91.561 Y127.093 E232.65275
G0 F10500 X91.561 Y126.033
G1 F480 X82.529 Y117.000 E233.23293
G0 F10500 X83.589 Y117.000
G1 F480 X91.561 Y124.972 E233.74498
G0 F10500 X91.561 Y123.911
G1 F480 X84.650 Y117.000 E234.18889
G0 F10500 X85.711 Y117.000
G1 F480 X91.561 Y122.851 E234.56468
G0 F10500 X91.561 Y121.790
G1 F480 X86.771 Y117.000 E234.87235
G0 F10500 X87.832 Y117.000
G1 F480 X91.561 Y120.729 E235.11187
G0 F10500 X91.561 Y119.669
G1 F480 X88.893 Y117.000 E235.28327
G0 F10500 X89.953 Y117.000
G1 F480 X91.561 Y118.608 E235.38656
G0 F10500 X91.561 Y117.548
G1 F480 X91.014 Y117.000 E235.42173
G0 F10500 X91.014 Y117.213
G0 X78.698 Y133.073
G0 X78.652 Y133.276
G1 F480 X63.839 Y118.463 E236.37319
G0 F10500 X63.839 Y119.523
G1 F480 X77.466 Y133.151 E237.24851
G0 F10500 X76.588 Y133.334
G1 F480 X63.839 Y120.584 E238.06743
G0 F10500 X63.839 Y121.644
G1 F480 X75.890 Y133.696 E238.84152
G0 F10500 X75.322 Y134.189
G1 F480 X63.839 Y122.705 E239.57913
G0 F10500 X63.839 Y123.767
G1 F480 X74.881 Y134.808 E240.28835
G0 F10500 X74.582 Y135.570
G1 F480 X63.839 Y124.827 E240.97839
G0 F10500 X63.839 Y125.888
G1 F480 X74.478 Y136.526 E241.66172
G0 F10500 X74.267 Y136.519
G0 X74.356 Y137.567
G0 X74.772 Y138.167
G0 X74.961 Y138.071
G1 F480 X63.839 Y126.949 E242.37611
G0 F10500 X63.839 Y128.009
G1 F480 X84.349 Y148.519 E243.69350
G0 F10500 X85.019 Y148.128
G1 F480 X75.960 Y139.070 E244.27535
G0 F10500 X75.841 Y139.244
G0 X71.501 Y140.725
G0 X71.455 Y140.929
G1 F480 X63.840 Y133.313 E244.76450
G0 F10500 X63.840 Y132.253
G1 F480 X81.323 Y149.736 E245.88747
G0 F10500 X82.138 Y149.490
G1 F480 X63.840 Y131.192 E247.06278
G0 F10500 X63.840 Y130.131
G1 F480 X82.911 Y149.203 E248.28778
G0 F10500 X83.648 Y148.879
G1 F480 X63.839 Y129.070 E249.56015
G0 F10500 X64.053 Y129.070
G0 X64.053 Y134.374
G0 X63.840 Y134.374
G1 F480 X70.287 Y140.821 E249.97425
G0 F10500 X69.474 Y141.069
G1 F480 X63.840 Y135.434 E250.33617
G0 F10500 X63.843 Y136.499
G1 F480 X68.849 Y141.504 E250.65768
G0 F10500 X68.377 Y142.093
G1 F480 X63.904 Y137.620 E250.94499
G0 F10500 X64.065 Y138.841
G1 F480 X68.071 Y142.848 E251.20233
G0 F10500 X68.042 Y143.879
G1 F480 X64.403 Y140.240 E251.43607
G0 F10500 X64.606 Y140.182
G0 X65.194 Y141.815
G0 X64.999 Y141.897
G1 F480 X72.160 Y149.058 E251.89604
G0 F10500 X72.242 Y148.866
G0 X73.887 Y149.462
G0 X73.829 Y149.666
G1 F480 X70.188 Y146.026 E252.12987
G0 F10500 X71.218 Y145.994
G1 F480 X75.219 Y149.995 E252.38686
G0 F10500 X76.443 Y150.159
G1 F480 X71.985 Y145.701 E252.67321
G0 F10500 X72.562 Y145.217
G1 F480 X77.563 Y150.219 E252.99447
G0 F10500 X78.599 Y150.193
G1 F480 X72.988 Y144.583 E253.35484
G0 F10500 X73.232 Y143.766
G1 F480 X79.560 Y150.094 E253.76130
G0 F10500 X80.465 Y149.938
G1 F480 X73.112 Y142.585 E254.23359
G0 F10500 X73.312 Y142.515
G0 X73.469 Y144.258
G0 X72.134 Y145.977
G0 X69.872 Y147.540
G0 X69.754 Y147.713
G1 F480 X66.345 Y144.303 E254.45259
G0 F10500 X66.690 Y143.543
G1 F240 E252.45259
G1 Z0.500
G0 F10500 X94.567 Y113.937
;TYPE:WALL-OUTER
G1 Z0.400
G1 F240 E254.45259
G1 F480 X114.544 Y93.961 E255.73572
G1 X128.099 Y107.516 E256.60638
G1 X129.027 Y108.485 E256.66732
G1 X129.561 Y109.129 E256.70532
G1 X130.084 Y109.846 E256.74563
G1 X130.562 Y110.592 E256.78587
G1 X130.992 Y111.367 E256.82612
G1 X131.379 Y112.181 E256.86706
G1 X131.718 Y113.030 E256.90858
G1 X131.984 Y113.848 E256.94765
G1 X132.204 Y114.696 E256.98744
G1 X132.373 Y115.565 E257.02764
G1 X132.489 Y116.459 E257.06859
G1 X132.546 Y117.329 E257.10819
G1 X132.550 Y118.232 E257.14920
G1 X132.495 Y119.152 E257.19106
G1 X132.392 Y119.974 E257.22869
G1 X132.214 Y120.918 E257.27232
G1 X132.013 Y121.706 E257.30925
G1 X131.723 Y122.608 E257.35229
G1 X131.414 Y123.388 E257.39039
G1 X131.018 Y124.237 E257.43294
G1 X130.609 Y124.981 E257.47150
G1 X130.141 Y125.724 E257.51139
G1 X129.596 Y126.479 E257.55368
G1 X129.035 Y127.158 E257.59368
G1 X128.448 Y127.784 E257.63266
G1 X127.811 Y128.387 E257.67250
G1 X127.131 Y128.953 E257.71268
G1 X126.413 Y129.478 E257.75308
G1 X125.622 Y129.985 E257.79575
G1 X124.893 Y130.385 E257.83352
G1 X124.080 Y130.772 E257.87441
G1 X123.264 Y131.098 E257.91432
G1 X122.429 Y131.372 E257.95424
G1 X121.504 Y131.613 E257.99765
G1 X120.701 Y131.766 E258.03478
G1 X119.808 Y131.882 E258.07568
G1 X118.930 Y131.940 E258.11564
G1 X117.983 Y131.944 E258.15866
G1 X117.157 Y131.893 E258.19624
G1 X116.219 Y131.777 E258.23917
G1 X115.413 Y131.623 E258.27644
G1 X114.535 Y131.400 E258.31758
G1 X113.651 Y131.117 E258.35974
G1 X112.871 Y130.808 E258.39785
G1 X112.056 Y130.428 E258.43869
G1 X111.289 Y130.011 E258.47834
G1 X110.488 Y129.505 E258.52137
G1 X109.825 Y129.024 E258.55858
G1 X109.129 Y128.452 E258.59949
G1 X108.474 Y127.841 E258.64018
G1 X94.567 Y113.937 E259.53335
G0 F10500 X95.175 Y114.000
G0 X115.019 Y117.335
G0 X115.478 Y117.453
G1 F480 X115.478 Y118.199 E259.56723
G1 X115.643 Y118.844 E259.59747
G1 X115.665 Y118.925 E259.60129
G1 X115.982 Y119.502 E259.63119
G1 X116.023 Y119.576 E259.63503
G1 X116.477 Y120.060 E259.66517
G1 X116.536 Y120.121 E259.66902
G1 X117.165 Y120.521 E259.70288
G1 X117.788 Y120.723 E259.73263
G1 X117.871 Y120.751 E259.73660
G1 X118.529 Y120.792 E259.76655
G1 X118.616 Y120.799 E259.77051
G1 X119.271 Y120.674 E259.80080
G1 X119.354 Y120.658 E259.80464
G1 X120.029 Y120.340 E259.83853
G1 X120.604 Y119.865 E259.87240
G1 X120.991 Y119.331 E259.90235
G1 X121.042 Y119.262 E259.90625
G1 X121.286 Y118.646 E259.93634
G1 X121.317 Y118.568 E259.94016
G1 X121.400 Y117.913 E259.97014
G1 X121.411 Y117.828 E259.97404
G1 X121.317 Y117.086 E260.00801
G1 X121.042 Y116.392 E260.04191
G1 X120.604 Y115.787 E260.07583
G1 X120.029 Y115.312 E260.10971
G1 X119.353 Y114.994 E260.14364
G1 X118.620 Y114.854 E260.17753
G1 X117.955 Y114.895 E260.20779
G1 X117.871 Y114.902 E260.21162
G1 X117.165 Y115.132 E260.24535
G1 X116.534 Y115.532 E260.27928
G1 X116.023 Y116.076 E260.31318
G1 X115.704 Y116.656 E260.34324
G1 X115.663 Y116.730 E260.34708
G1 X115.478 Y117.453 E260.38098
G0 F10500 X115.019 Y117.335
G0 X115.131 Y119.143
G0 X117.843 Y125.039
G0 X117.987 Y125.491
G1 F480 X117.420 Y125.674 E260.40804
G1 X116.917 Y125.994 E260.43512
G1 X116.509 Y126.429 E260.46221
G1 X116.222 Y126.950 E260.48922
G1 X116.073 Y127.527 E260.51629
G1 X116.073 Y128.125 E260.54345
G1 X116.222 Y128.701 E260.57047
G1 X116.509 Y129.224 E260.59757
G1 X116.917 Y129.658 E260.62462
G1 X117.420 Y129.978 E260.65170
G1 X117.987 Y130.162 E260.67877
G1 X118.582 Y130.199 E260.70585
G1 X119.168 Y130.087 E260.73295
G1 X119.707 Y129.834 E260.75999
G1 X120.165 Y129.454 E260.78702
G1 X120.516 Y128.972 E260.81410
G1 X120.736 Y128.417 E260.84122
G1 X120.811 Y127.826 E260.86827
G1 X120.736 Y127.235 E260.89533
G1 X120.516 Y126.681 E260.92240
G1 X120.166 Y126.198 E260.94950
G1 X119.707 Y125.818 E260.97656
G1 X119.168 Y125.565 E261.00360
G1 X118.582 Y125.453 E261.03070
G1 X117.987 Y125.491 E261.05778
G0 F10500 X117.843 Y125.039
G0 X126.094 Y119.453
G0 X126.509 Y119.224
G1 F480 X126.917 Y119.658 E261.08483
G1 X127.420 Y119.978 E261.11191
G1 X127.987 Y120.162 E261.13899
G1 X128.582 Y120.199 E261.16606
G1 X129.168 Y120.087 E261.19316
G1 X129.707 Y119.834 E261.22020
G1 X130.165 Y119.454 E261.24723
G1 X130.516 Y118.972 E261.27431
G1 X130.736 Y118.418 E261.30139
G1 X130.811 Y117.826 E261.32849
G1 X130.736 Y117.235 E261.35555
G1 X130.516 Y116.681 E261.38262
G1 X130.166 Y116.198 E261.40971
G1 X129.707 Y115.818 E261.43678
G1 X129.168 Y115.565 E261.46382
G1 X128.582 Y115.453 E261.49092
G1 X127.987 Y115.491 E261.51800
G1 X127.420 Y115.674 E261.54506
G1 X126.917 Y115.994 E261.57213
G1 X126.509 Y116.429 E261.59922
G1 X126.222 Y116.950 E261.62624
G1 X126.073 Y117.527 E261.65330
G1 X126.073 Y118.125 E261.68046
G1 X126.222 Y118.701 E261.70749
G1 X126.509 Y119.224 E261.73458
G0 F10500 X126.613 Y119.718
;TYPE:SKIN
G1 F480 X107.885 Y100.991 E262.93748
G0 F10500 X107.355 Y101.521
G1 F480 X130.488 Y124.654 E264.42336
G0 F10500 X130.087 Y125.314
G1 F480 X121.428 Y116.655 E264.97954
G0 F10500 X121.659 Y117.947
G1 F480 X129.657 Y125.945 E265.49327
G0 F10500 X129.199 Y126.547
G1 F480 X121.490 Y118.839 E265.98840
G0 F10500 X121.150 Y119.559
G1 F480 X128.710 Y127.119 E266.47399
G0 F10500 X128.192 Y127.661
G1 F480 X120.676 Y120.146 E266.95673
G0 F10500 X120.077 Y120.607
G1 F480 X127.648 Y128.178 E267.44303
G0 F10500 X127.069 Y128.660
G1 F480 X119.336 Y120.927 E267.93973
G0 F10500 X118.395 Y121.047
G1 F480 X126.461 Y129.113 E268.45783
G0 F10500 X125.826 Y129.539
G1 F480 X117.039 Y120.751 E269.02226
G0 F10500 X116.925 Y120.930
G0 X118.298 Y124.995
G0 X118.311 Y125.205
G1 F480 X100.991 Y107.885 E270.13476
G0 F10500 X101.521 Y107.355
G1 F480 X119.680 Y125.514 E271.30114
G0 F10500 X119.769 Y125.324
G0 X118.617 Y124.876
G0 X117.372 Y125.190
G0 X117.436 Y125.391
G1 F480 X100.460 Y108.415 E272.39154
G0 F10500 X100.610 Y108.565
G0 X102.201 Y106.974
G0 X102.051 Y106.824
G1 F480 X125.162 Y129.935 E273.87601
G0 F10500 X124.463 Y130.297
G1 F480 X120.766 Y126.600 E274.11347
G0 F10500 X121.059 Y127.953
G1 F480 X123.733 Y130.627 E274.28523
G0 F10500 X122.963 Y130.918
G1 F480 X120.860 Y128.815 E274.42031
G0 F10500 X120.467 Y129.483
G1 F480 X122.155 Y131.171 E274.52873
G0 F10500 X121.306 Y131.382
G1 F480 X119.921 Y129.998 E274.61766
G0 F10500 X119.209 Y130.346
G1 F480 X120.401 Y131.538 E274.69422
G0 F10500 X120.375 Y131.329
G0 X130.666 Y123.872
G0 X130.855 Y123.961
G1 F480 X126.773 Y119.879 E274.95642
G0 F10500 X126.660 Y120.056
G0 X125.685 Y118.914
G0 X125.598 Y117.854
G0 X125.809 Y117.854
G1 F480 X108.415 Y100.460 E276.07367
G0 F10500 X108.565 Y100.610
G0 X106.974 Y102.201
G0 X106.824 Y102.051
G1 F480 X119.584 Y114.811 E276.89327
G0 F10500 X118.321 Y114.609
G1 F480 X106.294 Y102.582 E277.66578
G0 F10500 X105.764 Y103.112
G1 F480 X117.422 Y114.770 E278.41460
G0 F10500 X116.703 Y115.112
G1 F480 X105.233 Y103.642 E279.15134
G0 F10500 X104.703 Y104.173
G1 F480 X116.119 Y115.589 E279.88461
G0 F10500 X115.660 Y116.190
G1 F480 X104.173 Y104.703 E280.62244
G0 F10500 X103.642 Y105.233
G1 F480 X115.340 Y116.931 E281.37382
G0 F10500 X115.215 Y117.866
G1 F480 X103.112 Y105.764 E282.15119
G0 F10500 X102.582 Y106.294
G1 F480 X115.553 Y119.265 E282.98434
G0 F10500 X115.367 Y119.367
G0 X116.652 Y125.600
G0 X116.763 Y125.778
G1 F480 X99.930 Y108.946 E284.06552
G0 F10500 X99.400 Y109.476
G1 F480 X116.259 Y126.335 E285.14841
G0 F10500 X115.922 Y127.059
G1 F480 X98.869 Y110.006 E286.24375
G0 F10500 X98.339 Y110.537
G1 F480 X115.809 Y128.007 E287.36588
G0 F10500 X115.598 Y128.007
G0 X114.792 Y130.977
G0 X114.740 Y131.181
G1 F480 X96.218 Y112.658 E288.55562
G0 F10500 X96.748 Y112.128
G1 F480 X116.107 Y131.487 E289.79908
G0 F10500 X117.320 Y131.639
G1 F480 X97.278 Y111.597 E291.08641
G0 F10500 X97.809 Y111.067
G1 F480 X118.419 Y131.678 E292.41027
G0 F10500 X119.443 Y131.641
G1 F480 X118.243 Y130.440 E292.48738
G0 F10500 X118.229 Y130.652
G0 X113.199 Y130.430
G0 X113.122 Y130.623
G1 F480 X95.687 Y113.188 E293.60726
G0 F10500 X95.157 Y113.719
G1 F480 X110.879 Y129.440 E294.61708
G0 F10500 X110.992 Y129.263
G0 X125.749 Y116.884
G0 X125.953 Y116.937
G1 F480 X108.946 Y99.930 E295.70947
G0 F10500 X109.476 Y99.400
G1 F480 X126.321 Y116.244 E296.79142
G0 F10500 X126.856 Y115.719
G1 F480 X110.006 Y98.869 E297.87373
G0 F10500 X110.537 Y98.339
G1 F480 X127.552 Y115.354 E298.96663
G0 F10500 X128.455 Y115.196
G1 F480 X111.067 Y97.809 E300.08347
G0 F10500 X111.597 Y97.278
G1 F480 X130.219 Y115.900 E301.27959
G0 F10500 X130.418 Y116.099
G1 F480 X132.285 Y117.966 E301.39951
G0 F10500 X132.241 Y118.983
G1 F480 X131.074 Y117.816 E301.47447
G0 F10500 X130.903 Y118.705
G1 F480 X132.131 Y119.933 E301.55335
G0 F10500 X131.962 Y120.825
G1 F480 X130.531 Y119.394 E301.64526
G0 F10500 X130.005 Y119.928
G1 F480 X131.747 Y121.671 E301.75719
G0 F10500 X131.489 Y122.473
G1 F480 X129.321 Y120.305 E301.89644
G0 F10500 X128.406 Y120.451
G1 F480 X131.190 Y123.235 E302.07526
G0 F10500 X130.995 Y123.159
G0 X132.041 Y116.886
G0 X132.253 Y116.873
G1 F480 X112.128 Y96.748 E303.36793
G0 F10500 X112.658 Y96.218
G1 F480 X132.122 Y115.682 E304.61814
G0 F10500 X131.838 Y114.337
G1 F480 X113.188 Y95.687 E305.81606
G0 F10500 X113.719 Y95.157
G1 F480 X131.330 Y112.769 E306.94728
G0 F10500 X131.133 Y112.847
G0 X130.131 Y110.800
G0 X130.309 Y110.686
G1 F480 X114.249 Y94.627 E307.97881
G0 F10500 X114.399 Y94.776
G0 X114.543 Y96.186
G1 F240 E305.97881
G1 Z0.500
G0 F10500 X117.169 Y92.087
;TYPE:WALL-OUTER
G1 Z0.400
G1 F240 E307.97881
G1 F480 X117.169 Y63.838 E309.26185
G1 X136.339 Y63.838 E310.13252
G1 X137.689 Y63.866 E310.19385
G1 X138.503 Y63.943 E310.23099
G1 X139.403 Y64.082 E310.27235
G1 X140.256 Y64.269 E310.31201
G1 X141.109 Y64.515 E310.35233
G1 X141.937 Y64.809 E310.39224
G1 X142.820 Y65.188 E310.43588
G1 X143.555 Y65.561 E310.47332
G1 X144.309 Y66.004 E310.51304
G1 X145.058 Y66.510 E310.55409
G1 X145.765 Y67.054 E310.59461
G1 X145.806 Y67.086 E310.59697
G1 X146.425 Y67.633 E310.63449
G1 X147.055 Y68.259 E310.67483
G1 X147.677 Y68.958 E310.71732
G1 X148.191 Y69.622 E310.75546
G1 X148.714 Y70.384 E310.79744
G1 X149.145 Y71.114 E310.83594
G1 X149.580 Y71.960 E310.87915
G1 X149.911 Y72.726 E310.91705
G1 X150.224 Y73.587 E310.95866
G1 X150.458 Y74.390 E310.99665
G1 X150.659 Y75.278 E311.03800
G1 X150.808 Y76.197 E311.08028
G1 X150.891 Y77.063 E311.11980
G1 X150.917 Y77.924 E311.15892
G1 X150.919 Y77.966 E311.16083
G1 X150.893 Y78.807 E311.19904
G1 X150.814 Y79.670 E311.23840
G1 X150.676 Y80.567 E311.27962
G1 X150.476 Y81.473 E311.32176
G1 X150.241 Y82.281 E311.35998
G1 X149.949 Y83.103 E311.39960
G1 X149.593 Y83.932 E311.44058
G1 X149.192 Y84.728 E311.48106
G1 X148.722 Y85.527 E311.52317
G1 X148.250 Y86.222 E311.56132
G1 X147.703 Y86.932 E311.60203
G1 X147.671 Y86.973 E311.60439
G1 X147.124 Y87.593 E311.64194
G1 X146.463 Y88.259 E311.68456
G1 X145.845 Y88.804 E311.72199
G1 X145.090 Y89.394 E311.76551
G1 X144.404 Y89.860 E311.80317
G1 X143.642 Y90.314 E311.84346
G1 X142.809 Y90.742 E311.88600
G1 X142.036 Y91.077 E311.92426
G1 X141.218 Y91.374 E311.96378
G1 X140.355 Y91.628 E312.00464
G1 X139.431 Y91.838 E312.04768
G1 X138.618 Y91.967 E312.08507
G1 X137.738 Y92.053 E312.12523
G1 X136.833 Y92.085 E312.16636
G1 X117.169 Y92.087 E313.05947
G0 F10500 X117.644 Y91.702
G0 X134.032 Y80.027
G0 X134.441 Y79.787
G1 F480 X134.969 Y80.315 E313.09339
G1 X135.612 Y80.695 E313.12731
G1 X136.241 Y80.878 E313.15706
G1 X136.326 Y80.903 E313.16109
G1 X136.991 Y80.923 E313.19130
G1 X137.070 Y80.927 E313.19490
G1 X137.803 Y80.764 E313.22900
G1 X138.394 Y80.463 E313.25912
G1 X138.469 Y80.424 E313.26296
G1 X138.965 Y79.986 E313.29302
G1 X139.028 Y79.930 E313.29685
G1 X139.448 Y79.314 E313.33071
G1 X139.701 Y78.611 E313.36464
G1 X139.762 Y77.958 E313.39443
G1 X139.771 Y77.872 E313.39836
G1 X139.667 Y77.215 E313.42857
G1 X139.654 Y77.131 E313.43243
G1 X139.391 Y76.523 E313.46252
G1 X139.357 Y76.446 E313.46634
G1 X138.951 Y75.922 E313.49645
G1 X138.899 Y75.855 E313.50030
G1 X138.310 Y75.400 E313.53410
G1 X137.626 Y75.103 E313.56797
G1 X136.888 Y74.986 E313.60191
G1 X136.226 Y75.048 E313.63211
G1 X136.142 Y75.057 E313.63595
G1 X135.442 Y75.309 E313.66974
G1 X134.825 Y75.730 E313.70366
G1 X134.358 Y76.258 E313.73568
G1 X133.993 Y76.951 E313.77125
G1 X133.830 Y77.682 E313.80527
G1 X133.853 Y78.428 E313.83917
G1 X134.043 Y79.085 E313.87023
G1 X134.441 Y79.787 E313.90688
G0 F10500 X134.032 Y80.027
G0 X135.382 Y81.225
G0 X141.544 Y83.381
G0 X141.899 Y83.696
G1 F480 X141.627 Y84.227 E313.93398
G1 X141.498 Y84.810 E313.96110
G1 X141.517 Y85.405 E313.98814
G1 X141.683 Y85.977 E314.01519
G1 X141.986 Y86.491 E314.04229
G1 X142.407 Y86.912 E314.06933
G1 X142.921 Y87.215 E314.09643
G1 X143.493 Y87.381 E314.12348
G1 X144.088 Y87.400 E314.15052
G1 X144.671 Y87.271 E314.17764
G1 X145.202 Y87.000 E314.20471
G1 X145.648 Y86.606 E314.23174
G1 X145.984 Y86.113 E314.25884
G1 X146.186 Y85.551 E314.28596
G1 X146.242 Y84.958 E314.31302
G1 X146.149 Y84.370 E314.34006
G1 X145.912 Y83.822 E314.36717
G1 X145.546 Y83.352 E314.39423
G1 X145.076 Y82.986 E314.42128
G1 X144.528 Y82.749 E314.44840
G1 X143.940 Y82.656 E314.47544
G1 X143.347 Y82.712 E314.50249
G1 X142.785 Y82.914 E314.52962
G1 X142.293 Y83.250 E314.55668
G1 X141.899 Y83.696 E314.58371
G0 F10500 X141.544 Y83.381
G0 X143.478 Y73.715
G0 X143.493 Y73.240
G1 F480 X144.088 Y73.259 E314.61074
G1 X144.671 Y73.130 E314.63786
G1 X145.202 Y72.858 E314.66496
G1 X145.648 Y72.464 E314.69199
G1 X145.984 Y71.972 E314.71905
G1 X146.186 Y71.410 E314.74617
G1 X146.242 Y70.817 E314.77323
G1 X146.149 Y70.229 E314.80027
G1 X145.912 Y69.681 E314.82738
G1 X145.546 Y69.211 E314.85444
G1 X145.076 Y68.845 E314.88149
G1 X144.528 Y68.608 E314.90861
G1 X143.940 Y68.515 E314.93565
G1 X143.347 Y68.571 E314.96270
G1 X142.785 Y68.773 E314.98983
G1 X142.293 Y69.109 E315.01689
G1 X141.899 Y69.555 E315.04392
G1 X141.627 Y70.086 E315.07101
G1 X141.498 Y70.669 E315.09813
G1 X141.517 Y71.264 E315.12517
G1 X141.683 Y71.836 E315.15222
G1 X141.986 Y72.350 E315.17932
G1 X142.407 Y72.771 E315.20636
G1 X142.921 Y73.074 E315.23346
G1 X143.493 Y73.240 E315.26052
G0 F10500 X144.055 Y73.521
;TYPE:SKIN
G1 F480 X150.501 Y79.967 E315.67455
G0 F10500 X150.340 Y80.867
G1 F480 X142.757 Y73.283 E316.16166
G0 F10500 X142.651 Y73.465
G0 X141.529 Y72.703
G0 X141.290 Y72.104
G0 X141.472 Y71.999
G1 F480 X133.574 Y64.101 E316.66896
G0 F10500 X132.513 Y64.101
G1 F480 X150.130 Y81.718 E317.80053
G0 F10500 X149.875 Y82.523
G1 F480 X131.453 Y64.101 E318.98381
G0 F10500 X130.392 Y64.101
G1 F480 X149.581 Y83.290 E320.21636
G0 F10500 X149.252 Y84.021
G1 F480 X129.331 Y64.101 E321.49589
G0 F10500 X128.271 Y64.101
G1 F480 X148.891 Y84.721 E322.82035
G0 F10500 X148.498 Y85.388
G1 F480 X139.709 Y76.600 E323.38485
G0 F10500 X139.904 Y76.516
G0 X139.304 Y75.445
G0 X138.240 Y74.853
G0 X138.156 Y75.047
G1 F480 X127.210 Y64.101 E324.08793
G0 F10500 X126.149 Y64.101
G1 F480 X136.779 Y74.731 E324.77071
G0 F10500 X135.864 Y74.876
G1 F480 X125.089 Y64.101 E325.46281
G0 F10500 X124.028 Y64.101
G1 F480 X135.129 Y75.202 E326.17585
G0 F10500 X134.531 Y75.664
G1 F480 X122.967 Y64.101 E326.91859
G0 F10500 X121.907 Y64.101
G1 F480 X134.061 Y76.255 E327.69927
G0 F10500 X133.718 Y76.973
G1 F480 X120.846 Y64.101 E328.52606
G0 F10500 X119.786 Y64.101
G1 F480 X133.573 Y77.888 E329.41163
G0 F10500 X133.793 Y79.169
G1 F480 X118.725 Y64.101 E330.37947
G0 F10500 X117.664 Y64.101
G1 F480 X143.597 Y90.033 E332.04516
G0 F10500 X144.261 Y89.637
G1 F480 X135.584 Y80.960 E332.60250
G0 F10500 X136.867 Y81.182
G1 F480 X141.306 Y85.622 E332.88766
G0 F10500 X141.287 Y84.541
G1 F480 X137.783 Y81.038 E333.11270
G0 F10500 X138.505 Y80.699
G1 F480 X141.569 Y83.763 E333.30950
G0 F10500 X142.023 Y83.157
G1 F480 X139.091 Y80.224 E333.49786
G0 F10500 X139.231 Y80.385
G0 X139.708 Y91.289
G0 X139.753 Y91.493
G1 F480 X117.431 Y69.171 E334.93165
G0 F10500 X117.431 Y70.231
G1 F480 X138.860 Y91.661 E336.30810
G0 F10500 X137.909 Y91.771
G1 F480 X117.431 Y71.292 E337.62347
G0 F10500 X117.431 Y72.353
G1 F480 X136.897 Y91.819 E338.87381
G0 F10500 X135.839 Y91.822
G1 F480 X117.431 Y73.413 E340.05622
G0 F10500 X117.431 Y74.474
G1 F480 X134.778 Y91.822 E341.17048
G0 F10500 X133.718 Y91.822
G1 F480 X117.431 Y75.535 E342.21663
G0 F10500 X117.431 Y76.595
G1 F480 X132.657 Y91.822 E343.19465
G0 F10500 X131.596 Y91.822
G1 F480 X117.431 Y77.656 E344.10453
G0 F10500 X117.431 Y78.717
G1 F480 X130.536 Y91.822 E344.94629
G0 F10500 X129.476 Y91.822
G1 F480 X117.431 Y79.777 E345.71996
G0 F10500 X117.644 Y79.777
G0 X117.644 Y68.110
G0 X117.431 Y68.110
G1 F480 X140.601 Y91.280 E347.20821
G0 F10500 X141.406 Y91.025
G1 F480 X117.431 Y67.049 E348.74820
G0 F10500 X117.431 Y65.989
G1 F480 X142.172 Y90.730 E350.33736
G0 F10500 X142.900 Y90.397
G1 F480 X117.431 Y64.928 E351.97328
G0 F10500 X117.644 Y64.928
G0 X117.644 Y80.838
G0 X117.431 Y80.838
G1 F480 X128.415 Y91.822 E352.67881
G0 F10500 X127.354 Y91.822
G1 F480 X117.431 Y81.899 E353.31618
G0 F10500 X117.431 Y82.959
G1 F480 X126.294 Y91.822 E353.88547
G0 F10500 X125.233 Y91.822
G1 F480 X117.431 Y84.020 E354.38660
G0 F10500 X117.431 Y85.081
G1 F480 X124.172 Y91.822 E354.81959
G0 F10500 X123.112 Y91.823
G1 F480 X117.431 Y86.141 E355.18452
G0 F10500 X117.431 Y87.202
G1 F480 X122.052 Y91.823 E355.48134
G0 F10500 X120.991 Y91.823
G1 F480 X117.431 Y88.263 E355.71000
G0 F10500 X117.431 Y89.323
G1 F480 X119.930 Y91.823 E355.87055
G0 F10500 X118.870 Y91.823
G1 F480 X117.431 Y90.384 E355.96298
G0 F10500 X117.431 Y91.445
G1 F480 X117.809 Y91.823 E355.98726
G0 F10500 X117.809 Y91.611
G0 X139.346 Y80.416
G0 X139.727 Y79.745
G0 X139.552 Y79.625
G1 F480 X142.628 Y82.701 E356.18484
G0 F10500 X143.428 Y82.440
G1 F480 X139.879 Y78.891 E356.41280
G0 F10500 X140.079 Y78.962
G0 X141.023 Y70.707
G0 X141.235 Y70.701
G1 F480 X134.635 Y64.101 E356.83673
G0 F10500 X135.695 Y64.101
G1 F480 X141.449 Y69.855 E357.20632
G0 F10500 X141.859 Y69.203
G1 F480 X136.765 Y64.109 E357.53351
G0 F10500 X137.862 Y64.146
G1 F480 X142.418 Y68.702 E357.82615
G0 F10500 X143.141 Y68.364
G1 F480 X139.075 Y64.298 E358.08732
G0 F10500 X140.429 Y64.592
G1 F480 X144.113 Y68.276 E358.32395
G0 F10500 X144.145 Y68.068
G0 X144.101 Y66.435
G0 X144.220 Y66.261
G1 F480 X148.501 Y70.543 E358.59896
G0 F10500 X148.321 Y70.653
G0 X146.690 Y70.610
G0 X146.479 Y70.642
G1 F480 X150.165 Y74.328 E358.83572
G0 F10500 X150.457 Y75.680
G1 F480 X146.391 Y71.615 E359.09685
G0 F10500 X146.052 Y72.337
G1 F480 X150.610 Y76.895 E359.38962
G0 F10500 X150.653 Y77.998
G1 F480 X145.552 Y72.897 E359.71727
G0 F10500 X144.901 Y73.307
G1 F480 X150.610 Y79.015 E360.08394
G0 F10500 X150.400 Y78.995
G0 X149.430 Y72.808
G0 X149.623 Y72.725
G1 F480 X142.037 Y65.140 E360.57117
G0 F10500 X141.954 Y65.332
G0 X140.922 Y70.615
G0 X140.236 Y77.997
G0 X140.024 Y77.975
G1 F480 X144.532 Y82.484 E360.86076
G0 F10500 X144.565 Y82.275
G0 X145.954 Y82.944
G0 X146.623 Y84.332
G0 X146.412 Y84.364
G1 F480 X148.068 Y86.020 E360.96712
G0 F10500 X147.609 Y86.621
G1 F480 X146.456 Y85.468 E361.04118
G0 F10500 X146.195 Y86.268
G1 F480 X146.865 Y87.468 E361.10078
G1 X145.438 Y87.101 E361.15636
G1 X146.064 Y88.258 E361.21611
G0 F10500 X145.491 Y88.746
G1 F480 X144.355 Y87.610 E361.28908
G0 F10500 X143.275 Y87.590
G1 F480 X144.893 Y89.208 E361.39301
G0 F10500 X144.395 Y88.947
G1 F240 E359.39301
G1 Z0.500
G0 F10500 X116.408 Y60.268
;TYPE:WALL-OUTER
G1 Z0.400
G1 F240 E361.39301
G1 F480 X96.432 Y40.292 E362.67610
G1 X109.988 Y26.736 E363.54683
G1 X110.966 Y25.799 E363.60835
G1 X111.600 Y25.274 E363.64573
G1 X112.317 Y24.751 E363.68604
G1 X113.063 Y24.273 E363.72628
G1 X113.838 Y23.843 E363.76654
G1 X114.649 Y23.457 E363.80733
G1 X115.501 Y23.117 E363.84899
G1 X116.315 Y22.852 E363.88787
G1 X117.167 Y22.631 E363.92785
G1 X118.036 Y22.462 E363.96806
G1 X118.922 Y22.347 E364.00864
G1 X119.800 Y22.289 E364.04860
G1 X120.696 Y22.285 E364.08930
G1 X121.623 Y22.340 E364.13148
G1 X122.449 Y22.444 E364.16929
G1 X123.389 Y22.621 E364.21273
G1 X124.183 Y22.824 E364.24996
G1 X125.079 Y23.112 E364.29270
G1 X125.859 Y23.421 E364.33081
G1 X126.708 Y23.817 E364.37336
G1 X127.452 Y24.226 E364.41192
G1 X128.195 Y24.694 E364.45180
G1 X128.950 Y25.239 E364.49409
G1 X129.639 Y25.808 E364.53468
G1 X130.248 Y26.380 E364.57262
G1 X130.858 Y27.025 E364.61294
G1 X131.424 Y27.704 E364.65309
G1 X131.949 Y28.422 E364.69349
G1 X132.456 Y29.213 E364.73616
G1 X132.853 Y29.936 E364.77363
G1 X133.244 Y30.758 E364.81497
G1 X133.569 Y31.571 E364.85474
G1 X133.842 Y32.403 E364.89451
G1 X134.085 Y33.335 E364.93825
G1 X134.237 Y34.131 E364.97506
G1 X134.354 Y35.035 E365.01646
G1 X134.411 Y35.905 E365.05606
G1 X134.415 Y36.848 E365.09889
G1 X134.364 Y37.678 E365.13666
G1 X134.248 Y38.616 E365.17959
G1 X134.092 Y39.436 E365.21750
G1 X133.877 Y40.283 E365.25719
G1 X133.588 Y41.184 E365.30016
G1 X133.279 Y41.964 E365.33827
G1 X132.899 Y42.779 E365.37911
G1 X132.482 Y43.546 E365.41876
G1 X131.976 Y44.347 E365.46179
G1 X131.495 Y45.010 E365.49900
G1 X130.923 Y45.707 E365.53995
G1 X130.312 Y46.362 E365.58063
G1 X116.408 Y60.268 E366.47377
G0 F10500 X116.471 Y59.661
G0 X119.806 Y39.816
G0 X119.924 Y39.357
G1 F480 X120.670 Y39.357 E366.50766
G1 X121.315 Y39.192 E366.53790
G1 X121.396 Y39.170 E366.54171
G1 X121.973 Y38.853 E366.57161
G1 X122.047 Y38.812 E366.57545
G1 X122.531 Y38.358 E366.60559
G1 X122.592 Y38.299 E366.60945
G1 X122.992 Y37.671 E366.64326
G1 X123.194 Y37.047 E366.67305
G1 X123.222 Y36.964 E366.67703
G1 X123.263 Y36.306 E366.70697
G1 X123.270 Y36.219 E366.71094
G1 X123.145 Y35.564 E366.74123
G1 X123.129 Y35.481 E366.74506
G1 X122.811 Y34.806 E366.77895
G1 X122.336 Y34.231 E366.81283
G1 X121.802 Y33.844 E366.84278
G1 X121.733 Y33.793 E366.84668
G1 X121.117 Y33.549 E366.87677
G1 X121.038 Y33.518 E366.88063
G1 X120.384 Y33.436 E366.91056
G1 X120.299 Y33.425 E366.91446
G1 X119.557 Y33.518 E366.94842
G1 X118.863 Y33.793 E366.98232
G1 X118.258 Y34.231 E367.01625
G1 X117.783 Y34.806 E367.05012
G1 X117.465 Y35.482 E367.08405
G1 X117.325 Y36.215 E367.11795
G1 X117.366 Y36.880 E367.14821
G1 X117.373 Y36.964 E367.15204
G1 X117.603 Y37.671 E367.18580
G1 X118.003 Y38.301 E367.21970
G1 X118.547 Y38.812 E367.25360
G1 X119.127 Y39.131 E367.28366
G1 X119.201 Y39.172 E367.28750
G1 X119.924 Y39.357 E367.32140
G0 F10500 X119.806 Y39.816
G0 X121.614 Y39.704
G0 X127.510 Y36.992
G0 X127.962 Y36.848
G1 F480 X128.145 Y37.415 E367.34846
G1 X128.465 Y37.918 E367.37554
G1 X128.900 Y38.327 E367.40266
G1 X129.422 Y38.613 E367.42969
G1 X129.998 Y38.762 E367.45671
G1 X130.596 Y38.762 E367.48387
G1 X131.172 Y38.613 E367.51089
G1 X131.695 Y38.327 E367.53797
G1 X132.129 Y37.918 E367.56505
G1 X132.449 Y37.415 E367.59213
G1 X132.633 Y36.848 E367.61920
G1 X132.670 Y36.253 E367.64628
G1 X132.558 Y35.668 E367.67333
G1 X132.305 Y35.128 E367.70042
G1 X131.925 Y34.670 E367.72745
G1 X131.443 Y34.319 E367.75453
G1 X130.888 Y34.099 E367.78164
G1 X130.297 Y34.025 E367.80870
G1 X129.706 Y34.099 E367.83575
G1 X129.152 Y34.319 E367.86282
G1 X128.669 Y34.669 E367.88991
G1 X128.289 Y35.128 E367.91698
G1 X128.036 Y35.668 E367.94406
G1 X127.924 Y36.253 E367.97112
G1 X127.962 Y36.848 E367.99819
G0 F10500 X127.510 Y36.992
G0 X122.020 Y28.673
G0 X121.695 Y28.327
G1 F480 X122.129 Y27.918 E368.02528
G1 X122.449 Y27.415 E368.05236
G1 X122.633 Y26.848 E368.07943
G1 X122.670 Y26.253 E368.10651
G1 X122.558 Y25.668 E368.13356
G1 X122.305 Y25.128 E368.16065
G1 X121.925 Y24.670 E368.18767
G1 X121.443 Y24.319 E368.21476
G1 X120.888 Y24.099 E368.24187
G1 X120.297 Y24.025 E368.26892
G1 X119.706 Y24.099 E368.29598
G1 X119.152 Y24.319 E368.32305
G1 X118.669 Y24.669 E368.35014
G1 X118.289 Y25.128 E368.37721
G1 X118.036 Y25.668 E368.40429
G1 X117.924 Y26.253 E368.43134
G1 X117.962 Y26.848 E368.45842
G1 X118.145 Y27.415 E368.48548
G1 X118.465 Y27.918 E368.51256
G1 X118.900 Y28.327 E368.53968
G1 X119.422 Y28.613 E368.56671
G1 X119.998 Y28.762 E368.59373
G1 X120.596 Y28.762 E368.62089
G1 X121.172 Y28.613 E368.64792
G1 X121.695 Y28.327 E368.67499
G0 F10500 X121.526 Y28.719
;TYPE:SKIN
G1 F480 X127.978 Y35.170 E369.08938
G0 F10500 X128.422 Y34.554
G1 F480 X122.138 Y28.270 E369.49301
G0 F10500 X122.598 Y27.669
G1 F480 X129.019 Y34.090 E369.90545
G0 F10500 X129.809 Y33.820
G1 F480 X122.890 Y26.900 E370.34990
G0 F10500 X122.849 Y25.798
G1 F480 X130.883 Y33.832 E370.86594
G0 F10500 X130.910 Y33.624
G0 X132.319 Y34.249
G0 X133.060 Y35.760
G0 X132.849 Y35.799
G1 F480 X134.137 Y37.087 E370.94867
G0 F10500 X134.051 Y38.062
G1 F480 X132.890 Y36.900 E371.02327
G0 F10500 X132.598 Y37.669
G1 F480 X133.911 Y38.982 E371.10761
G0 F10500 X133.716 Y39.848
G1 F480 X132.138 Y38.270 E371.20897
G0 F10500 X131.526 Y38.719
G1 F480 X133.477 Y40.669 E371.33425
G0 F10500 X133.198 Y41.451
G1 F480 X130.742 Y38.995 E371.49201
G0 F10500 X129.623 Y38.937
G1 F480 X132.880 Y42.194 E371.70121
G0 F10500 X132.531 Y42.905
G1 F480 X113.793 Y24.168 E372.90475
G0 F10500 X113.116 Y24.551
G1 F480 X132.148 Y43.583 E374.12721
G0 F10500 X131.734 Y44.230
G1 F480 X123.492 Y35.988 E374.65661
G0 F10500 X123.475 Y37.031
G1 F480 X131.289 Y44.845 E375.15852
G0 F10500 X130.811 Y45.428
G1 F480 X123.205 Y37.822 E375.64707
G0 F10500 X122.793 Y38.470
G1 F480 X130.306 Y45.983 E376.12964
G0 F10500 X129.782 Y46.520
G1 F480 X122.246 Y38.984 E376.61369
G0 F10500 X121.573 Y39.372
G1 F480 X129.252 Y47.050 E377.10690
G0 F10500 X128.721 Y47.581
G1 F480 X120.749 Y39.608 E377.61899
G0 F10500 X120.800 Y39.813
G0 X118.990 Y39.709
G0 X117.558 Y38.669
G0 X116.793 Y36.920
G0 X116.915 Y35.304
G0 X117.864 Y33.811
G0 X119.414 Y32.959
G0 X120.742 Y33.003
G0 X120.716 Y33.212
G1 F480 X112.470 Y24.966 E378.14864
G0 F10500 X111.856 Y25.412
G1 F480 X119.680 Y33.236 E378.65119
G0 F10500 X118.883 Y33.500
G1 F480 X111.271 Y25.887 E379.14016
G0 F10500 X110.720 Y26.397
G1 F480 X118.240 Y33.917 E379.62318
G0 F10500 X117.724 Y34.462
G1 F480 X110.179 Y26.917 E380.10781
G0 F10500 X109.648 Y27.447
G1 F480 X117.336 Y35.135 E380.60162
G0 F10500 X117.104 Y35.964
G1 F480 X109.117 Y27.977 E381.11464
G0 F10500 X108.587 Y28.507
G1 F480 X117.121 Y37.041 E381.66280
G0 F10500 X116.920 Y37.105
G0 X117.558 Y38.669
G0 X118.990 Y39.709
G0 X119.583 Y39.758
G0 X119.635 Y39.555
G1 F480 X128.191 Y48.111 E382.21236
G0 F10500 X127.661 Y48.641
G1 F480 X108.057 Y29.038 E383.47153
G0 F10500 X107.526 Y29.568
G1 F480 X127.130 Y49.172 E384.73073
G0 F10500 X126.600 Y49.702
G1 F480 X106.996 Y30.098 E385.98994
G0 F10500 X106.466 Y30.629
G1 F480 X126.070 Y50.232 E387.24910
G0 F10500 X125.539 Y50.763
G1 F480 X105.935 Y31.159 E388.50831
G0 F10500 X105.405 Y31.689
G1 F480 X125.009 Y51.293 E389.76751
G0 F10500 X124.479 Y51.823
G1 F480 X104.875 Y32.220 E391.02668
G0 F10500 X104.344 Y32.750
G1 F480 X123.948 Y52.354 E392.28588
G0 F10500 X123.418 Y52.884
G1 F480 X103.814 Y33.280 E393.54508
G0 F10500 X103.284 Y33.811
G1 F480 X122.888 Y53.414 E394.80425
G0 F10500 X122.357 Y53.945
G1 F480 X102.753 Y34.341 E396.06345
G0 F10500 X102.223 Y34.871
G1 F480 X121.827 Y54.475 E397.32265
G0 F10500 X121.297 Y55.005
G1 F480 X101.693 Y35.402 E398.58182
G0 F10500 X101.162 Y35.932
G1 F480 X120.766 Y55.536 E399.84102
G0 F10500 X120.236 Y56.066
G1 F480 X100.632 Y36.462 E401.10022
G0 F10500 X100.102 Y36.992
G1 F480 X119.706 Y56.596 E402.35942
G0 F10500 X119.175 Y57.127
G1 F480 X99.571 Y37.523 E403.61862
G0 F10500 X99.041 Y38.053
G1 F480 X118.645 Y57.657 E404.87782
G0 F10500 X118.115 Y58.187
G1 F480 X98.511 Y38.583 E406.13702
G0 F10500 X97.980 Y39.114
G1 F480 X117.584 Y58.718 E407.39622
G0 F10500 X117.054 Y59.248
G1 F480 X97.450 Y39.644 E408.65543
G0 F10500 X96.920 Y40.174
G1 F480 X116.524 Y59.778 E409.91463
G0 F10500 X116.376 Y59.630
G0 X127.555 Y37.133
G0 X127.757 Y37.070
G1 F480 X119.624 Y28.937 E410.43702
G0 F10500 X119.572 Y29.141
G0 X118.020 Y28.286
G0 X117.555 Y27.133
G0 X117.757 Y27.070
G1 F480 X114.503 Y23.817 E410.64600
G0 F10500 X115.248 Y23.501
G1 F480 X117.711 Y25.964 E410.80421
G0 F10500 X117.978 Y25.170
G1 F480 X116.029 Y23.222 E410.92936
G0 F10500 X116.852 Y22.983
G1 F480 X118.422 Y24.554 E411.03024
G0 F10500 X119.019 Y24.090
G1 F480 X117.720 Y22.791 E411.11367
G0 F10500 X118.639 Y22.649
G1 F480 X119.810 Y23.820 E411.18889
G0 F10500 X120.883 Y23.833
G1 F480 X119.615 Y22.565 E411.27034
G0 F10500 X120.659 Y22.548
G1 F480 X134.148 Y36.036 E412.13673
G0 F10500 X134.071 Y34.899
G1 F480 X121.799 Y22.627 E412.92498
G0 F10500 X123.060 Y22.828
G1 F480 X133.875 Y33.643 E413.61965
G0 F10500 X133.502 Y32.209
G1 F480 X124.493 Y23.200 E414.19831
G0 F10500 X124.428 Y23.401
G0 X126.157 Y24.083
G0 X126.246 Y23.893
G1 F480 X132.807 Y30.453 E414.61971
G0 F10500 X132.616 Y30.541
G0 X130.732 Y27.615
G0 X130.895 Y27.480
G1 F480 X129.208 Y25.794 E414.72803
G0 F10500 X129.074 Y25.957
G0 X120.794 Y29.201
G0 X120.742 Y28.995
G1 F480 X127.711 Y35.964 E415.17566
G0 F10500 X126.423 Y35.717
G1 F240 E413.17566
G1 Z0.500
G0 F10500 X94.206 Y39.262
;TYPE:WALL-OUTER
G1 Z0.400
G1 F240 E415.17566
G1 F480 X65.957 Y39.262 E416.45870
G1 X65.957 Y20.092 E417.32938
G1 X65.985 Y18.743 E417.39066
G1 X66.062 Y17.929 E417.42780
G1 X66.201 Y17.028 E417.46920
G1 X66.388 Y16.175 E417.50886
G1 X66.634 Y15.322 E417.54919
G1 X66.927 Y14.496 E417.58899
G1 X67.307 Y13.611 E417.63274
G1 X67.680 Y12.877 E417.67013
G1 X68.123 Y12.123 E417.70985
G1 X68.629 Y11.373 E417.75094
G1 X69.173 Y10.666 E417.79146
G1 X69.205 Y10.625 E417.79382
G1 X69.752 Y10.006 E417.83134
G1 X70.377 Y9.376 E417.87165
G1 X71.077 Y8.755 E417.91415
G1 X71.741 Y8.240 E417.95231
G1 X72.507 Y7.715 E417.99449
G1 X73.242 Y7.281 E418.03326
G1 X74.067 Y6.857 E418.07539
G1 X74.840 Y6.522 E418.11365
G1 X75.715 Y6.204 E418.15594
G1 X76.509 Y5.974 E418.19348
G1 X77.393 Y5.773 E418.23466
G1 X78.315 Y5.623 E418.27708
G1 X79.185 Y5.541 E418.31677
G1 X80.042 Y5.514 E418.35572
G1 X80.083 Y5.512 E418.35758
G1 X80.927 Y5.539 E418.39593
G1 X81.789 Y5.617 E418.43524
G1 X82.685 Y5.755 E418.47642
G1 X83.596 Y5.957 E418.51880
G1 X84.396 Y6.188 E418.55662
G1 X85.224 Y6.483 E418.59654
G1 X86.051 Y6.838 E418.63742
G1 X86.847 Y7.240 E418.67792
G1 X87.646 Y7.709 E418.72000
G1 X88.340 Y8.180 E418.75809
G1 X89.051 Y8.729 E418.79889
G1 X89.092 Y8.761 E418.80126
G1 X89.712 Y9.307 E418.83878
G1 X90.378 Y9.968 E418.88140
G1 X90.923 Y10.586 E418.91882
G1 X91.516 Y11.345 E418.96257
G1 X91.979 Y12.028 E419.00004
G1 X92.433 Y12.790 E419.04033
G1 X92.861 Y13.622 E419.08283
G1 X93.198 Y14.400 E419.12133
G1 X93.493 Y15.213 E419.16061
G1 X93.747 Y16.076 E419.20147
G1 X93.958 Y17.003 E419.24465
G1 X94.085 Y17.806 E419.28158
G1 X94.172 Y18.688 E419.32183
G1 X94.204 Y19.585 E419.36260
G1 X94.206 Y39.262 E420.25630
G0 F10500 X93.821 Y38.787
G0 X82.239 Y22.326
G0 X81.906 Y21.990
G1 F480 X82.434 Y21.463 E420.29019
G1 X82.814 Y20.820 E420.32411
G1 X82.996 Y20.190 E420.35389
G1 X83.022 Y20.105 E420.35793
G1 X83.042 Y19.440 E420.38815
G1 X83.046 Y19.361 E420.39174
G1 X82.883 Y18.628 E420.42585
G1 X82.582 Y18.038 E420.45593
G1 X82.543 Y17.963 E420.45977
G1 X82.106 Y17.466 E420.48983
G1 X82.049 Y17.403 E420.49368
G1 X81.433 Y16.983 E420.52755
G1 X80.730 Y16.731 E420.56147
G1 X80.077 Y16.669 E420.59126
G1 X79.991 Y16.660 E420.59518
G1 X79.334 Y16.764 E420.62540
G1 X79.250 Y16.777 E420.62926
G1 X78.642 Y17.040 E420.65934
G1 X78.565 Y17.074 E420.66317
G1 X78.041 Y17.481 E420.69330
G1 X77.974 Y17.533 E420.69715
G1 X77.519 Y18.122 E420.73096
G1 X77.222 Y18.806 E420.76483
G1 X77.105 Y19.543 E420.79872
G1 X77.167 Y20.205 E420.82892
G1 X77.176 Y20.289 E420.83276
G1 X77.428 Y20.989 E420.86655
G1 X77.849 Y21.606 E420.90047
G1 X78.377 Y22.073 E420.93249
G1 X79.070 Y22.438 E420.96806
G1 X79.801 Y22.602 E421.00209
G1 X80.547 Y22.578 E421.03599
G1 X81.204 Y22.388 E421.06705
G1 X81.906 Y21.990 E421.10370
G0 F10500 X82.239 Y22.326
G0 X83.344 Y21.050
G0 X85.599 Y14.954
G0 X85.815 Y14.533
G1 F480 X86.346 Y14.804 E421.13078
G1 X86.929 Y14.933 E421.15790
G1 X87.524 Y14.914 E421.18494
G1 X88.096 Y14.749 E421.21198
G1 X88.610 Y14.445 E421.23910
G1 X89.031 Y14.024 E421.26614
G1 X89.334 Y13.510 E421.29324
G1 X89.500 Y12.938 E421.32029
G1 X89.519 Y12.343 E421.34733
G1 X89.390 Y11.761 E421.37440
G1 X89.119 Y11.230 E421.40148
G1 X88.725 Y10.783 E421.42854
G1 X88.232 Y10.447 E421.45564
G1 X87.670 Y10.245 E421.48277
G1 X87.077 Y10.189 E421.50982
G1 X86.488 Y10.282 E421.53690
G1 X85.941 Y10.520 E421.56400
G1 X85.471 Y10.885 E421.59102
G1 X85.105 Y11.355 E421.61808
G1 X84.868 Y11.903 E421.64520
G1 X84.775 Y12.491 E421.67223
G1 X84.831 Y13.084 E421.69929
G1 X85.022 Y13.616 E421.72496
G1 X85.324 Y14.072 E421.74980
G1 X85.367 Y14.138 E421.75338
G1 X85.815 Y14.533 E421.78051
G0 F10500 X85.599 Y14.954
G0 X75.834 Y12.953
G0 X75.359 Y12.938
G1 F480 X75.378 Y12.343 E421.80754
G1 X75.249 Y11.761 E421.83462
G1 X74.977 Y11.229 E421.86176
G1 X74.583 Y10.783 E421.88879
G1 X74.091 Y10.447 E421.91585
G1 X73.529 Y10.245 E421.94297
G1 X72.936 Y10.189 E421.97002
G1 X72.347 Y10.282 E421.99711
G1 X71.800 Y10.520 E422.02420
G1 X71.330 Y10.885 E422.05123
G1 X70.964 Y11.355 E422.07828
G1 X70.727 Y11.903 E422.10540
G1 X70.634 Y12.491 E422.13244
G1 X70.690 Y13.084 E422.15949
G1 X70.881 Y13.616 E422.18517
G1 X71.183 Y14.072 E422.21001
G1 X71.226 Y14.138 E422.21359
G1 X71.674 Y14.533 E422.24071
G1 X72.205 Y14.804 E422.26779
G1 X72.788 Y14.933 E422.29491
G1 X73.383 Y14.914 E422.32195
G1 X73.955 Y14.749 E422.34899
G1 X74.469 Y14.445 E422.37611
G1 X74.890 Y14.024 E422.40315
G1 X75.193 Y13.510 E422.43025
G1 X75.359 Y12.938 E422.45730
G0 F10500 X75.634 Y12.524
;TYPE:SKIN
G1 F480 X79.570 Y16.460 E422.71012
G0 F10500 X78.753 Y16.704
G1 F480 X75.485 Y13.437 E422.92000
G0 F10500 X75.126 Y14.138
G1 F480 X78.093 Y17.105 E423.11057
G0 F10500 X77.562 Y17.635
G1 F480 X74.600 Y14.673 E423.30083
G0 F10500 X73.903 Y15.036
G1 F480 X77.158 Y18.292 E423.50993
G0 F10500 X76.908 Y19.102
G1 F480 X72.996 Y15.190 E423.76121
G0 F10500 X73.002 Y15.403
G0 X71.350 Y15.010
G0 X71.165 Y14.716
G0 X71.304 Y14.559
G1 F480 X76.898 Y20.153 E424.12052
G0 F10500 X76.687 Y20.172
G0 X77.415 Y21.988
G0 X78.870 Y22.980
G0 X79.518 Y23.025
G0 X79.564 Y22.819
G1 F480 X93.942 Y37.197 E425.04405
G0 F10500 X93.942 Y38.258
G1 F480 X68.197 Y12.512 E426.69773
G0 F10500 X68.611 Y11.866
G1 F480 X70.960 Y14.215 E426.84861
G0 F10500 X70.781 Y14.326
G0 X70.126 Y13.210
G0 X70.166 Y12.588
G0 X70.376 Y12.570
G1 F480 X69.055 Y11.249 E426.93346
G0 F10500 X69.524 Y10.658
G1 F480 X70.727 Y11.330 E426.99863
G1 X70.291 Y9.833 E427.05566
G1 X71.791 Y10.272 E427.11283
G1 X71.118 Y9.070 E427.17540
G0 F10500 X71.707 Y8.598
G1 F480 X73.044 Y9.934 E427.26124
G0 F10500 X73.064 Y9.725
G0 X74.353 Y9.933
G0 X74.866 Y10.402
G0 X74.746 Y10.576
G1 F480 X72.327 Y8.157 E427.41662
G0 F10500 X72.975 Y7.744
G1 F480 X93.941 Y28.711 E428.76334
G0 F10500 X93.941 Y29.772
G1 F480 X83.252 Y19.082 E429.44994
G0 F10500 X83.460 Y19.037
G0 X83.020 Y17.638
G0 X81.693 Y16.468
G0 X80.646 Y16.247
G0 X80.626 Y16.456
G1 F480 X74.777 Y10.607 E429.82563
G0 F10500 X74.937 Y10.466
G0 X73.751 Y7.553
G0 X73.656 Y7.365
G1 F480 X93.941 Y27.650 E431.12858
G0 F10500 X93.941 Y26.590
G1 F480 X74.366 Y7.014 E432.38595
G0 F10500 X75.114 Y6.701
G1 F480 X93.941 Y25.528 E433.59524
G0 F10500 X93.941 Y24.468
G1 F480 X75.898 Y6.424 E434.75421
G0 F10500 X76.728 Y6.194
G1 F480 X93.941 Y23.407 E435.85983
G0 F10500 X93.941 Y22.346
G1 F480 X86.760 Y15.166 E436.32105
G0 F10500 X87.771 Y15.115
G1 F480 X93.941 Y21.286 E436.71739
G0 F10500 X93.941 Y20.225
G1 F480 X88.519 Y14.803 E437.06566
G0 F10500 X89.101 Y14.324
G1 F480 X93.924 Y19.148 E437.37548
G0 F10500 X93.839 Y18.002
G1 F480 X89.530 Y13.693 E437.65225
G0 F10500 X89.763 Y12.865
G1 F480 X93.624 Y16.726 E437.90025
G0 F10500 X93.419 Y16.772
G0 X93.036 Y15.349
G0 X93.234 Y15.276
G1 F480 X89.642 Y11.683 E438.13100
G0 F10500 X89.848 Y11.637
G0 X89.107 Y10.350
G0 X88.136 Y9.908
G0 X88.065 Y10.106
G1 F480 X84.441 Y6.482 E438.36378
G0 F10500 X84.369 Y6.683
G0 X82.944 Y6.298
G0 X82.990 Y6.092
G1 F480 X86.854 Y9.956 E438.61197
G0 F10500 X86.030 Y10.193
G1 F480 X81.711 Y5.873 E438.88942
G0 F10500 X80.567 Y5.791
G1 F480 X85.390 Y10.613 E439.19918
G0 F10500 X84.902 Y11.186
G1 F480 X79.509 Y5.794 E439.54555
G0 F10500 X78.522 Y5.867
G1 F480 X84.595 Y11.940 E439.93563
G0 F10500 X84.555 Y12.960
G1 F480 X77.600 Y6.005 E440.38236
G0 F10500 X77.633 Y6.215
G0 X70.922 Y10.476
G0 X68.005 Y13.287
G0 X67.814 Y13.190
G1 F480 X93.623 Y38.999 E442.04012
G0 F10500 X92.562 Y38.999
G1 F480 X67.467 Y13.903 E443.65205
G0 F10500 X67.150 Y14.647
G1 F480 X91.501 Y38.999 E445.21619
G0 F10500 X90.441 Y38.999
G1 F480 X66.874 Y15.432 E446.72995
G0 F10500 X66.637 Y16.255
G1 F480 X89.380 Y38.999 E448.19080
G0 F10500 X88.319 Y38.999
G1 F480 X66.450 Y17.129 E449.59552
G0 F10500 X66.313 Y18.053
G1 F480 X87.259 Y38.999 E450.94092
G0 F10500 X86.198 Y38.999
G1 F480 X66.241 Y19.041 E452.22283
G0 F10500 X66.219 Y20.080
G1 F480 X85.137 Y38.999 E453.43800
G0 F10500 X84.077 Y38.999
G1 F480 X66.219 Y21.141 E454.58505
G0 F10500 X66.219 Y22.201
G1 F480 X83.016 Y38.999 E455.66398
G0 F10500 X81.955 Y38.999
G1 F480 X66.219 Y23.262 E456.67477
G0 F10500 X66.219 Y24.323
G1 F480 X80.895 Y38.999 E457.61744
G0 F10500 X80.895 Y38.787
G0 X93.730 Y36.136
G0 X93.942 Y36.136
G1 F480 X80.632 Y22.826 E458.47236
G0 F10500 X81.430 Y22.563
G1 F480 X93.942 Y35.076 E459.27606
G0 F10500 X93.942 Y34.015
G1 F480 X82.097 Y22.170 E460.03689
G0 F10500 X82.628 Y21.641
G1 F480 X93.942 Y32.954 E460.76358
G0 F10500 X93.941 Y31.893
G1 F480 X83.025 Y20.977 E461.46473
G0 F10500 X83.276 Y20.167
G1 F480 X93.941 Y30.832 E462.14976
G0 F10500 X93.730 Y30.832
G0 X79.834 Y38.787
G0 X79.834 Y38.999
G1 F480 X66.219 Y25.383 E463.02431
G0 F10500 X66.219 Y26.444
G1 F480 X78.773 Y38.999 E463.83071
G0 F10500 X77.713 Y38.999
G1 F480 X66.219 Y27.505 E464.56899
G0 F10500 X66.219 Y28.565
G1 F480 X76.652 Y38.999 E465.23915
G0 F10500 X75.591 Y38.999
G1 F480 X66.219 Y29.626 E465.84117
G0 F10500 X66.219 Y30.687
G1 F480 X74.531 Y38.999 E466.37506
G0 F10500 X73.470 Y38.999
G1 F480 X66.219 Y31.747 E466.84084
G0 F10500 X66.219 Y32.808
G1 F480 X72.409 Y38.999 E467.23847
G0 F10500 X71.349 Y38.999
G1 F480 X66.219 Y33.869 E467.56798
G0 F10500 X66.219 Y34.929
G1 F480 X70.288 Y38.999 E467.82937
G0 F10500 X69.227 Y38.999
G1 F480 X66.219 Y35.990 E468.02261
G0 F10500 X66.219 Y37.050
G1 F480 X68.167 Y38.999 E468.14776
G0 F10500 X67.106 Y38.999
G1 F480 X66.219 Y38.111 E468.20477
G0 F10500 X66.432 Y38.111
G0 X92.295 Y13.558
G0 X92.482 Y13.463
G1 F480 X86.256 Y7.237 E468.60468
G0 F10500 X85.662 Y8.404
;LAYER:1
M106 S255
G1 F240 E466.60468
G1 Z0.500
G0 F10500 X62.950 Y40.075 Z0.750
;TYPE:WALL-OUTER
G1 Z0.750
G1 F240 E468.60468
G1 F480 X42.869 Y60.156 E469.50757
G1 X28.939 Y46.226 E470.13389
G1 X28.322 Y45.569 E470.16255
G1 X27.847 Y44.994 E470.18626
G1 X27.305 Y44.262 E470.21522
G1 X26.832 Y43.530 E470.24292
G1 X26.386 Y42.736 E470.27188
G1 X26.005 Y41.947 E470.29973
G1 X25.615 Y40.984 E470.33277
G1 X25.385 Y40.276 E470.35643
G1 X25.152 Y39.398 E470.38531
G1 X24.977 Y38.523 E470.41368
G1 X24.858 Y37.640 E470.44201
G1 X24.842 Y37.521 E470.44583
G1 X24.796 Y36.769 E470.46978
G1 X24.787 Y35.877 E470.49814
G1 X24.844 Y34.846 E470.53097
G1 X24.939 Y34.084 E470.55539
G1 X25.120 Y33.096 E470.58732
G1 X25.313 Y32.341 E470.61210
G1 X25.621 Y31.370 E470.64448
G1 X25.902 Y30.659 E470.66879
G1 X26.327 Y29.738 E470.70104
G1 X26.690 Y29.077 E470.72501
G1 X27.171 Y28.304 E470.75396
G1 X27.759 Y27.481 E470.78612
G1 X28.322 Y26.801 E470.81418
G1 X28.851 Y26.238 E470.83875
G1 X29.502 Y25.616 E470.86737
G1 X30.171 Y25.053 E470.89517
G1 X30.896 Y24.516 E470.92385
G1 X31.756 Y23.960 E470.95641
G1 X32.535 Y23.532 E470.98467
G1 X33.215 Y23.212 E471.00857
G1 X34.059 Y22.869 E471.03753
G1 X34.886 Y22.592 E471.06526
G1 X35.881 Y22.328 E471.09799
G1 X36.638 Y22.184 E471.12249
G1 X37.525 Y22.064 E471.15094
G1 X37.643 Y22.048 E471.15473
G1 X38.396 Y22.001 E471.17872
G1 X39.433 Y21.992 E471.21169
G1 X40.178 Y22.039 E471.23542
G1 X41.199 Y22.160 E471.26811
G1 X41.958 Y22.304 E471.29267
G1 X42.816 Y22.516 E471.32077
G1 X43.789 Y22.824 E471.35322
G1 X44.491 Y23.102 E471.37722
G1 X45.319 Y23.483 E471.40620
G1 X46.097 Y23.901 E471.43428
G1 X46.958 Y24.439 E471.46656
G1 X47.691 Y24.971 E471.49535
G1 X48.265 Y25.446 E471.51904
G1 X48.925 Y26.055 E471.54759
G1 X62.950 Y40.075 E472.17808
G0 F10500 X62.450 Y40.011
G0 X42.245 Y36.648
G0 X41.859 Y36.549
G1 F480 X41.859 Y35.821 E472.20122
G1 X41.711 Y35.244 E472.22016
G1 X41.678 Y35.116 E472.22436
G1 X41.392 Y34.595 E472.24326
G1 X41.327 Y34.479 E472.24748
G1 X40.830 Y33.949 E472.27059
G1 X40.216 Y33.559 E472.29371
G1 X39.652 Y33.377 E472.31255
G1 X39.525 Y33.334 E472.31682
G1 X38.797 Y33.288 E472.34001
G1 X38.211 Y33.399 E472.35897
G1 X38.082 Y33.425 E472.36315
G1 X37.425 Y33.735 E472.38625
G1 X36.863 Y34.198 E472.40940
G1 X36.515 Y34.679 E472.42828
G1 X36.436 Y34.786 E472.43250
G1 X36.168 Y35.464 E472.45568
G1 X36.094 Y36.054 E472.47459
G1 X36.078 Y36.184 E472.47875
G1 X36.168 Y36.907 E472.50192
G1 X36.436 Y37.584 E472.52506
G1 X36.864 Y38.172 E472.54819
G1 X37.425 Y38.635 E472.57131
G1 X38.082 Y38.946 E472.59442
G1 X38.797 Y39.082 E472.61756
G1 X39.524 Y39.036 E472.64072
G1 X40.216 Y38.812 E472.66385
G1 X40.830 Y38.422 E472.68697
G1 X41.328 Y37.891 E472.71012
G1 X41.613 Y37.370 E472.72900
G1 X41.678 Y37.254 E472.73323
G1 X41.859 Y36.549 E472.75637
G0 F10500 X42.245 Y36.648
G0 X42.143 Y34.930
G0 X39.534 Y28.828
G0 X39.412 Y28.447
G1 F480 X39.960 Y28.269 E472.77469
G1 X40.448 Y27.959 E472.79307
G1 X40.843 Y27.539 E472.81140
G1 X41.120 Y27.032 E472.82977
G1 X41.264 Y26.474 E472.84809
G1 X41.264 Y25.897 E472.86643
G1 X41.120 Y25.338 E472.88478
G1 X40.843 Y24.832 E472.90312
G1 X40.448 Y24.411 E472.92148
G1 X39.960 Y24.102 E472.93984
G1 X39.412 Y23.924 E472.95816
G1 X38.835 Y23.887 E472.97654
G1 X38.268 Y23.995 E472.99489
G1 X37.746 Y24.242 E473.01325
G1 X37.302 Y24.609 E473.03157
G1 X36.962 Y25.076 E473.04993
G1 X36.750 Y25.613 E473.06829
G1 X36.678 Y26.185 E473.08662
G1 X36.750 Y26.758 E473.10498
G1 X36.962 Y27.295 E473.12333
G1 X37.302 Y27.761 E473.14167
G1 X37.746 Y28.129 E473.16001
G1 X38.269 Y28.375 E473.17838
G1 X38.835 Y28.483 E473.19670
G1 X39.412 Y28.447 E473.21508
G0 F10500 X39.534 Y28.828
G0 X31.134 Y34.560
G0 X30.843 Y34.832
G1 F480 X30.448 Y34.411 E473.23344
G1 X29.960 Y34.102 E473.25180
G1 X29.412 Y33.924 E473.27012
G1 X28.835 Y33.887 E473.28850
G1 X28.268 Y33.995 E473.30685
G1 X27.746 Y34.242 E473.32521
G1 X27.302 Y34.609 E473.34353
G1 X26.962 Y35.076 E473.36189
G1 X26.750 Y35.613 E473.38025
G1 X26.678 Y36.185 E473.39858
G1 X26.750 Y36.758 E473.41694
G1 X26.962 Y37.295 E473.43529
G1 X27.302 Y37.761 E473.45363
G1 X27.746 Y38.129 E473.47197
G1 X28.269 Y38.375 E473.49034
G1 X28.835 Y38.483 E473.50866
G1 X29.412 Y38.447 E473.52704
G1 X29.960 Y38.269 E473.54536
G1 X30.448 Y37.959 E473.56374
G1 X30.843 Y37.539 E473.58207
G1 X31.120 Y37.032 E473.60044
G1 X31.264 Y36.474 E473.61876
G1 X31.264 Y35.897 E473.63711
G1 X31.120 Y35.338 E473.65546
G1 X30.843 Y34.832 E473.67380
G0 F10500 X31.028 Y34.732
;TYPE:SKIN
G1 F480 X37.534 Y28.226 E473.96633
G0 F10500 X37.087 Y27.824
G1 F480 X30.622 Y34.289 E474.25701
G0 F10500 X30.114 Y33.949
G1 F480 X36.744 Y27.319 E474.55511
G0 F10500 X36.527 Y26.687
G1 F480 X29.487 Y33.727 E474.87164
G0 F10500 X28.661 Y33.705
G1 F480 X36.505 Y25.861 E475.22433
G0 F10500 X36.319 Y25.837
G0 X36.936 Y24.266
G0 X38.114 Y23.518
G0 X38.625 Y23.520
G0 X38.660 Y23.706
G1 F480 X40.121 Y22.244 E475.29004
G0 F10500 X40.882 Y22.333
G1 F480 X39.486 Y23.728 E475.35278
G0 F10500 X39.546 Y23.547
G0 X39.315 Y22.393
G0 X39.315 Y22.202
G1 F480 X25.004 Y36.514 E475.99626
G0 F10500 X25.040 Y37.326
G1 F480 X26.505 Y35.860 E476.06215
G0 F10500 X26.528 Y36.686
G1 F480 X25.129 Y38.085 E476.12506
G0 F10500 X25.249 Y38.814
G1 F480 X26.745 Y37.318 E476.19232
G0 F10500 X27.087 Y37.824
G1 F480 X25.399 Y39.512 E476.26822
G0 F10500 X25.578 Y40.182
G1 F480 X27.534 Y38.226 E476.35616
G0 F10500 X28.087 Y38.521
G1 F480 X25.784 Y40.824 E476.45971
G0 F10500 X26.024 Y41.433
G1 F480 X28.774 Y38.683 E476.58336
G0 F10500 X29.748 Y38.557
G1 F480 X26.278 Y42.028 E476.73940
G0 F10500 X26.553 Y42.601
G1 F480 X45.394 Y23.760 E477.58653
G0 F10500 X45.945 Y24.057
G1 F480 X26.858 Y43.144 E478.44473
G0 F10500 X27.176 Y43.675
G1 F480 X36.471 Y34.380 E478.86265
G0 F10500 X37.229 Y33.622
G1 F480 X46.471 Y24.381 E479.27817
G0 F10500 X46.983 Y24.716
G1 F480 X38.586 Y33.114 E479.65574
G0 F10500 X39.431 Y33.118
G1 F480 X47.475 Y25.074 E480.01742
G0 F10500 X47.944 Y25.453
G1 F480 X40.097 Y33.300 E480.37024
G0 F10500 X40.656 Y33.589
G1 F480 X48.395 Y25.851 E480.71818
G0 F10500 X48.834 Y26.260
G1 F480 X41.131 Y33.963 E481.06452
G0 F10500 X41.530 Y34.412
G1 F480 X49.258 Y26.684 E481.41199
G0 F10500 X49.682 Y27.109
G1 F480 X41.831 Y34.960 E481.76499
G0 F10500 X42.023 Y35.616
G1 F480 X50.107 Y27.533 E482.12844
G0 F10500 X50.531 Y27.957
G1 F480 X42.068 Y36.420 E482.50896
G0 F10500 X41.715 Y37.622
G1 F480 X50.955 Y28.381 E482.92443
G0 F10500 X51.379 Y28.806
G1 F480 X31.597 Y48.588 E483.81388
G0 F10500 X32.022 Y49.012
G1 F480 X51.804 Y29.230 E484.70332
G0 F10500 X52.228 Y29.654
G1 F480 X32.446 Y49.436 E485.59276
G0 F10500 X32.870 Y49.860
G1 F480 X52.653 Y30.078 E486.48223
G0 F10500 X53.077 Y30.502
G1 F480 X33.294 Y50.285 E487.37172
G0 F10500 X33.719 Y50.709
G1 F480 X53.501 Y30.926 E488.26119
G0 F10500 X53.926 Y31.350
G1 F480 X34.143 Y51.133 E489.15068
G0 F10500 X34.567 Y51.557
G1 F480 X54.350 Y31.775 E490.04014
G0 F10500 X54.774 Y32.199
G1 F480 X34.991 Y51.982 E490.92963
G0 F10500 X35.416 Y52.406
G1 F480 X55.198 Y32.623 E491.81910
G0 F10500 X55.623 Y33.048
G1 F480 X35.840 Y52.830 E492.70856
G0 F10500 X36.264 Y53.255
G1 F480 X56.048 Y33.471 E493.59810
G0 F10500 X56.472 Y33.895
G1 F480 X36.688 Y53.679 E494.48763
G0 F10500 X37.113 Y54.103
G1 F480 X56.896 Y34.320 E495.37712
G0 F10500 X57.320 Y34.744
G1 F480 X37.537 Y54.527 E496.26661
G0 F10500 X37.961 Y54.952
G1 F480 X57.745 Y35.168 E497.15614
G0 F10500 X58.169 Y35.592
G1 F480 X38.385 Y55.376 E498.04568
G0 F10500 X38.810 Y55.800
G1 F480 X58.593 Y36.017 E498.93517
G0 F10500 X59.017 Y36.441
G1 F480 X39.234 Y56.224 E499.82466
G0 F10500 X39.658 Y56.649
G1 F480 X59.442 Y36.865 E500.71419
G0 F10500 X59.867 Y37.289
G1 F480 X40.083 Y57.073 E501.60372
G0 F10500 X40.507 Y57.497
G1 F480 X60.291 Y37.713 E502.49326
G0 F10500 X60.715 Y38.137
G1 F480 X40.931 Y57.921 E503.38279
G0 F10500 X41.355 Y58.346
G1 F480 X61.139 Y38.562 E504.27233
G0 F10500 X61.564 Y38.986
G1 F480 X41.780 Y58.770 E505.16186
G0 F10500 X42.204 Y59.194
G1 F480 X61.988 Y39.410 E506.05139
G0 F10500 X62.412 Y39.834
G1 F480 X42.628 Y59.619 E506.94095
G0 F10500 X42.763 Y59.486
G0 X31.306 Y48.029
G0 X31.173 Y48.163
G1 F480 X40.381 Y38.955 E507.35496
G0 F10500 X40.481 Y39.116
G0 X41.734 Y38.185
G0 X42.357 Y36.612
G0 X41.829 Y34.354
G0 X41.541 Y26.997
G0 X41.357 Y26.948
G1 F480 X44.821 Y23.485 E507.51069
G0 F10500 X44.233 Y23.224
G1 F480 X41.473 Y25.984 E507.63479
G0 F10500 X41.323 Y25.286
G1 F480 X43.618 Y22.990 E507.73800
G0 F10500 X42.975 Y22.785
G1 F480 X41.028 Y24.732 E507.82554
G0 F10500 X40.622 Y24.289
G1 F480 X42.306 Y22.606 E507.90123
G0 F10500 X41.611 Y22.452
G1 F480 X40.113 Y23.950 E507.96859
G0 F10500 X40.214 Y23.791
G0 X38.459 Y22.401
G0 X38.459 Y22.210
G1 F480 X25.010 Y35.659 E508.57328
G0 F10500 X25.066 Y34.754
