;Generated by Cura LulzBot Edition GCodeWriter Version: 3.2.26
;FLAVOR:RepRap
;TIME:7401
;Filament used: 5.33521m
;Layer height: 0.39
;Generated with Cura_SteamEngine 3.2.26
T0
M82 ;absolute extrusion mode
;This G-Code has been generated specifically for the LulzBot Mini 2
M75 					; Start GLCD Print Timer
G26 					; clear potential 'probe fail' condition
G21 					; set units to Millimetres
M107 					; disable fans
G90 					; absolute positioning
M82 					; set extruder to absolute mode
G92 E0 					; set extruder position to 0
M140 S115 	; start bed heating up
G28                       ; Home Axis
G0 X160 F9999             ; Move toolhead to the right
G0 Z5 F6000               ; Move to bottom of printer
G91                       ; Set relative motion mode
M211 S0		  	  ; Turn off soft endstops
M400                      ; Finish moves
G0 Z-15 F500              ; Skip steppers against lower Z mounts
G90                       ; Return to absolute mode
M400                      ; Finish moves
M211 S1			  ; Turn soft endstops back on
M400                      ; Finish moves
G28                       ; Rehome
M117 X-Axis Leveled
G0 X0 Y187 Z156 F200 			; move away from endstops
M117 Mini 2 Wiping...			; progress indicator message on LCD
M109 R170 	; soften filament before retraction
G1 E-15 F75 				; retract filament
M109 R170 	; wait for extruder to reach wiping temp
G1 X45 Y176 F11520 			; move above wiper pad
G1 Z0 F1200 				; push nozzle into wiper
G1 X45 Y178 Z-.5 F4000		; wiping
G1 X55 Y176 Z-.5 F4000		; wiping
G1 X45 Y177 Z0 F4000		; wiping
G1 X55 Y176 F4000		; wiping
G1 X45 Y178 F4000		; wiping
G1 X55 Y176 F4000		; wiping
G1 X45 Y178 F4000		; wiping
G1 X55 Y176 F4000		; wiping
G1 X60 Y178 F4000		; wiping
G1 X80 Y176 F4000		; wiping
G1 X60 Y178 F4000		; wiping
G1 X80 Y176 F4000		; wiping
G1 X60 Y178 F4000		; wiping
G1 X90 Y176 F4000		; wiping
G1 X80 Y178 F4000		; wiping
G1 X100 Y176 F4000		; wiping
G1 X80 Y178 F4000		; wiping
G1 X100 Y176 F4000		; wiping
G1 X80 Y178 F4000		; wiping
G1 X100 Y176 F4000		; wiping
G1 X110 Y178 F4000		; wiping
G1 X100 Y176 F4000		; wiping
G1 X110 Y178 F4000		; wiping
G1 X100 Y176 F4000		; wiping
G1 X110 Y178 F4000		; wiping
G1 X115 Y176 Z-0.5 F1000	; wiping
G1 Z10					; raise extruder
G28 X0 Y0				; home X and Y
M109 R170	; wait for extruder to reach probe temp
M204 S300				; set probing acceleration
G29					; start auto-leveling sequence
M425 Z			     		; use measured Z backlash for compensation
M425 Z F0		     		; turn off measured Z backlash compensation. (if activated in the quality settings, this command will automatically be ignored)
M204 S2000				; restore standard acceleration
G1 X5 Y15 Z10 F5000			; move up off last probe point
G4 S1					; pause
M400					; wait for moves to finish
M117 Heating...				; progress indicator message on LCD
M109 R245	; wait for extruder to reach initial printing temp
M190 S116 ; wait for bed to reach printing temp
G1 Z2 E0 F75				; prime tiny bit of filment into the nozzle
M117 Mini 2 Printing...		; progress indicator message on LCD
M221 S100

M92 X100.6
M92 Y100.6

;Layer count: 102
;LAYER:0
M107
G0 F2625 X52.309 Y48.615 Z0.425
;TYPE:SKIRT
G1 F600 E0
G1 F900 X53.212 Y47.719 E0.04237
G1 X53.758 Y47.228 E0.06683
G1 X55.28 Y45.909 E0.13392
G1 X56.267 Y45.106 E0.17631
G1 X56.913 Y44.634 E0.20296
G1 X58.608 Y43.445 E0.27192
G1 X60.049 Y42.522 E0.32893
G1 X61.157 Y41.877 E0.37163
G1 X62.516 Y41.154 E0.42291
G1 X64.126 Y40.374 E0.4825
G1 X65.565 Y39.745 E0.53481
G1 X66.764 Y39.275 E0.57771
G1 X68.336 Y38.732 E0.63311
G1 X70.273 Y38.151 E0.70047
G1 X71.503 Y37.824 E0.74287
G1 X72.131 Y37.688 E0.76427
G1 X73.826 Y37.35 E0.82184
G1 X75.701 Y37.067 E0.88501
G1 X77.72 Y36.858 E0.95262
G1 X78.989 Y36.766 E0.995
G1 X80.053 Y36.752 E1.03045
G1 X82.664 Y36.784 E1.11743
G1 X83.936 Y36.839 E1.15984
G1 X84.994 Y36.947 E1.19526
G1 X86.973 Y37.201 E1.26173
G1 X88.629 Y37.484 E1.31769
G1 X89.873 Y37.75 E1.36006
G1 X91.488 Y38.165 E1.41561
G1 X93.457 Y38.759 E1.48411
G1 X94.663 Y39.165 E1.5265
G1 X95.416 Y39.462 E1.55347
G1 X97.285 Y40.243 E1.62094
G1 X98.443 Y40.77 E1.66332
G1 X99.124 Y41.123 E1.68887
G1 X100.916 Y42.094 E1.75676
G1 X102.016 Y42.735 E1.79917
G1 X102.714 Y43.192 E1.82696
G1 X104.435 Y44.371 E1.89645
G1 X105.461 Y45.123 E1.93882
G1 X106.057 Y45.607 E1.9644
G1 X107.583 Y46.896 E2.03094
G1 X108.529 Y47.748 E2.07335
G1 X109.1 Y48.317 E2.1002
G1 X110.518 Y49.789 E2.16828
G1 X111.372 Y50.733 E2.21068
G1 X111.871 Y51.345 E2.23699
G1 X113.126 Y52.946 E2.30475
G1 X113.879 Y53.972 E2.34714
G1 X114.312 Y54.629 E2.37335
G1 X115.408 Y56.365 E2.44174
G1 X116.053 Y57.462 E2.48413
G1 X116.419 Y58.163 E2.51047
G1 X117.313 Y59.962 E2.57739
G1 X118.077 Y61.699 E2.6406
G1 X118.706 Y63.333 E2.69892
G1 X119.126 Y64.535 E2.74133
G1 X119.308 Y65.146 E2.76257
G1 X119.848 Y67.074 E2.82926
G1 X120.152 Y68.31 E2.87166
G1 X120.301 Y69.078 E2.89772
G1 X120.654 Y71.115 E2.96659
G1 X120.831 Y72.375 E3.00897
G1 X120.902 Y73.167 E3.03546
G1 X121.044 Y75.207 E3.10357
G1 X121.093 Y76.479 E3.14598
G1 X121.082 Y77.294 E3.17313
G1 X121.013 Y79.345 E3.24148
G1 X120.93 Y80.615 E3.28388
G1 X120.838 Y81.4 E3.31021
G1 X120.564 Y83.409 E3.37775
G1 X120.267 Y85.071 E3.43399
G1 X119.994 Y86.298 E3.47586
G1 X119.611 Y87.757 E3.5261
G1 X119.107 Y89.425 E3.58415
G1 X118.701 Y90.631 E3.62653
G1 X118.458 Y91.254 E3.64881
G1 X117.658 Y93.204 E3.71902
G1 X117.138 Y94.366 E3.76142
G1 X116.524 Y95.531 E3.80529
G1 X115.042 Y98.136 E3.90512
G1 X114.378 Y99.222 E3.94752
G1 X113.645 Y100.268 E3.99007
G1 X112.424 Y101.897 E4.05788
G1 X111.629 Y102.891 E4.10028
G1 X111.101 Y103.486 E4.12678
G1 X109.713 Y104.99 E4.19495
G1 X108.821 Y105.897 E4.23733
G1 X108.253 Y106.42 E4.26305
G1 X106.756 Y107.745 E4.32964
G1 X105.777 Y108.558 E4.37203
G1 X105.147 Y109.029 E4.39823
G1 X103.483 Y110.224 E4.46647
G1 X102.427 Y110.933 E4.50884
G1 X101.735 Y111.348 E4.53572
G1 X99.954 Y112.368 E4.60408
G1 X98.83 Y112.966 E4.64649
G1 X98.146 Y113.287 E4.67166
G1 X96.334 Y114.096 E4.73776
G1 X94.768 Y114.718 E4.79389
G1 X93.551 Y115.144 E4.83684
G1 X91.957 Y115.629 E4.89234
G1 X89.988 Y116.141 E4.96011
G1 X88.747 Y116.423 E5.0025
G1 X88.079 Y116.541 E5.0251
G1 X86.303 Y116.824 E5.085
G1 X85.04 Y116.984 E5.12741
G1 X84.38 Y117.037 E5.14947
G1 X82.317 Y117.166 E5.21832
G1 X81.045 Y117.205 E5.26071
G1 X80.245 Y117.189 E5.28737
G1 X78.242 Y117.109 E5.35414
G1 X76.972 Y117.018 E5.39655
G1 X76.213 Y116.925 E5.42202
G1 X74.22 Y116.643 E5.48907
G1 X72.56 Y116.337 E5.5453
G1 X71.3 Y116.05 E5.58835
G1 X69.667 Y115.606 E5.64472
G1 X67.693 Y114.979 E5.71371
G1 X66.493 Y114.556 E5.75609
G1 X65.765 Y114.257 E5.78231
G1 X63.939 Y113.465 E5.84861
G1 X62.788 Y112.922 E5.891
G1 X62.096 Y112.552 E5.91714
G1 X60.294 Y111.542 E5.98595
G1 X59.204 Y110.885 E6.02834
G1 X58.542 Y110.438 E6.05495
G1 X56.865 Y109.258 E6.12325
G1 X55.848 Y108.493 E6.16565
G1 X55.254 Y107.999 E6.19138
G1 X53.76 Y106.704 E6.25724
G1 X52.826 Y105.84 E6.29962
G1 X52.287 Y105.29 E6.32527
G1 X50.897 Y103.815 E6.39278
G1 X50.053 Y102.862 E6.43519
G1 X49.562 Y102.246 E6.46143
G1 X48.321 Y100.627 E6.52938
G1 X47.579 Y99.593 E6.57177
G1 X47.157 Y98.937 E6.59776
G1 X46.079 Y97.189 E6.66616
G1 X45.445 Y96.086 E6.70854
G1 X45.072 Y95.349 E6.73606
G1 X44.188 Y93.514 E6.8039
G1 X43.672 Y92.35 E6.84632
G1 X43.395 Y91.63 E6.87201
G1 X42.7 Y89.714 E6.93991
G1 X42.304 Y88.505 E6.98228
G1 X42.096 Y87.741 E7.00866
G1 X41.6 Y85.766 E7.07649
G1 X41.329 Y84.523 E7.11887
G1 X41.218 Y83.862 E7.14119
G1 X40.952 Y82.103 E7.20045
G1 X40.801 Y80.839 E7.24286
G1 X40.755 Y80.192 E7.26446
G1 X40.643 Y78.164 E7.33212
G1 X40.613 Y76.891 E7.37453
G1 X40.633 Y76.118 E7.40029
G1 X40.726 Y74.092 E7.46785
G1 X40.825 Y72.824 E7.51022
G1 X40.948 Y71.895 E7.54143
G1 X41.302 Y69.629 E7.61783
G1 X41.538 Y68.379 E7.6602
G1 X41.711 Y67.656 E7.68496
G1 X42.139 Y66.011 E7.74158
G1 X42.498 Y64.79 E7.78398
G1 X42.71 Y64.18 E7.80549
G1 X43.426 Y62.214 E7.87519
G1 X43.898 Y61.033 E7.91755
G1 X44.229 Y60.315 E7.94389
G1 X45.087 Y58.544 E8.00944
G1 X45.678 Y57.417 E8.05183
G1 X46.068 Y56.756 E8.07739
G1 X47.148 Y55.002 E8.14601
G1 X47.849 Y53.939 E8.18842
G1 X48.334 Y53.281 E8.21565
G1 X49.598 Y51.636 E8.28475
G1 X50.405 Y50.652 E8.32714
G1 X50.944 Y50.058 E8.35386
G1 X52.309 Y48.615 E8.42003
G1 F600 E7.42003
;skirt ends here
G92 E38.09953
G1 Z0.625
G0 F9000 X61.972 Y68.002
;TYPE:WALL-INNER
G1 Z0.425
G1 F420 E40.09953
G1 F1200 X61.181 Y67.490 E40.13876
G1 X60.456 Y66.876 E40.17832
G1 X59.789 Y66.143 E40.21958
G1 X59.323 Y65.474 E40.25353
G1 X57.538 Y58.810 E40.54079
G1 X57.706 Y58.765 E40.54803
G1 X58.929 Y58.066 E40.60668
G1 X59.913 Y57.058 E40.66534
G1 X60.583 Y55.821 E40.72391
G1 X60.890 Y54.447 E40.78254
G1 X60.809 Y53.042 E40.84113
G1 X60.374 Y51.788 E40.89640
G1 X60.307 Y51.653 E40.90268
G1 X59.541 Y50.559 E40.95828
G1 X58.993 Y50.113 E40.98770
G1 X59.205 Y49.504 E41.01455
G1 X59.484 Y48.992 E41.03883
G1 X59.830 Y48.535 E41.06270
G1 X60.247 Y48.123 E41.08711
G1 X60.707 Y47.789 E41.11078
G1 X60.899 Y47.687 E41.11983
G1 X63.563 Y57.627 E41.54832
G1 X63.704 Y57.747 E41.55603
G1 X59.739 Y58.811 E41.72696
G1 X61.767 Y66.382 E42.05332
G1 X62.061 Y67.490 E42.10105
G1 X66.022 Y66.428 E42.27180
G1 X65.961 Y66.578 E42.27854
G1 X66.577 Y68.876 E42.37760
G1 X65.609 Y68.944 E42.41801
G1 X64.683 Y68.889 E42.45663
G1 X63.736 Y68.709 E42.49677
G1 X62.841 Y68.416 E42.53598
G1 X61.972 Y68.002 E42.57606
G0 F9000 X61.662 Y68.546
;TYPE:WALL-OUTER
G1 F1200 X60.810 Y67.995 E42.61831
G1 X60.021 Y67.327 E42.66136
G1 X59.304 Y66.539 E42.70572
G1 X58.747 Y65.739 E42.74631
G1 X56.772 Y58.368 E43.06405
G1 X57.467 Y58.182 E43.09400
G1 X58.543 Y57.567 E43.14561
G1 X59.405 Y56.684 E43.19699
G1 X59.992 Y55.599 E43.24835
G1 X60.261 Y54.396 E43.29968
G1 X60.190 Y53.165 E43.35102
G1 X59.797 Y52.031 E43.40099
G1 X59.769 Y51.974 E43.40364
G1 X59.079 Y50.988 E43.45375
G1 X58.303 Y50.357 E43.49539
G1 X58.405 Y49.870 E43.51611
G1 X58.637 Y49.240 E43.54406
G1 X58.955 Y48.655 E43.57179
G1 X59.361 Y48.119 E43.59979
G1 X59.841 Y47.645 E43.62787
G1 X60.380 Y47.254 E43.65560
G1 X60.967 Y46.945 E43.68322
G1 X61.313 Y46.824 E43.69848
G1 X64.116 Y57.277 E44.14910
G1 X64.713 Y57.784 E44.18171
G1 X64.631 Y57.807 E44.18526
G1 X64.511 Y57.893 E44.19141
G1 X64.451 Y57.976 E44.19567
G1 X64.396 Y58.099 E44.20128
G1 X64.393 Y58.210 E44.20591
G1 X60.505 Y59.252 E44.37351
G1 X62.505 Y66.724 E44.69558
G1 X66.392 Y65.682 E44.86314
G1 X66.461 Y65.783 E44.86823
G1 X66.595 Y65.875 E44.87500
G1 X66.723 Y65.913 E44.88056
G1 X66.832 Y65.904 E44.88511
G1 X66.891 Y65.888 E44.88766
G1 X66.777 Y66.235 E44.90287
G1 X66.619 Y66.620 E44.92020
G1 X67.354 Y69.358 E45.03824
G1 X66.657 Y69.498 E45.06784
G1 X65.613 Y69.570 E45.11141
G1 X64.606 Y69.511 E45.15341
G1 X63.579 Y69.315 E45.19695
G1 X62.610 Y68.998 E45.23940
G1 X61.662 Y68.546 E45.28313
G0 F9000 X61.775 Y67.521
;TYPE:SKIN
G1 F1200 X59.527 Y65.273 E45.41550
G0 F9000 X59.203 Y64.065
G1 F1200 X61.501 Y66.363 E45.55082
G0 F9000 X61.178 Y65.156
G1 F1200 X58.880 Y62.858 E45.68614
G0 F9000 X58.557 Y61.651
G1 F1200 X60.855 Y63.949 E45.82145
G0 F9000 X60.531 Y62.742
G1 F1200 X58.234 Y60.444 E45.95674
G0 F9000 X59.885 Y60.328
G1 F1200 X58.281 Y58.723 E46.05122
G0 F9000 X57.911 Y59.237
G1 F1200 X60.208 Y61.535 E46.18651
G0 F9000 X62.182 Y67.281
G0 X62.711 Y67.573
G1 F1200 X63.508 Y68.370 E46.23344
G0 F9000 X63.408 Y67.386
G1 F1200 X64.648 Y68.626 E46.30646
G0 F9000 X65.598 Y68.692
G1 F1200 X64.105 Y67.199 E46.39438
G0 F9000 X64.802 Y67.013
G1 F1200 X66.192 Y68.402 E46.47620
G0 F9000 X65.868 Y67.194
G1 F1200 X65.499 Y66.825 E46.49792
G0 F9000 X62.182 Y67.281
G0 X59.949 Y58.931
G0 X62.635 Y57.774
G1 F1200 X60.801 Y55.940 E46.60592
G0 F9000 X60.490 Y56.513
G1 F1200 X61.938 Y57.961 E46.69118
G0 F9000 X61.241 Y58.148
G1 F1200 X60.179 Y57.086 E46.75372
G0 F9000 X59.770 Y57.561
G1 F1200 X60.544 Y58.335 E46.79930
G0 F9000 X63.278 Y57.534
G1 F1200 X60.970 Y55.225 E46.93523
G0 F9000 X61.131 Y54.503
G1 F1200 X62.955 Y56.327 E47.04264
G0 F9000 X62.631 Y55.119
G1 F1200 X61.089 Y53.576 E47.13347
G0 F9000 X60.878 Y52.482
G1 F1200 X62.308 Y53.912 E47.21768
G0 F9000 X61.984 Y52.704
G1 F1200 X59.861 Y50.581 E47.34269
G0 F9000 X59.411 Y50.131
G1 F1200 X59.291 Y50.011 E47.34975
G0 F9000 X59.551 Y49.387
G1 F1200 X61.661 Y51.497 E47.47400
G0 F9000 X61.338 Y50.290
G1 F1200 X59.901 Y48.853 E47.55862
G0 F9000 X60.775 Y54.437
G0 X59.820 Y56.989
G0 X59.333 Y58.008
G1 F1200 X59.704 Y58.821 E47.58886
G1 X58.843 Y58.402 E47.62873
G0 F9000 X60.475 Y55.780
G0 X60.696 Y53.065
G0 X61.014 Y49.083
G1 F1200 X60.327 Y48.395 E47.66922
G1 F420 E45.66922
G1 Z0.625
G0 F9000 X77.043 Y54.645
;TYPE:WALL-INNER
G1 Z0.425
G1 F420 E47.66922
G1 F1200 X80.492 Y48.671 E47.95644
G1 X80.643 Y48.758 E47.96370
G1 X82.002 Y49.130 E48.02236
G1 X83.410 Y49.112 E48.08100
G1 X84.759 Y48.711 E48.13959
G1 X85.947 Y47.956 E48.19820
G1 X86.884 Y46.906 E48.25680
G1 X87.431 Y45.777 E48.30904
G1 X87.497 Y45.645 E48.31518
G1 X87.742 Y44.254 E48.37399
G1 X87.670 Y43.551 E48.40342
G1 X87.734 Y43.509 E48.40660
G1 X88.252 Y43.270 E48.43036
G1 X88.809 Y43.106 E48.45453
G1 X89.388 Y43.026 E48.47887
G1 X89.963 Y43.030 E48.50281
G1 X90.527 Y43.119 E48.52659
G1 X90.735 Y43.184 E48.53566
G1 X85.579 Y52.111 E48.96491
G1 X85.599 Y52.278 E48.97191
G1 X82.048 Y50.228 E49.14264
G1 X78.128 Y57.020 E49.46916
G1 X77.560 Y58.012 E49.51676
G1 X81.104 Y60.058 E49.68715
G1 X80.955 Y60.121 E49.69389
G1 X79.765 Y62.182 E49.79298
G1 X79.047 Y61.557 E49.83262
G1 X78.415 Y60.847 E49.87220
G1 X77.876 Y60.054 E49.91212
G1 X77.450 Y59.214 E49.95134
G1 X77.128 Y58.305 E49.99149
G1 X76.932 Y57.389 E50.03049
G1 X76.852 Y56.429 E50.07060
G1 X76.900 Y55.455 E50.11121
G1 X77.043 Y54.645 E50.14546
G0 F9000 X76.278 Y55.379
;TYPE:WALL-OUTER
G1 F1200 X76.446 Y54.430 E50.18559
G1 X80.263 Y47.817 E50.50351
G1 X80.886 Y48.176 E50.53345
G1 X82.082 Y48.504 E50.58509
G1 X83.315 Y48.488 E50.63643
G1 X84.498 Y48.137 E50.68781
G1 X85.539 Y47.475 E50.73918
G1 X86.360 Y46.555 E50.79052
G1 X86.872 Y45.498 E50.83943
G1 X86.897 Y45.447 E50.84179
G1 X87.112 Y44.230 E50.89325
G1 X87.010 Y43.236 E50.93485
G1 X87.434 Y42.959 E50.95594
G1 X88.032 Y42.683 E50.98337
G1 X88.674 Y42.494 E51.01123
G1 X89.347 Y42.400 E51.03953
G1 X90.018 Y42.406 E51.06747
G1 X90.668 Y42.508 E51.09486
G1 X91.311 Y42.708 E51.12290
G1 X91.637 Y42.866 E51.13799
G1 X86.225 Y52.244 E51.58882
G1 X86.296 Y53.023 E51.62139
G1 X86.210 Y52.974 E51.62552
G1 X86.020 Y52.953 E51.63347
G1 X85.850 Y53.015 E51.64101
G1 X85.763 Y53.094 E51.64590
G1 X82.277 Y51.082 E51.81349
G1 X78.669 Y57.332 E52.11398
G1 X78.412 Y57.782 E52.13556
G1 X81.893 Y59.792 E52.30293
G1 X81.870 Y59.913 E52.30806
G1 X81.901 Y60.075 E52.31492
G1 X81.967 Y60.192 E52.32052
G1 X82.101 Y60.290 E52.32743
G1 X81.391 Y60.616 E52.35996
G1 X79.973 Y63.071 E52.47801
G1 X79.381 Y62.676 E52.50764
G1 X78.605 Y62.001 E52.55046
G1 X77.921 Y61.232 E52.59332
G1 X77.340 Y60.377 E52.63636
G1 X76.874 Y59.459 E52.67923
G1 X76.526 Y58.476 E52.72265
G1 X76.313 Y57.479 E52.76510
G1 X76.226 Y56.439 E52.80855
G1 X76.278 Y55.379 E52.85274
G0 F9000 X77.146 Y55.492
;TYPE:SKIN
G1 F1200 X78.147 Y56.492 E52.91165
G0 F9000 X78.470 Y55.932
G1 F1200 X77.278 Y54.739 E52.98187
G0 F9000 X77.600 Y54.177
G1 F1200 X78.793 Y55.371 E53.05215
G0 F9000 X79.117 Y54.811
G1 F1200 X77.923 Y53.617 E53.12246
G0 F9000 X78.247 Y53.057
G1 F1200 X79.440 Y54.250 E53.19271
G0 F9000 X79.763 Y53.689
G1 F1200 X78.570 Y52.497 E53.26293
G0 F9000 X78.894 Y51.936
G1 F1200 X80.086 Y53.129 E53.33315
G0 F9000 X80.410 Y52.568
G1 F1200 X79.217 Y51.376 E53.40337
G0 F9000 X79.541 Y50.815
G1 F1200 X80.733 Y52.007 E53.47356
G0 F9000 X81.056 Y51.446
G1 F1200 X79.864 Y50.255 E53.54372
G0 F9000 X77.106 Y56.335
G1 F1200 X77.662 Y57.333 E53.58597
G1 X77.174 Y57.287 E53.60637
G0 F9000 X77.438 Y58.436
G1 F1200 X80.101 Y61.098 E53.76316
G0 F9000 X80.424 Y60.538
G1 F1200 X79.045 Y59.158 E53.84439
G0 F9000 X78.184 Y60.065
G1 F1200 X79.777 Y61.659 E53.93822
G0 F9000 X77.792 Y57.949
G0 X81.380 Y50.886
G1 F1200 X80.188 Y49.694 E54.00841
G0 F9000 X80.511 Y49.134
G1 F1200 X81.703 Y50.326 E54.07860
