; generated by Slic3r 1.1.7 on 2016-01-19 at 12:04:07

; perimeters extrusion width = 0.50mm
; infill extrusion width = 0.60mm
; solid infill extrusion width = 0.60mm
; top infill extrusion width = 0.43mm

G21 ; set units to millimeters
G21                                      ; metric values
G90                                      ; absolute positioning
M82                                      ; set extruder to absolute mode
M107                                    ; start with the fan off
G92 E0                                 ; set extruder position to 0
M140 S110                           ; get bed heating up
G28                                      ; home all
M109 S150                           ; set to cleaning temp and wait
G1 Z150 E-30 F75                ; suck up XXmm of filament
M109 S170                           ; heat up rest of way
G1 X45 Y174 F11520           ; move behind scraper
G1 Z0  F1200                       ; CRITICAL: set Z to height of top of scraper
G1 X45 Y174 Z-.5 F4000      ; wiping ; plunge into wipe pad
G1 X55 Y172 Z-.5 F4000      ; wiping
G1 X45 Y174 Z0 F4000        ; wiping
G1 X55 Y172 F4000             ; wiping
G1 X45 Y174 F4000             ; wiping
G1 X55 Y172 F4000             ; wiping
G1 X45 Y174 F4000             ; wiping
G1 X55 Y172 F4000             ; wiping
G1 X60 Y174 F4000             ; wiping
G1 X80 Y172 F4000             ; wiping
G1 X60 Y174 F4000             ; wiping
G1 X80 Y172 F4000             ; wiping
G1 X60 Y174 F4000             ; wiping
G1 X90 Y172 F4000             ; wiping
G1 X80 Y174 F4000             ; wiping
G1 X100 Y172 F4000           ; wiping
G1 X80 Y174 F4000             ; wiping
G1 X100 Y172 F4000           ; wiping
G1 X80 Y174 F4000             ; wiping
G1 X100 Y172 F4000           ; wiping
G1 X110 Y174 F4000           ; wiping
G1 X100 Y172 F4000           ; wiping
G1 X110 Y174 F4000           ; wiping
G1 X100 Y172 F4000           ; wiping
G1 X110 Y174 F4000           ; wiping
G1 X115 Y172 Z-0.5 F1000  ; wipe slower and bury noz in cleanish area
G1 Z10                                 ; raise z
G28 X0 Y0                            ; home x and y
M109 S170                           ; set to probing temp
M204 S300                           ; set accel for probing
G29                                      ; Probe
M204 S2000                         ; set accel back to normal
G1 X5 Y15 Z10 F5000          ; get out the way
M400                                    ; clear buffer
G4 S1                                   ; pause
M109 S245                           ; set extruder temp and wait
G4 S25                                 ; wait for bed to temp up
G1 Z2 E0 F75                       ; extrude filament back into nozzle
M140 S105                           ; get bed temping up during first layer
G90 ; use absolute coordinates
G92 E0
M82 ; use absolute distances for extrusion
M204 S2000
G1 F600.000 E-1.00000
G92 E0
G1 Z0.350 F10500.000
G1 X60.656 Y28.331 F10500.000
G1 E1.00000 F600.000
G1 X61.796 Y26.420 E1.07379 F1500.000
G1 X63.534 Y25.029 E1.14758
G1 X66.502 Y24.279 E1.24907
G1 X83.501 Y24.279 E1.81265
G1 X85.692 Y24.676 E1.88644
G1 X86.846 Y25.251 E1.92921 F1500.000
G1 X87.332 Y25.578 E1.94862
G1 X88.183 Y26.231 E1.98417
G1 X89.140 Y27.088 E2.02677
G1 X89.670 Y27.631 E2.05194
G1 X90.021 Y28.023 E2.06937
G1 X90.821 Y29.029 E2.11197
G1 X91.252 Y29.653 E2.13712
G1 X91.533 Y30.098 E2.15457
G1 X91.910 Y30.758 E2.17977
G1 X92.152 Y31.224 E2.19718
G1 X92.472 Y31.912 E2.22234
G1 X92.674 Y32.398 E2.23979
G1 X93.096 Y33.612 E2.28238
G1 X93.414 Y34.857 E2.32498
G1 X93.552 Y35.604 E2.35018
G1 X93.625 Y36.124 E2.36759
G1 X93.700 Y36.876 E2.39263
G1 X93.730 Y37.405 E2.41019
G1 X93.741 Y38.252 E2.43828
G1 X93.740 Y117.836 E5.07669
G1 X93.730 Y118.597 E5.10191
G1 X93.700 Y119.121 E5.11930
G1 X93.551 Y120.397 E5.16190
G1 X93.413 Y121.145 E5.18712
G1 X93.296 Y121.656 E5.20450
G1 X93.096 Y122.388 E5.22966
G1 X92.936 Y122.889 E5.24711
G1 X92.472 Y124.088 E5.28971
G1 X92.153 Y124.774 E5.31478
G1 X91.910 Y125.243 E5.33231
G1 X91.534 Y125.900 E5.35739
G1 X91.252 Y126.347 E5.37492
G1 X90.504 Y127.391 E5.41752
G1 X89.670 Y128.369 E5.46011
G1 X88.757 Y129.273 E5.50271
G1 X88.184 Y129.768 E5.52780
G1 X87.398 Y130.377 E5.56077
G1 X86.911 Y130.705 E5.58023
G1 X84.861 Y131.570 E5.65402
G1 X83.497 Y131.721 E5.69950
G1 X66.502 Y131.721 E6.26293
G1 X64.312 Y131.324 E6.33672
G1 X62.400 Y130.184 E6.41051
G1 X61.010 Y128.446 E6.48430
G1 X60.259 Y125.478 E6.58579
G1 X60.259 Y30.522 E9.73383
G1 X60.642 Y28.405 E9.80513
G1 X61.276 Y28.450 F10500.000
G1 X62.410 Y26.667 E9.87519 F1500.000
G1 X64.121 Y25.429 E9.94518
G1 X66.502 Y24.900 E10.02604
G1 X83.501 Y24.900 E10.58962
G1 X86.514 Y25.775 E10.69361
G1 X86.962 Y26.077 E10.71154 F1500.000
G1 X87.776 Y26.701 E10.74552
G1 X88.695 Y27.522 E10.78639
G1 X89.225 Y28.065 E10.81155
G1 X89.542 Y28.418 E10.82726
G1 X90.309 Y29.382 E10.86812
G1 X90.993 Y30.407 E10.90898
G1 X91.371 Y31.066 E10.93416
G1 X91.909 Y32.174 E10.97499
G1 X92.091 Y32.612 E10.99071
G1 X92.496 Y33.776 E11.03157
G1 X92.803 Y34.970 E11.07243
G1 X92.941 Y35.717 E11.09762
G1 X93.081 Y36.937 E11.13833
G1 X93.108 Y37.414 E11.15416
G1 X93.120 Y38.252 E11.18196
G1 X93.108 Y118.588 E13.84528
G1 X93.082 Y119.060 E13.86094
G1 X92.941 Y120.284 E13.90181
G1 X92.802 Y121.032 E13.92702
G1 X92.497 Y122.224 E13.96781
G1 X92.352 Y122.675 E13.98353
G1 X91.909 Y123.826 E14.02440
G1 X91.590 Y124.511 E14.04947
G1 X91.371 Y124.934 E14.06527
G1 X90.741 Y125.994 E14.10613
G1 X90.024 Y126.996 E14.14699
G1 X89.225 Y127.935 E14.18785
G1 X88.350 Y128.803 E14.22871
G1 X87.778 Y129.298 E14.25380
G1 X87.032 Y129.875 E14.28504
G1 X86.571 Y130.185 E14.30345
G1 X84.619 Y130.987 E14.37344
G1 X83.497 Y131.100 E14.41081
G1 X66.502 Y131.100 E14.97425
G1 X64.428 Y130.703 E15.04424
G1 X62.647 Y129.570 E15.11423
G1 X61.410 Y127.859 E15.18422
G1 X60.880 Y125.478 E15.26508
G1 X60.880 Y30.522 E18.41312
G1 X61.262 Y28.524 E18.48055
G1 F600.000 E17.48055
G92 E0
G1 X66.829 Y125.151 F10500.000
G1 E1.00000 F600.000
G1 X66.829 Y30.849 E4.12634 F1500.000
G1 X70.848 Y30.849 E4.25960
G1 X83.410 Y30.849 E4.67604
G1 X83.893 Y31.207 E4.69599
G1 X84.448 Y31.687 E4.72028
G1 X84.958 Y32.210 E4.74452
G1 X85.423 Y32.774 E4.76876
G1 X85.839 Y33.376 E4.79300
G1 X86.202 Y34.010 E4.81724
G1 X86.511 Y34.673 E4.84149
G1 X86.763 Y35.360 E4.86573
G1 X86.956 Y36.065 E4.88997
G1 X87.089 Y36.784 E4.91421
G1 X87.160 Y37.512 E4.93845
G1 X87.171 Y38.243 E4.96269
G1 X87.120 Y38.972 E4.98693
G1 X87.007 Y39.695 E5.01117
G1 X86.834 Y40.405 E5.03542
G1 X86.602 Y41.099 E5.05966
G1 X86.312 Y41.770 E5.08390
G1 X85.967 Y42.414 E5.10814
G1 X83.016 Y46.926 E5.28685
G1 X80.775 Y51.004 E5.44113
G1 X78.853 Y55.245 E5.59548
G1 X77.221 Y59.763 E5.75474
G1 X76.012 Y64.138 E5.90521
G1 X75.116 Y68.715 E6.05983
G1 X74.577 Y73.346 E6.21441
G1 X74.397 Y78.010 E6.36914
G1 X74.577 Y82.650 E6.52310
G1 X75.117 Y87.288 E6.67788
G1 X76.015 Y91.876 E6.83287
G1 X77.253 Y96.342 E6.98654
G1 X78.847 Y100.740 E7.14162
G1 X80.770 Y104.986 E7.29614
G1 X83.015 Y109.072 E7.45069
G1 X85.967 Y113.586 E7.62949
G1 X86.312 Y114.230 E7.65373
G1 X86.602 Y114.901 E7.67797
G1 X86.834 Y115.595 E7.70221
G1 X87.007 Y116.305 E7.72645
G1 X87.120 Y117.028 E7.75069
G1 X87.171 Y117.757 E7.77493
G1 X87.160 Y118.488 E7.79917
G1 X87.089 Y119.216 E7.82342
G1 X86.956 Y119.935 E7.84766
G1 X86.763 Y120.640 E7.87190
G1 X86.511 Y121.327 E7.89614
G1 X86.202 Y121.990 E7.92038
G1 X85.839 Y122.624 E7.94462
G1 X85.423 Y123.226 E7.96886
G1 X84.958 Y123.790 E7.99310
G1 X84.448 Y124.313 E8.01734
G1 X83.893 Y124.794 E8.04167
G1 X83.400 Y125.151 E8.06186
G1 X66.904 Y125.151 E8.60873
G1 X67.079 Y124.718 F10500.000
G1 X67.450 Y124.530 F10500.000
G1 X67.450 Y31.470 E11.69388 F1500.000
G1 X70.848 Y31.470 E11.80653
G1 X83.205 Y31.470 E12.21617
G1 X83.505 Y31.692 E12.22855
G1 X84.021 Y32.139 E12.25119
G1 X84.495 Y32.625 E12.27369
G1 X84.927 Y33.149 E12.29619
G1 X85.313 Y33.708 E12.31870
G1 X85.650 Y34.296 E12.34120
G1 X85.936 Y34.912 E12.36370
G1 X86.170 Y35.549 E12.38621
G1 X86.349 Y36.204 E12.40871
G1 X86.473 Y36.871 E12.43121
G1 X86.540 Y37.547 E12.45371
G1 X86.549 Y38.225 E12.47622
G1 X86.502 Y38.903 E12.49872
G1 X86.397 Y39.573 E12.52122
G1 X86.237 Y40.233 E12.54372
G1 X86.021 Y40.876 E12.56623
G1 X85.752 Y41.500 E12.58873
G1 X85.431 Y42.098 E12.61123
G1 X82.486 Y46.601 E12.78963
G1 X80.222 Y50.719 E12.94541
G1 X78.282 Y55.001 E13.10126
G1 X76.647 Y59.514 E13.26039
G1 X75.407 Y63.995 E13.41452
G1 X74.503 Y68.614 E13.57058
G1 X73.957 Y73.301 E13.72700
G1 X73.776 Y78.014 E13.88336
G1 X73.957 Y82.695 E14.03866
G1 X74.502 Y87.381 E14.19508
G1 X75.410 Y92.020 E14.35178
G1 X76.661 Y96.529 E14.50691
G1 X78.272 Y100.977 E14.66374
G1 X80.213 Y105.265 E14.81978
G1 X82.482 Y109.392 E14.97593
G1 X85.431 Y113.902 E15.15458
G1 X85.752 Y114.500 E15.17708
G1 X86.021 Y115.124 E15.19959
G1 X86.237 Y115.767 E15.22209
G1 X86.397 Y116.427 E15.24459
G1 X86.502 Y117.098 E15.26710
G1 X86.549 Y117.775 E15.28960
G1 X86.540 Y118.453 E15.31210
G1 X86.473 Y119.129 E15.33460
G1 X86.349 Y119.796 E15.35711
G1 X86.170 Y120.451 E15.37961
G1 X85.936 Y121.088 E15.40211
G1 X85.650 Y121.703 E15.42462
G1 X85.313 Y122.292 E15.44712
G1 X84.927 Y122.851 E15.46962
G1 X84.495 Y123.375 E15.49212
G1 X84.021 Y123.861 E15.51463
G1 X83.502 Y124.310 E15.53738
G1 X83.210 Y124.530 E15.54952
G1 X67.525 Y124.530 E16.06949
G1 X67.881 Y124.059 F10500.000
G1 X67.921 Y124.099 E16.07136 F1500.000
G1 X68.801 Y124.099 E16.10055
G1 X67.881 Y123.179 E16.14371
G1 X67.881 Y122.298 E16.17290
G1 X69.682 Y124.099 E16.25734
G1 X70.562 Y124.099 E16.28653
G1 X67.881 Y121.418 E16.41226
G1 X67.881 Y120.537 E16.44145
G1 X71.443 Y124.099 E16.60845
G1 X72.323 Y124.099 E16.63764
G1 X67.881 Y119.657 E16.84593
G1 X67.881 Y118.776 E16.87512
G1 X73.204 Y124.099 E17.12470
G1 X74.084 Y124.099 E17.15389
G1 X67.881 Y117.896 E17.44474
G1 X67.881 Y117.015 E17.47393
G1 X74.965 Y124.099 E17.80607
G1 X75.845 Y124.099 E17.83526
G1 X67.881 Y116.135 E18.20868
G1 X67.881 Y115.254 E18.23787
G1 X76.726 Y124.099 E18.65257
G1 X77.607 Y124.099 E18.68176
G1 X67.881 Y114.374 E19.13775
G1 X67.881 Y113.493 E19.16694
G1 X78.487 Y124.099 E19.66421
G1 X79.368 Y124.099 E19.69340
G1 X67.881 Y112.613 E20.23195
G1 X67.881 Y111.732 E20.26114
G1 X80.248 Y124.099 E20.84097
G1 X81.129 Y124.099 E20.87016
G1 X67.881 Y110.852 E21.49128
G1 X67.881 Y109.971 E21.52047
G1 X82.009 Y124.099 E22.18286
G1 X82.890 Y124.099 E22.21206
G1 X67.881 Y109.091 E22.91574
G1 X67.881 Y108.210 E22.94493
G1 X83.453 Y123.783 E23.67504
G1 X83.898 Y123.347 E23.69568
G1 X67.881 Y107.330 E24.44664
G1 X67.881 Y106.449 E24.47583
G1 X84.330 Y122.898 E25.24705
G1 X84.714 Y122.402 E25.26786
G1 X67.881 Y105.568 E26.05707
G1 X67.881 Y104.688 E26.08626
G1 X85.060 Y121.867 E26.89170
G1 X85.366 Y121.293 E26.91328
G1 X67.881 Y103.807 E27.73308
G1 X67.881 Y102.927 E27.76227
G1 X85.629 Y120.675 E28.59440
G1 X85.845 Y120.010 E28.61758
G1 X67.881 Y102.046 E29.45980
G1 X67.881 Y101.166 E29.48899
G1 X86.005 Y119.290 E30.33875
G1 X86.102 Y118.506 E30.36493
G1 X67.881 Y100.285 E31.21921
G1 X67.881 Y99.405 E31.24841
G1 X86.108 Y117.632 E32.10296
G1 X85.994 Y116.638 E32.13612
G1 X67.881 Y98.524 E32.98536
G1 X67.881 Y97.644 E33.01456
G1 X85.671 Y115.434 E33.84864
G1 F600.000 E32.84864
G92 E0
G1 X84.723 Y113.605 F10500.000
G1 E1.00000 F600.000
G1 X67.881 Y96.763 E1.78963 F1500.000
G1 X67.881 Y95.883 E1.81882
G1 X83.058 Y111.060 E2.53038
G1 F600.000 E1.53038
G92 E0
G1 X81.648 Y108.770 F10500.000
G1 E1.00000 F600.000
G1 X67.881 Y95.002 E1.64548 F1500.000
G1 X67.881 Y94.122 E1.67467
G1 X80.574 Y106.815 E2.26980
G1 F600.000 E1.26980
G92 E0
G1 X79.606 Y104.966 F10500.000
G1 E1.00000 F600.000
G1 X67.881 Y93.241 E1.54972 F1500.000
G1 X67.881 Y92.361 E1.57891
G1 X78.877 Y103.357 E2.09449
G1 X78.149 Y101.748 F10500.000
G1 X67.881 Y91.480 E2.57590 F1500.000
G1 X67.881 Y90.600 E2.60510
G1 X77.563 Y100.282 E3.05905
G1 X77.064 Y98.903 F10500.000
G1 X67.881 Y89.719 E3.48960 F1500.000
G1 X67.881 Y88.839 E3.51880
G1 X76.565 Y97.523 E3.92596
G1 X76.121 Y96.198 F10500.000
G1 X67.881 Y87.958 E4.31229 F1500.000
G1 X67.881 Y87.078 E4.34148
G1 X75.784 Y94.981 E4.71202
G1 X75.447 Y93.764 E4.75388
G1 X67.881 Y86.197 E5.10864
G1 X67.881 Y85.317 E5.13783
G1 X75.111 Y92.546 E5.47679
G1 X74.850 Y91.406 E5.51558
G1 X67.881 Y84.436 E5.84235
G1 X67.881 Y83.556 E5.87154
G1 X74.636 Y90.311 E6.18827
G1 X74.422 Y89.217 E6.22525
G1 X67.881 Y82.675 E6.53195
G1 X67.881 Y81.795 E6.56114
G1 X74.208 Y88.122 E6.85780
G1 X74.032 Y87.065 E6.89333
G1 X67.881 Y80.914 E7.18172
G1 X67.881 Y80.033 E7.21091
G1 X73.916 Y86.069 E7.49387
G1 X73.800 Y85.072 E7.52713
G1 X67.881 Y79.153 E7.80465
G1 X67.881 Y78.272 E7.83384
G1 X73.684 Y84.076 E8.10591
G1 X73.568 Y83.079 E8.13917
G1 X67.881 Y77.392 E8.40581
G1 X67.881 Y76.511 E8.43500
G1 X73.505 Y82.136 E8.69869
G1 X73.469 Y81.219 E8.72909
G1 X67.881 Y75.631 E8.99110
G1 X67.881 Y74.750 E9.02029
G1 X73.434 Y80.303 E9.28063
G1 X73.398 Y79.387 E9.31103
G1 X67.881 Y73.870 E9.56969
G1 X67.881 Y72.989 E9.59888
G1 X73.362 Y78.471 E9.85587
G1 X73.363 Y77.591 E9.88502
G1 X67.881 Y72.109 E10.14206
G1 X67.881 Y71.228 E10.17125
G1 X73.395 Y76.743 E10.42980
G1 X73.428 Y75.895 E10.45795
G1 X67.881 Y70.348 E10.71801
G1 X67.881 Y69.467 E10.74720
G1 X73.460 Y75.047 E11.00879
G1 X73.492 Y74.198 E11.03693
G1 X67.881 Y68.587 E11.30002
G1 X67.881 Y67.706 E11.32922
G1 X73.525 Y73.350 E11.59383
G1 X73.611 Y72.556 E11.62032
G1 X67.881 Y66.826 E11.88897
G1 X67.881 Y65.945 E11.91816
G1 X73.703 Y71.767 E12.19111
G1 X73.794 Y70.978 E12.21743
G1 X67.881 Y65.065 E12.49468
G1 X67.881 Y64.184 E12.52387
G1 X73.886 Y70.190 E12.80543
G1 X73.978 Y69.401 E12.83176
G1 X67.881 Y63.304 E13.11762
G1 X67.881 Y62.423 E13.14681
G1 X74.070 Y68.612 E13.43698
G1 X74.210 Y67.871 E13.46196
G1 X67.881 Y61.543 E13.75869
G1 X67.881 Y60.662 E13.78788
G1 X74.354 Y67.135 E14.09136
G1 X74.498 Y66.399 E14.11624
G1 X67.881 Y59.782 E14.42647
G1 X67.881 Y58.901 E14.45566
G1 X74.642 Y65.662 E14.77266
G1 X74.786 Y64.926 E14.79753
G1 X67.881 Y58.021 E15.12128
G1 X67.881 Y57.140 E15.15047
G1 X74.930 Y64.189 E15.48098
G1 X75.103 Y63.481 E15.50514
G1 X67.881 Y56.260 E15.84373
G1 X67.881 Y55.379 E15.87292
G1 X75.294 Y62.792 E16.22048
G1 X75.485 Y62.103 E16.24420
G1 X67.881 Y54.498 E16.60073
G1 X67.881 Y53.618 E16.62992
G1 X75.677 Y61.414 E16.99541
G1 X75.868 Y60.724 E17.01913
G1 X67.881 Y52.737 E17.39359
G1 X67.881 Y51.857 E17.42279
G1 X76.059 Y60.035 E17.80622
G1 X76.250 Y59.346 E17.82993
G1 X67.881 Y50.976 E18.22234
G1 X67.881 Y50.096 E18.25153
G1 X76.482 Y58.697 E18.65479
G1 X76.717 Y58.051 E18.67758
G1 X67.881 Y49.215 E19.09184
G1 X67.881 Y48.335 E19.12103
G1 X76.951 Y57.405 E19.54629
G1 X77.186 Y56.759 E19.56907
G1 X67.881 Y47.454 E20.00532
G1 X67.881 Y46.574 E20.03452
G1 X77.420 Y56.113 E20.48177
G1 X77.655 Y55.467 E20.50455
G1 X67.881 Y45.693 E20.96279
G1 X67.881 Y44.813 E20.99199
G1 X77.890 Y54.822 E21.46128
G1 X78.165 Y54.216 E21.48333
G1 X67.881 Y43.932 E21.96550
G1 X67.881 Y43.052 E21.99469
G1 X78.439 Y53.610 E22.48973
G1 X78.714 Y53.004 E22.51178
G1 X67.881 Y42.171 E23.01969
G1 X67.881 Y41.291 E23.04888
G1 X78.989 Y52.399 E23.56967
G1 X79.263 Y51.793 E23.59172
G1 X67.881 Y40.410 E24.12538
G1 X67.881 Y39.530 E24.15457
G1 X79.538 Y51.187 E24.70110
G1 X79.812 Y50.581 E24.72315
G1 X67.881 Y38.649 E25.28256
G1 X67.881 Y37.769 E25.31175
G1 X80.121 Y50.009 E25.88564
G1 X80.434 Y49.441 E25.90713
G1 X67.881 Y36.888 E26.49566
G1 X67.881 Y36.008 E26.52485
G1 X80.746 Y48.873 E27.12803
G1 X81.058 Y48.305 E27.14952
G1 X67.881 Y35.127 E27.76734
G1 X67.881 Y34.247 E27.79653
G1 X81.371 Y47.736 E28.42900
G1 X81.683 Y47.168 E28.45049
G1 X67.881 Y33.366 E29.09760
G1 X67.881 Y32.486 E29.12679
G1 X81.995 Y46.600 E29.78854
G1 X82.330 Y46.054 E29.80977
G1 X68.176 Y31.901 E30.47333
G1 X69.057 Y31.901 E30.50252
G1 X82.678 Y45.521 E31.14112
G1 X83.026 Y44.989 E31.16221
G1 X69.937 Y31.901 E31.77586
G1 X70.818 Y31.901 E31.80505
G1 X83.374 Y44.457 E32.39373
G1 X83.722 Y43.924 E32.41482
G1 X71.698 Y31.901 E32.97855
G1 X72.579 Y31.901 E33.00774
