;This Gcode has been generated specifically for the LulzBot Mini
;Basic settings: Layer height: 0.25 Walls: 0.6 Fill: 20
;Filament Diameter: 2.85
;Nozzle Size: 0.5
G26                          ; clear potential 'probe fail' condition
G21                          ; metric values
G90                          ; absolute positioning
M82                          ; set extruder to absolute mode
M107                         ; start with the fan off
G92 E0                       ; set extruder position to 0
M140 S60; get bed heating up
G28                          ; home all
M109 R140                    ; set to cleaning temp and wait
G1 Z150 E-30 F75             ; suck up XXmm of filament
M109 R140                    ; heat up rest of way
G1 X45 Y174 F11520           ; move behind scraper
G1 Z0  F1200                 ; CRITICAL: set Z to height of top of scraper
G1 X45 Y174 Z-.5 F4000       ; wiping ; plunge into wipe pad
G1 X55 Y172 Z-.5 F4000       ; wiping
G1 X45 Y174 Z0 F4000         ; wiping
G1 X55 Y172 F4000            ; wiping
G1 X45 Y174 F4000            ; wiping
G1 X55 Y172 F4000            ; wiping
G1 X45 Y174 F4000            ; wiping
G1 X55 Y172 F4000            ; wiping
G1 X60 Y174 F4000            ; wiping
G1 X80 Y172 F4000            ; wiping
G1 X60 Y174 F4000            ; wiping
G1 X80 Y172 F4000            ; wiping
G1 X60 Y174 F4000            ; wiping
G1 X90 Y172 F4000            ; wiping
G1 X80 Y174 F4000            ; wiping
G1 X100 Y172 F4000           ; wiping
G1 X80 Y174 F4000            ; wiping
G1 X100 Y172 F4000           ; wiping
G1 X80 Y174 F4000            ; wiping
G1 X100 Y172 F4000           ; wiping
G1 X110 Y174 F4000           ; wiping
G1 X100 Y172 F4000           ; wiping
G1 X110 Y174 F4000           ; wiping
G1 X100 Y172 F4000           ; wiping
G1 X110 Y174 F4000           ; wiping
G1 X115 Y172 Z-0.5 F1000     ; wipe slower and bury noz in cleanish area
G1 Z10                       ; raise z
G28 X0 Y0                    ; home x and y
M109 R140                    ; set to probing temp
M204 S300                    ; Set probing acceleration
G29                          ; Probe
M204 S2000                   ; Restore standard acceleration
G1 X5 Y15 Z10 F5000          ; get out the way
G4 S1                        ; pause
M400                         ; clear buffer
M109 R205    ; set extruder temp and wait
G4 S15                       ; wait for bed to temp up
G1 Z2 E0 F75                 ; extrude filament back into nozzle
M140 S60; get bed temping up during first layer

;Layer count: 74
;LAYER:0
M107
G0 F10500 X51.286 Y48.997 Z0.425
;TYPE:SKIRT
G1 F1500 X52.157 Y48.266 E0.05682
G1 X53.110 Y47.632 E0.11401
G1 X54.164 Y47.075 E0.17357
G1 X55.355 Y46.612 E0.23742
G1 X56.598 Y46.361 E0.30078
G1 X57.750 Y46.333 E0.35836
G1 X58.859 Y46.444 E0.41405
G1 X60.007 Y46.721 E0.47305
G1 X61.059 Y47.158 E0.52997
G1 X61.939 Y47.651 E0.58037
G1 X62.809 Y48.228 E0.63253
G1 X63.737 Y49.035 E0.69398
G1 X64.555 Y50.020 E0.75796
G1 X65.203 Y51.018 E0.81741
G1 X65.736 Y52.082 E0.87687
G1 X66.111 Y53.325 E0.94174
G1 X66.243 Y54.662 E1.00887
G1 X66.137 Y55.998 E1.07584
G1 X65.823 Y57.347 E1.14504
G1 X65.537 Y58.073 E1.18403
G1 X65.286 Y58.707 E1.21810
G1 X64.846 Y59.442 E1.26090
G1 X64.467 Y60.051 E1.29674
G1 X63.840 Y60.738 E1.34322
G1 X63.318 Y61.286 E1.38103
G1 X63.012 Y61.495 E1.39955
G1 X63.167 Y61.527 E1.40745
G1 X64.025 Y61.623 E1.45059
G1 X65.520 Y61.777 E1.52569
G1 X65.814 Y61.807 E1.54045
G1 X67.358 Y62.037 E1.61845
G1 X68.375 Y62.246 E1.67033
G1 X69.184 Y62.420 E1.71167
G1 X70.960 Y62.933 E1.80404
G1 X72.686 Y63.586 E1.89625
G1 X74.079 Y64.309 E1.97467
G1 X75.018 Y64.855 E2.02894
G1 X75.532 Y65.112 E2.05765
G1 X75.932 Y64.967 E2.07891
G1 X76.363 Y64.769 E2.10261
G1 X76.600 Y64.634 E2.11624
G1 X76.831 Y64.471 E2.13036
G1 X77.183 Y64.198 E2.15262
G1 X77.781 Y63.708 E2.19125
G1 X78.481 Y63.124 E2.23680
G1 X78.627 Y63.001 E2.24634
G1 X79.311 Y62.338 E2.29394
G1 X79.644 Y61.872 E2.32255
G1 X79.719 Y61.691 E2.33234
G1 X79.728 Y61.585 E2.33766
G1 X79.686 Y61.240 E2.35502
G1 X79.684 Y61.228 E2.35563
G1 X79.605 Y60.879 E2.37351
G1 X79.532 Y60.705 E2.38294
G1 X79.349 Y60.432 E2.39936
G1 X79.332 Y60.406 E2.40091
G1 X79.034 Y60.051 E2.42407
G1 X78.948 Y59.946 E2.43085
G1 X78.681 Y59.660 E2.45040
G1 X78.174 Y59.140 E2.48669
G1 X77.485 Y58.447 E2.53552
G1 X76.625 Y57.603 E2.59572
G1 X75.739 Y56.765 E2.65666
G1 X74.807 Y55.850 E2.72192
G1 X74.512 Y55.551 E2.74290
G1 X73.709 Y54.615 E2.80452
G1 X72.876 Y53.502 E2.87399
G1 X72.637 Y53.172 E2.89435
G1 X72.081 Y52.227 E2.94913
G1 X71.890 Y51.911 E2.96758
G1 X71.448 Y50.899 E3.02276
G1 X71.292 Y50.555 E3.04163
G1 X70.996 Y49.493 E3.09672
G1 X70.868 Y49.064 E3.11908
G1 X70.761 Y47.805 E3.18222
G1 X70.720 Y47.366 E3.20425
G1 X70.880 Y45.437 E3.30096
G1 X71.437 Y43.367 E3.40807
G1 X72.490 Y41.545 E3.51322
G1 X73.711 Y40.170 E3.60510
G1 X75.017 Y39.085 E3.68993
G1 X76.537 Y38.261 E3.77632
G1 X78.254 Y37.752 E3.86581
G1 X80.107 Y37.631 E3.95859
G1 X81.906 Y37.924 E4.04966
G1 X83.493 Y38.459 E4.13334
G1 X84.811 Y39.192 E4.20869
G1 X85.816 Y40.056 E4.27492
G1 X86.631 Y40.990 E4.33685
G1 X87.306 Y42.079 E4.40087
G1 X87.795 Y43.281 E4.46571
G1 X88.093 Y44.547 E4.53069
G1 X88.223 Y45.947 E4.60095
G1 X88.108 Y47.542 E4.68085
G1 X87.575 Y49.144 E4.76521
G1 X86.685 Y50.529 E4.84747
G1 X85.516 Y51.688 E4.92972
G1 X85.355 Y51.790 E4.93924
G1 X85.848 Y52.186 E4.97084
G1 X86.858 Y53.067 E5.03780
G1 X87.968 Y54.192 E5.11677
G1 X89.176 Y55.667 E5.21203
G1 X90.306 Y57.565 E5.32240
G1 X91.023 Y59.718 E5.43578
G1 X91.351 Y61.828 E5.54248
G1 X91.376 Y63.777 E5.63987
G1 X91.214 Y65.488 E5.72574
G1 X91.147 Y65.877 E5.74546
G1 X91.596 Y65.963 E5.76831
G1 X91.818 Y66.008 E5.77962
G1 X92.332 Y66.028 E5.80533
G1 X92.347 Y66.029 E5.80608
G1 X92.554 Y66.000 E5.81652
G1 X92.577 Y65.992 E5.81774
G1 X92.605 Y65.946 E5.82043
G1 X92.674 Y65.761 E5.83029
G1 X92.738 Y65.476 E5.84489
G1 X92.772 Y65.322 E5.85277
G1 X92.812 Y65.005 E5.86873
G1 X92.911 Y64.057 E5.91636
G1 X93.030 Y62.894 E5.97477
G1 X93.089 Y62.321 E6.00355
G1 X93.140 Y61.629 E6.03822
G1 X93.181 Y61.051 E6.06718
G1 X93.185 Y60.391 E6.10015
G1 X93.183 Y59.696 E6.13488
G1 X93.180 Y58.920 E6.17365
G1 X93.171 Y58.110 E6.21413
G1 X93.209 Y57.243 E6.25749
G1 X93.243 Y56.412 E6.29905
G1 X93.326 Y55.619 E6.33888
G1 X93.327 Y55.619 E6.33893
G1 X93.413 Y54.779 E6.38113
G1 X93.571 Y54.034 E6.41918
G1 X93.717 Y53.349 E6.45417
G1 X93.954 Y52.659 E6.49063
G1 X94.142 Y52.117 E6.51929
G1 X94.687 Y50.981 E6.58224
G1 X95.406 Y49.902 E6.64703
G1 X96.299 Y48.944 E6.71247
G1 X97.312 Y48.157 E6.77656
G1 X98.428 Y47.514 E6.84092
G1 X99.659 Y47.017 E6.90725
G1 X100.973 Y46.694 E6.97486
G1 X102.321 Y46.556 E7.04256
G1 X103.608 Y46.643 E7.10702
G1 X104.737 Y46.908 E7.16496
G1 X105.789 Y47.282 E7.22075
G1 X106.843 Y47.808 E7.27961
G1 X107.799 Y48.477 E7.33791
G1 X108.595 Y49.201 E7.39167
G1 X109.370 Y50.056 E7.44933
G1 X110.110 Y51.218 E7.51816
G1 X110.603 Y52.543 E7.58880
G1 X110.872 Y53.785 E7.65230
G1 X110.979 Y55.021 E7.71429
G1 X110.856 Y56.331 E7.78003
G1 X110.477 Y57.629 E7.84759
G1 X109.873 Y58.829 E7.91472
G1 X109.067 Y59.971 E7.98456
G1 X108.517 Y60.538 E8.02403
G1 X108.015 Y61.055 E8.06003
G1 X107.294 Y61.559 E8.10399
G1 X106.719 Y61.952 E8.13879
G1 X105.889 Y62.321 E8.18417
G1 X105.274 Y62.583 E8.21757
G1 X104.368 Y62.802 E8.26415
G1 X103.685 Y62.961 E8.29919
G1 X102.727 Y63.001 E8.34709
G1 X102.099 Y63.023 E8.37849
G1 X102.206 Y64.028 E8.42899
G1 X102.301 Y65.379 E8.49666
G1 X102.254 Y66.858 E8.57060
G1 X102.010 Y68.397 E8.64845
G1 X101.535 Y70.025 E8.73319
G1 X100.770 Y71.683 E8.82443
G1 X99.688 Y73.142 E8.91519
G1 X98.603 Y74.132 E8.98857
G1 X98.403 Y74.320 E9.00229
G1 X97.601 Y74.888 E9.05139
G1 X97.243 Y75.142 E9.07333
G1 X97.777 Y75.571 E9.10755
G1 X98.341 Y75.916 E9.14059
G1 X98.768 Y76.102 E9.16386
G1 X99.015 Y76.170 E9.17666
G1 X99.117 Y76.177 E9.18177
G1 X99.304 Y76.155 E9.19117
G1 X99.530 Y76.078 E9.20310
G1 X100.036 Y75.775 E9.23257
G1 X100.753 Y75.250 E9.27698
G1 X101.370 Y74.769 E9.31606
G1 X101.845 Y74.364 E9.34725
G1 X102.381 Y73.855 E9.38419
G1 X102.988 Y73.251 E9.42697
G1 X103.769 Y72.470 E9.48216
G1 X104.754 Y71.584 E9.54836
G1 X105.904 Y70.767 E9.61884
G1 X107.200 Y70.096 E9.69176
G1 X108.750 Y69.545 E9.77396
G1 X110.641 Y69.270 E9.86944
G1 X112.269 Y69.425 E9.95115
G1 X112.269 Y69.426 E9.95120
G1 X112.695 Y69.462 E9.97256
G1 X114.273 Y69.966 E10.05533
G1 X114.714 Y70.099 E10.07834
G1 X116.108 Y70.958 E10.16016
G1 X116.465 Y71.169 E10.18088
G1 X117.848 Y72.451 E10.27510
G1 X118.809 Y73.753 E10.35596
G1 X119.412 Y74.996 E10.42499
G1 X119.789 Y76.151 E10.48569
G1 X119.978 Y77.290 E10.54338
G1 X120.013 Y78.386 E10.59817
G1 X119.927 Y79.437 E10.65086
G1 X119.726 Y80.499 E10.70487
G1 X119.361 Y81.605 E10.76306
G1 X118.821 Y82.655 E10.82206
G1 X118.168 Y83.578 E10.87855
G1 X117.386 Y84.425 E10.93615
G1 X116.780 Y84.903 E10.97471
G1 X116.409 Y85.196 E10.99834
G1 X115.691 Y85.580 E11.03902
G1 X115.266 Y85.808 E11.06312
G1 X114.011 Y86.226 E11.12921
G1 X112.629 Y86.470 E11.19933
G1 X111.089 Y86.489 E11.27628
G1 X109.514 Y86.171 E11.35657
G1 X108.060 Y85.526 E11.43605
G1 X107.335 Y85.019 E11.48025
G1 X106.716 Y84.573 E11.51837
G1 X106.102 Y83.929 E11.56283
G1 X105.546 Y83.339 E11.60334
G1 X105.202 Y82.716 E11.63889
G1 X104.886 Y82.964 E11.65897
G1 X103.804 Y83.709 E11.72460
G1 X103.339 Y84.010 E11.75228
G1 X101.994 Y84.712 E11.82809
G1 X101.083 Y85.054 E11.87671
G1 X100.545 Y85.259 E11.90548
G1 X99.546 Y85.472 E11.95651
G1 X99.032 Y85.583 E11.98279
G1 X98.019 Y85.646 E12.03350
G1 X97.863 Y85.655 E12.04131
G1 X97.868 Y85.660 E12.04166
G1 X98.996 Y86.696 E12.11819
G1 X100.155 Y87.584 E12.19114
G1 X101.295 Y88.306 E12.25856
G1 X102.349 Y88.866 E12.31820
G1 X103.399 Y89.325 E12.37546
G1 X104.672 Y89.902 E12.44529
G1 X105.276 Y90.260 E12.48037
G1 X106.052 Y90.716 E12.52535
G1 X107.289 Y91.590 E12.60102
G1 X108.311 Y92.493 E12.66917
G1 X109.133 Y93.517 E12.73478
G1 X109.744 Y94.609 E12.79730
G1 X110.166 Y95.669 E12.85430
G1 X110.453 Y96.702 E12.90787
G1 X110.626 Y97.785 E12.96267
G1 X110.730 Y99.055 E13.02634
G1 X110.699 Y100.540 E13.10056
G1 X110.426 Y102.038 E13.17664
G1 X109.963 Y103.412 E13.24908
G1 X109.331 Y104.702 E13.32086
G1 X108.479 Y105.930 E13.39554
G1 X107.428 Y106.924 E13.46782
G1 X106.358 Y107.615 E13.53146
G1 X105.208 Y108.196 E13.59584
G1 X103.793 Y108.668 E13.67037
G1 X102.260 Y108.856 E13.74754
G1 X100.817 Y108.808 E13.81968
G1 X99.466 Y108.534 E13.88856
G1 X98.233 Y108.023 E13.95525
G1 X97.067 Y107.326 E14.02312
G1 X95.941 Y106.411 E14.09562
G1 X94.997 Y105.286 E14.16900
G1 X94.305 Y104.045 E14.23999
G1 X93.868 Y102.728 E14.30932
G1 X93.690 Y101.379 E14.37731
G1 X93.721 Y99.957 E14.44838
G1 X93.872 Y99.170 E14.48842
G1 X94.018 Y98.421 E14.52655
G1 X94.384 Y97.582 E14.57228
G1 X94.694 Y96.901 E14.60967
G1 X94.862 Y96.678 E14.62362
G1 X94.215 Y96.404 E14.65873
G1 X92.326 Y95.469 E14.76404
G1 X90.922 Y94.710 E14.84379
G1 X89.693 Y94.032 E14.91392
G1 X89.507 Y93.931 E14.92450
G1 X89.468 Y94.019 E14.92931
G1 X89.144 Y94.731 E14.96839
G1 X88.955 Y95.127 E14.99032
G1 X88.310 Y96.139 E15.05028
G1 X87.391 Y97.065 E15.11546
G1 X86.408 Y97.773 E15.17599
G1 X85.443 Y98.271 E15.23025
G1 X84.635 Y98.595 E15.27375
G1 X84.265 Y98.722 E15.29330
G1 X84.460 Y99.063 E15.31292
G1 X84.815 Y99.625 E15.34614
G1 X85.085 Y100.043 E15.37100
G1 X85.256 Y100.269 E15.38516
G1 X85.553 Y100.582 E15.40672
G1 X86.106 Y101.133 E15.44573
G1 X86.781 Y101.838 E15.49449
G1 X87.513 Y102.704 E15.55115
G1 X88.256 Y103.789 E15.61686
G1 X88.893 Y105.194 E15.69394
G1 X89.235 Y106.803 E15.77613
G1 X89.292 Y108.471 E15.85952
G1 X89.175 Y109.733 E15.92284
G1 X89.118 Y110.342 E15.95341
G1 X88.766 Y111.707 E16.02384
G1 X88.577 Y112.425 E16.06094
G1 X87.839 Y113.760 E16.13716
G1 X87.542 Y114.286 E16.16734
G1 X86.656 Y115.335 E16.23595
G1 X86.335 Y115.710 E16.26061
G1 X85.430 Y116.492 E16.32037
G1 X85.031 Y116.835 E16.34666
G1 X83.510 Y117.696 E16.43399
G1 X82.280 Y118.078 E16.49834
G1 X81.779 Y118.232 E16.52453
G1 X80.414 Y118.334 E16.59293
G1 X79.909 Y118.370 E16.61822
G1 X78.432 Y118.136 E16.69294
G1 X78.075 Y118.073 E16.71106
G1 X76.811 Y117.652 E16.77762
G1 X76.493 Y117.541 E16.79445
G1 X75.215 Y116.851 E16.86702
G1 X74.197 Y116.026 E16.93249
G1 X73.353 Y115.129 E16.99403
G1 X72.651 Y114.113 E17.05574
G1 X72.198 Y113.168 E17.10810
G1 X72.067 Y112.888 E17.12354
G1 X71.696 Y111.617 E17.18970
G1 X71.495 Y110.164 E17.26299
G1 X71.581 Y108.477 E17.34739
G1 X72.122 Y106.815 E17.43472
G1 X72.975 Y105.395 E17.51749
G1 X73.775 Y104.468 E17.57867
G1 X73.776 Y104.469 E17.57874
G1 X74.051 Y104.144 E17.60002
G1 X74.948 Y103.397 E17.65834
G1 X74.980 Y103.370 E17.66043
G1 X74.927 Y103.303 E17.66470
G1 X74.355 Y102.513 E17.71344
G1 X74.046 Y102.069 E17.74046
G1 X73.480 Y101.108 E17.79619
G1 X73.193 Y100.484 E17.83051
G1 X72.970 Y100.012 E17.85659
G1 X72.682 Y99.258 E17.89692
G1 X72.441 Y98.616 E17.93118
G1 X72.193 Y97.781 E17.97471
G1 X71.979 Y97.031 E18.01368
G1 X71.871 Y96.191 E18.05599
G1 X71.868 Y96.165 E18.05730
G1 X71.859 Y96.157 E18.05790
G1 X71.141 Y95.137 E18.12023
G1 X70.665 Y94.170 E18.17408
G1 X70.273 Y93.189 E18.22687
G1 X69.937 Y92.213 E18.27844
G1 X69.718 Y91.465 E18.31738
G1 X69.681 Y91.352 E18.32332
G1 X69.610 Y91.314 E18.32735
G1 X69.525 Y91.264 E18.33228
G1 X69.121 Y91.124 E18.35364
G1 X69.043 Y91.096 E18.35778
G1 X68.824 Y91.067 E18.36882
G1 X68.726 Y91.055 E18.37375
G1 X68.230 Y91.077 E18.39856
G1 X67.709 Y91.144 E18.42481
G1 X67.219 Y91.253 E18.44989
G1 X66.771 Y91.392 E18.47332
G1 X66.341 Y91.572 E18.49662
G1 X65.895 Y91.813 E18.52195
G1 X65.768 Y91.908 E18.52987
G1 X65.747 Y92.074 E18.53823
G1 X65.774 Y92.684 E18.56874
G1 X65.910 Y93.458 E18.60801
G1 X66.151 Y94.537 E18.66325
G1 X66.399 Y95.870 E18.73099
G1 X66.583 Y97.353 E18.80566
G1 X66.645 Y98.944 E18.88522
G1 X66.558 Y100.535 E18.96483
G1 X66.254 Y101.953 E19.03729
G1 X65.803 Y103.091 E19.09845
G1 X65.259 Y104.148 E19.15785
G1 X64.812 Y104.773 E19.19625
G1 X64.482 Y105.240 E19.22482
G1 X63.866 Y105.861 E19.26852
G1 X63.472 Y106.265 E19.29672
G1 X62.318 Y107.164 E19.36981
G1 X61.050 Y107.895 E19.44294
G1 X59.646 Y108.434 E19.51808
G1 X58.216 Y108.665 E19.59046
G1 X56.947 Y108.634 E19.65389
G1 X55.669 Y108.469 E19.71827
G1 X54.229 Y108.061 E19.79306
G1 X52.856 Y107.354 E19.87022
G1 X51.691 Y106.503 E19.94230
G1 X50.730 Y105.520 E20.01099
G1 X49.996 Y104.405 E20.07769
G1 X49.422 Y103.168 E20.14583
G1 X49.007 Y101.780 E20.21822
G1 X48.858 Y100.321 E20.29149
G1 X48.983 Y98.905 E20.36252
G1 X49.363 Y97.569 E20.43192
G1 X49.975 Y96.353 E20.49994
G1 X50.800 Y95.195 E20.57098
G1 X51.364 Y94.632 E20.61080
G1 X51.907 Y94.091 E20.64910
G1 X52.685 Y93.603 E20.69499
G1 X53.322 Y93.214 E20.73228
G1 X54.843 Y92.696 E20.81257
G1 X55.805 Y92.574 E20.86102
G1 X56.331 Y92.511 E20.88749
G1 X56.307 Y92.185 E20.90382
G1 X56.262 Y91.579 E20.93418
G1 X56.416 Y89.593 E21.03371
G1 X56.804 Y88.304 E21.10097
G1 X56.994 Y87.662 E21.13443
G1 X57.827 Y86.344 E21.21233
G1 X58.097 Y85.908 E21.23795
G1 X59.342 Y84.671 E21.32565
G1 X59.554 Y84.453 E21.34084
G1 X61.027 Y83.284 E21.43480
G1 X61.932 Y82.665 E21.48958
G1 X61.604 Y82.648 E21.50599
G1 X61.209 Y82.650 E21.52573
G1 X61.100 Y82.664 E21.53122
G1 X60.984 Y82.698 E21.53726
G1 X60.660 Y82.834 E21.55482
G1 X60.106 Y83.099 E21.58550
G1 X59.441 Y83.433 E21.62269
G1 X58.750 Y83.788 E21.66150
G1 X58.750 Y83.789 E21.66155
G1 X57.976 Y84.193 E21.70518
G1 X57.170 Y84.622 E21.75080
G1 X56.307 Y85.068 E21.79934
G1 X55.431 Y85.485 E21.84781
G1 X54.459 Y85.871 E21.90007
G1 X53.394 Y86.205 E21.95584
G1 X52.420 Y86.464 E22.00620
G1 X51.496 Y86.676 E22.05356
G1 X50.545 Y86.778 E22.10135
G1 X50.316 Y86.795 E22.11283
G1 X49.122 Y86.779 E22.17249
G1 X47.893 Y86.681 E22.23409
G1 X46.888 Y86.507 E22.28506
G1 X46.027 Y86.249 E22.32997
G1 X45.769 Y86.169 E22.34346
G1 X44.827 Y85.747 E22.39504
G1 X43.890 Y85.213 E22.44892
G1 X42.900 Y84.494 E22.51006
G1 X41.965 Y83.506 E22.57803
G1 X41.197 Y82.325 E22.64842
G1 X40.599 Y81.104 E22.71635
G1 X40.211 Y79.893 E22.77989
G1 X40.023 Y78.729 E22.83880
G1 X39.987 Y77.614 E22.89454
G1 X40.071 Y76.544 E22.94817
G1 X40.266 Y75.467 E23.00286
G1 X40.619 Y74.345 E23.06163
G1 X41.144 Y73.275 E23.12118
G1 X41.787 Y72.324 E23.17854
G1 X42.560 Y71.449 E23.23687
G1 X43.161 Y70.953 E23.27581
G1 X43.526 Y70.650 E23.29951
G1 X44.252 Y70.242 E23.34112
G1 X44.685 Y70.000 E23.36591
G1 X45.952 Y69.558 E23.43296
G1 X47.354 Y69.298 E23.50420
G1 X48.927 Y69.277 E23.58280
G1 X50.532 Y69.619 E23.66480
G1 X51.998 Y70.301 E23.74559
G1 X52.722 Y70.831 E23.79042
G1 X53.341 Y71.296 E23.82910
G1 X53.952 Y71.968 E23.87448
G1 X54.495 Y72.572 E23.91507
G1 X54.957 Y73.449 E23.96459
G1 X55.271 Y74.060 E23.99892
G1 X55.504 Y74.909 E24.04291
G1 X55.584 Y75.196 E24.05779
G1 X55.846 Y75.024 E24.07345
G1 X56.872 Y74.490 E24.13125
G1 X57.100 Y74.378 E24.14394
G1 X58.223 Y73.942 E24.20413
G1 X59.434 Y73.593 E24.26710
G1 X60.582 Y73.346 E24.32577
G1 X60.727 Y73.318 E24.33315
G1 X61.796 Y73.139 E24.38731
G1 X62.842 Y72.975 E24.44021
G1 X63.900 Y72.791 E24.49387
G1 X63.943 Y72.783 E24.49606
G1 X63.780 Y72.723 E24.50473
G1 X63.648 Y72.674 E24.51177
G1 X62.757 Y72.359 E24.55899
G1 X62.159 Y72.147 E24.59069
G1 X60.523 Y71.501 E24.67858
G1 X58.650 Y70.625 E24.78189
G1 X57.985 Y70.246 E24.82014
G1 X56.693 Y69.503 E24.89460
G1 X55.914 Y68.929 E24.94295
G1 X54.884 Y68.160 E25.00718
G1 X54.192 Y67.525 E25.05411
G1 X53.321 Y66.711 E25.11367
G1 X52.749 Y66.060 E25.15697
G1 X52.052 Y65.248 E25.21044
G1 X51.599 Y64.616 E25.24929
G1 X51.061 Y63.839 E25.29652
G1 X50.711 Y63.257 E25.33045
G1 X50.279 Y62.495 E25.37422
G1 X49.687 Y61.229 E25.44405
G1 X49.172 Y59.884 E25.51601
G1 X48.766 Y58.376 E25.59404
G1 X48.637 Y57.432 E25.64164
G1 X48.542 Y56.749 E25.67610
G1 X48.520 Y55.829 E25.72208
G1 X48.500 Y55.137 E25.75667
G1 X48.703 Y53.723 E25.82805
G1 X49.033 Y52.640 E25.88462
G1 X49.398 Y51.702 E25.93491
G1 X49.883 Y50.751 E25.98825
G1 X50.517 Y49.829 E26.04416
G1 X51.286 Y48.997 E26.10076
G1 F600 E22.60076
G1 Z0.525
G0 F10500 X53.877 Y51.718
;TYPE:WALL-OUTER
G1 Z0.425
G1 F600 E26.10076
G1 F1500 X54.409 Y51.271 E26.13548
G1 X55.021 Y50.864 E26.17221
G1 X55.724 Y50.493 E26.21192
G1 X56.414 Y50.224 E26.24893
G1 X57.020 Y50.102 E26.27981
G1 X57.611 Y50.088 E26.30935
G1 X58.226 Y50.149 E26.34023
G1 X58.843 Y50.298 E26.37195
G1 X59.417 Y50.537 E26.40301
G1 X59.975 Y50.849 E26.43496
G1 X60.533 Y51.219 E26.46841
G1 X61.047 Y51.665 E26.50241
G1 X61.533 Y52.250 E26.54041
G1 X61.943 Y52.882 E26.57806
G1 X62.239 Y53.473 E26.61108
G1 X62.416 Y54.058 E26.64162
G1 X62.479 Y54.697 E26.67370
G1 X62.421 Y55.424 E26.71014
G1 X62.234 Y56.228 E26.75139
G1 X61.914 Y57.039 E26.79495
G1 X61.646 Y57.485 E26.82095
G1 X61.464 Y57.779 E26.83823
G1 X61.099 Y58.178 E26.86524
G1 X60.877 Y58.412 E26.88136
G1 X60.383 Y58.749 E26.91124
G1 X60.111 Y58.930 E26.92757
G1 X59.564 Y59.154 E26.95710
G1 X59.297 Y59.261 E26.97147
G1 X58.787 Y59.324 E26.99715
G1 X58.543 Y59.351 E27.00941
G1 X58.068 Y59.300 E27.03328
G1 X58.548 Y59.262 E27.05734
G1 X59.285 Y59.053 E27.09562
G1 X60.008 Y58.653 E27.13690
G1 X60.657 Y58.112 E27.17912
G1 X61.179 Y57.472 E27.22039
G1 X61.570 Y56.781 E27.26006
G1 X61.837 Y56.081 E27.29749
G1 X61.978 Y55.425 E27.33102
G1 X61.987 Y54.872 E27.35865
G1 X61.886 Y54.379 E27.38380
G1 X61.715 Y53.876 E27.41034
G1 X61.471 Y53.349 E27.43936
G1 X61.146 Y52.781 E27.47206
G1 X60.758 Y52.245 E27.50512
G1 X60.333 Y51.833 E27.53469
G1 X59.697 Y51.399 E27.57317
G1 X59.474 Y51.264 E27.58619
G1 X58.997 Y51.064 E27.61203
G1 X58.487 Y50.974 E27.63791
G1 X57.694 Y50.947 E27.67756
G1 X57.442 Y50.948 E27.69015
G1 X56.835 Y51.023 E27.72071
G1 X56.186 Y51.238 E27.75487
G1 X55.592 Y51.505 E27.78741
G1 X55.107 Y51.762 E27.81483
G1 X54.699 Y52.051 E27.83982
G1 X54.373 Y52.398 E27.86360
G1 X54.116 Y52.817 E27.88816
G1 X53.893 Y53.322 E27.91575
G1 X53.695 Y53.902 E27.94637
G1 X53.505 Y54.564 E27.98078
G1 X53.400 Y55.360 E28.02090
G1 X53.453 Y56.292 E28.06754
G1 X53.663 Y57.295 E28.11875
G1 X54.019 Y58.313 E28.17263
G1 X54.486 Y59.293 E28.22687
G1 X55.033 Y60.178 E28.27886
G1 X55.712 Y61.057 E28.33435
G1 X56.578 Y62.030 E28.39944
G1 X57.012 Y62.449 E28.42958
G1 X57.569 Y62.991 E28.46841
G1 X58.032 Y63.353 E28.49778
G1 X58.620 Y63.826 E28.53548
G1 X59.119 Y64.105 E28.56405
G1 X59.803 Y64.499 E28.60349
G1 X60.630 Y64.774 E28.64704
G1 X61.158 Y64.953 E28.67489
G1 X62.121 Y65.140 E28.72391
G1 X62.570 Y65.234 E28.74683
G1 X63.638 Y65.353 E28.80052
G1 X65.347 Y65.529 E28.88636
G1 X66.713 Y65.733 E28.95537
G1 X67.602 Y65.915 E29.00072
G1 X68.278 Y66.061 E29.03527
G1 X69.767 Y66.492 E29.11272
G1 X71.154 Y67.017 E29.18682
G1 X72.266 Y67.593 E29.24940
G1 X73.235 Y68.156 E29.30539
G1 X74.132 Y68.604 E29.35549
G1 X74.989 Y68.879 E29.40046
G1 X75.801 Y68.897 E29.44104
G1 X76.574 Y68.723 E29.48063
G1 X77.361 Y68.437 E29.52247
G1 X78.078 Y68.109 E29.56187
G1 X78.614 Y67.801 E29.59276
G1 X79.065 Y67.485 E29.62027
G1 X79.523 Y67.129 E29.64926
G1 X80.159 Y66.608 E29.69034
G1 X80.892 Y65.997 E29.73802
G1 X81.145 Y65.784 E29.75454
G1 X82.048 Y64.908 E29.81740
G1 X82.184 Y64.767 E29.82719
G1 X82.786 Y63.924 E29.87895
G1 X82.946 Y63.699 E29.89274
G1 X83.403 Y62.593 E29.95254
G1 X83.479 Y61.751 E29.99478
G1 X83.497 Y61.506 E30.00705
G1 X83.404 Y60.747 E30.04526
G1 X83.371 Y60.529 E30.05628
G1 X83.227 Y59.896 E30.08871
G1 X83.168 Y59.683 E30.09976
G1 X82.929 Y59.106 E30.13096
G1 X82.836 Y58.897 E30.14239
G1 X82.331 Y58.147 E30.18757
G1 X81.916 Y57.650 E30.21992
G1 X81.774 Y57.479 E30.23103
G1 X81.392 Y57.068 E30.25906
G1 X80.834 Y56.497 E30.29896
G1 X80.113 Y55.772 E30.35004
G1 X79.249 Y54.924 E30.41053
G1 X78.340 Y54.064 E30.47306
G1 X77.457 Y53.195 E30.53496
G1 X76.635 Y52.266 E30.59694
G1 X75.893 Y51.275 E30.65880
G1 X75.775 Y51.112 E30.66885
G1 X75.312 Y50.324 E30.71452
G1 X75.229 Y50.186 E30.72256
G1 X74.885 Y49.398 E30.76553
G1 X74.826 Y49.269 E30.77261
G1 X74.607 Y48.483 E30.81338
G1 X74.573 Y48.366 E30.81947
G1 X74.498 Y47.486 E30.86360
G1 X74.485 Y47.349 E30.87047
G1 X74.589 Y46.083 E30.93394
G1 X74.930 Y44.819 E30.99936
G1 X75.549 Y43.748 E31.06117
G1 X76.321 Y42.878 E31.11928
G1 X77.131 Y42.206 E31.17187
G1 X77.980 Y41.745 E31.22014
G1 X78.921 Y41.466 E31.26918
G1 X79.924 Y41.401 E31.31940
G1 X81.000 Y41.576 E31.37387
G1 X81.969 Y41.903 E31.42497
G1 X82.658 Y42.286 E31.46436
G1 X83.165 Y42.721 E31.49774
G1 X83.602 Y43.223 E31.53099
G1 X83.955 Y43.792 E31.56445
G1 X84.211 Y44.420 E31.59834
G1 X84.384 Y45.155 E31.63606
G1 X84.461 Y45.982 E31.67756
G1 X84.401 Y46.803 E31.71869
G1 X84.165 Y47.515 E31.75617
G1 X83.753 Y48.156 E31.79425
G1 X83.168 Y48.735 E31.83537
G1 X82.494 Y49.162 E31.87524
G1 X81.798 Y49.360 E31.91139
G1 X81.125 Y49.403 E31.94509
G1 X80.545 Y49.359 E31.97415
G1 X80.369 Y49.310 E31.98328
G1 X81.038 Y49.267 E32.01678
G1 X81.650 Y49.120 E32.04823
G1 X82.266 Y48.814 E32.08259
G1 X82.805 Y48.328 E32.11886
G1 X83.239 Y47.752 E32.15489
G1 X83.562 Y47.140 E32.18947
G1 X83.764 Y46.483 E32.22381
G1 X83.819 Y45.797 E32.25820
G1 X83.753 Y45.158 E32.29030
G1 X83.585 Y44.635 E32.31774
G1 X83.329 Y44.182 E32.34374
G1 X82.989 Y43.721 E32.37236
G1 X82.552 Y43.276 E32.40353
G1 X82.016 Y42.903 E32.43615
G1 X81.386 Y42.610 E32.47087
G1 X80.652 Y42.406 E32.50894
G1 X80.051 Y42.345 E32.53912
G1 X79.840 Y42.324 E32.54971
G1 X79.184 Y42.384 E32.58263
G1 X78.977 Y42.404 E32.59302
G1 X78.311 Y42.603 E32.62775
G1 X78.116 Y42.662 E32.63793
G1 X77.303 Y43.112 E32.68436
G1 X76.592 Y43.761 E32.73246
G1 X76.062 Y44.603 E32.78217
G1 X75.726 Y45.534 E32.83162
G1 X75.598 Y46.465 E32.87858
G1 X75.620 Y47.305 E32.92057
G1 X75.739 Y47.984 E32.95501
G1 X75.987 Y48.585 E32.98750
G1 X76.370 Y49.168 E33.02235
G1 X76.863 Y49.779 E33.06158
G1 X77.470 Y50.491 E33.10833
G1 X78.163 Y51.203 E33.15797
G1 X78.891 Y51.794 E33.20482
G1 X79.725 Y52.376 E33.25564
G1 X80.758 Y53.077 E33.31801
G1 X81.790 Y53.790 E33.38069
G1 X82.654 Y54.429 E33.43438
G1 X83.433 Y55.056 E33.48435
G1 X84.297 Y55.810 E33.54164
G1 X85.174 Y56.699 E33.60404
G1 X86.098 Y57.827 E33.67690
G1 X86.875 Y59.132 E33.75278
G1 X87.364 Y60.602 E33.83019
G1 X87.604 Y62.146 E33.90826
G1 X87.624 Y63.627 E33.98227
G1 X87.496 Y64.978 E34.05008
G1 X87.288 Y66.189 E34.11147
G1 X87.132 Y67.158 E34.16051
G1 X87.197 Y67.906 E34.19802
G1 X87.754 Y68.481 E34.23802
G1 X88.319 Y68.774 E34.26983
G1 X88.811 Y69.032 E34.29758
G1 X89.526 Y69.285 E34.33548
G1 X90.103 Y69.496 E34.36618
G1 X90.873 Y69.642 E34.40534
G1 X91.370 Y69.742 E34.43067
G1 X92.160 Y69.775 E34.47017
G1 X92.515 Y69.792 E34.48793
G1 X93.297 Y69.681 E34.52740
G1 X93.431 Y69.664 E34.53415
G1 X94.143 Y69.418 E34.57178
G1 X94.696 Y69.126 E34.60303
G1 X95.159 Y68.741 E34.63312
G1 X95.602 Y68.236 E34.66668
G1 X95.992 Y67.593 E34.70426
G1 X96.278 Y66.827 E34.74511
G1 X96.471 Y65.967 E34.78915
G1 X96.540 Y65.417 E34.81685
G1 X96.824 Y62.667 E34.95498
G1 X96.880 Y61.905 E34.99316
G1 X96.930 Y61.203 E35.02833
G1 X96.935 Y60.414 E35.06775
G1 X96.930 Y58.904 E35.14320
G1 X96.922 Y58.182 E35.17928
G1 X96.956 Y57.407 E35.21804
G1 X96.986 Y56.672 E35.25479
G1 X97.123 Y55.360 E35.32070
G1 X97.337 Y54.355 E35.37204
G1 X97.499 Y53.883 E35.39698
G1 X97.615 Y53.547 E35.41474
G1 X97.953 Y52.842 E35.45380
G1 X98.357 Y52.236 E35.49019
G1 X98.838 Y51.720 E35.52544
G1 X99.408 Y51.277 E35.56151
G1 X100.073 Y50.894 E35.59986
G1 X100.817 Y50.594 E35.63994
G1 X101.613 Y50.398 E35.68090
G1 X102.387 Y50.319 E35.71977
G1 X103.049 Y50.364 E35.75293
G1 X103.680 Y50.512 E35.78531
G1 X104.315 Y50.737 E35.81897
G1 X104.922 Y51.041 E35.85289
G1 X105.451 Y51.411 E35.88515
G1 X105.938 Y51.853 E35.91801
G1 X106.380 Y52.342 E35.95094
G1 X106.734 Y52.897 E35.98383
G1 X106.994 Y53.594 E36.02100
G1 X107.156 Y54.344 E36.05934
G1 X107.213 Y55.012 E36.09284
G1 X107.156 Y55.623 E36.12350
G1 X106.974 Y56.247 E36.15598
G1 X106.646 Y56.897 E36.19236
G1 X106.172 Y57.570 E36.23349
G1 X105.574 Y58.186 E36.27638
G1 X105.163 Y58.474 E36.30146
G1 X104.884 Y58.664 E36.31833
G1 X104.395 Y58.881 E36.34506
G1 X104.093 Y59.010 E36.36147
G1 X103.500 Y59.153 E36.39195
G1 X103.180 Y59.228 E36.40837
G1 X102.583 Y59.253 E36.43822
G1 X102.299 Y59.263 E36.45242
G1 X101.803 Y59.139 E36.47797
G1 X101.577 Y59.079 E36.48965
G1 X101.142 Y58.846 E36.51431
G1 X101.618 Y59.000 E36.53930
G1 X102.389 Y59.069 E36.57798
G1 X103.211 Y58.927 E36.61966
G1 X104.002 Y58.646 E36.66160
G1 X104.713 Y58.283 E36.70149
G1 X105.341 Y57.830 E36.74018
G1 X105.858 Y57.287 E36.77764
G1 X106.238 Y56.728 E36.81142
G1 X106.454 Y56.212 E36.83937
G1 X106.548 Y55.704 E36.86518
G1 X106.578 Y55.151 E36.89285
G1 X106.536 Y54.543 E36.92330
G1 X106.407 Y53.883 E36.95691
G1 X106.190 Y53.245 E36.99058
G1 X105.876 Y52.724 E37.02097
G1 X105.348 Y52.139 E37.06035
G1 X105.151 Y51.947 E37.07409
G1 X104.720 Y51.627 E37.10091
G1 X104.228 Y51.390 E37.12820
G1 X103.705 Y51.219 E37.15569
G1 X103.134 Y51.080 E37.18506
G1 X102.477 Y51.028 E37.21799
G1 X101.751 Y51.131 E37.25462
G1 X101.063 Y51.323 E37.29031
G1 X100.477 Y51.548 E37.32168
G1 X99.967 Y51.824 E37.35065
G1 X99.536 Y52.164 E37.37808
G1 X99.167 Y52.582 E37.40594
G1 X98.833 Y53.089 E37.43628
G1 X98.537 Y53.691 E37.46980
G1 X98.288 Y54.392 E37.50697
G1 X98.095 Y55.284 E37.55257
G1 X97.973 Y56.451 E37.61119
G1 X97.959 Y57.044 E37.64083
G1 X97.938 Y57.779 E37.67757
G1 X97.972 Y58.398 E37.70855
G1 X98.007 Y59.150 E37.74616
G1 X98.063 Y59.763 E37.77692
G1 X98.124 Y60.525 E37.81511
G1 X98.175 Y61.114 E37.84465
G1 X98.232 Y61.880 E37.88303
G1 X98.280 Y62.431 E37.91067
G1 X98.344 Y63.180 E37.94823
G1 X98.470 Y64.352 E38.00713
G1 X98.546 Y65.447 E38.06197
G1 X98.513 Y66.508 E38.11501
G1 X98.344 Y67.572 E38.16884
G1 X98.014 Y68.705 E38.22780
G1 X97.525 Y69.764 E38.28608
G1 X96.894 Y70.614 E38.33898
G1 X96.073 Y71.364 E38.39454
G1 X94.854 Y72.239 E38.46951
G1 X93.490 Y72.994 E38.54741
G1 X93.021 Y73.182 E38.57266
G1 X92.018 Y73.577 E38.62652
G1 X90.711 Y74.027 E38.69559
G1 X89.804 Y74.411 E38.74480
G1 X89.660 Y74.645 E38.75853
G1 X89.293 Y75.118 E38.78844
G1 X90.038 Y75.406 E38.82835
G1 X91.173 Y75.765 E38.88783
G1 X91.338 Y75.814 E38.89643
G1 X92.460 Y76.338 E38.95830
G1 X93.575 Y77.023 E39.02369
G1 X94.530 Y77.780 E39.08458
G1 X95.510 Y78.560 E39.14716
G1 X96.468 Y79.166 E39.20380
G1 X96.666 Y79.276 E39.21512
G1 X97.365 Y79.581 E39.25323
G1 X97.566 Y79.661 E39.26403
G1 X98.385 Y79.886 E39.30647
G1 X99.218 Y79.941 E39.34818
G1 X100.136 Y79.833 E39.39437
G1 X101.116 Y79.498 E39.44612
G1 X102.113 Y78.903 E39.50413
G1 X103.013 Y78.243 E39.55989
G1 X103.729 Y77.686 E39.60522
G1 X104.361 Y77.147 E39.64672
G1 X104.982 Y76.557 E39.68952
G1 X106.357 Y75.186 E39.78654
G1 X107.103 Y74.516 E39.83664
G1 X107.864 Y73.975 E39.88330
G1 X108.696 Y73.544 E39.93011
G1 X109.656 Y73.203 E39.98102
G1 X110.735 Y73.045 E40.03550
G1 X111.913 Y73.158 E40.09463
G1 X111.955 Y73.162 E40.09674
G1 X113.134 Y73.539 E40.15859
G1 X113.163 Y73.548 E40.16011
G1 X114.182 Y74.176 E40.21991
G1 X115.039 Y74.960 E40.27795
G1 X115.587 Y75.704 E40.32412
G1 X115.925 Y76.399 E40.36273
G1 X116.136 Y77.045 E40.39669
G1 X116.238 Y77.658 E40.42774
G1 X116.258 Y78.292 E40.45943
G1 X116.205 Y78.939 E40.49187
G1 X116.088 Y79.558 E40.52335
G1 X115.892 Y80.151 E40.55455
G1 X115.609 Y80.702 E40.58550
G1 X115.247 Y81.214 E40.61683
G1 X114.828 Y81.668 E40.64770
G1 X114.353 Y82.043 E40.67794
G1 X113.775 Y82.352 E40.71069
G1 X113.083 Y82.583 E40.74714
G1 X112.280 Y82.724 E40.78788
G1 X111.443 Y82.734 E40.82970
G1 X110.659 Y82.576 E40.86966
G1 X109.911 Y82.244 E40.91055
G1 X109.190 Y81.734 E40.95468
G1 X108.823 Y81.349 E40.98125
G1 X108.600 Y81.111 E40.99755
G1 X108.239 Y80.453 E41.03505
G1 X108.043 Y79.794 E41.06940
G1 X108.010 Y79.529 E41.08275
G1 X108.098 Y79.781 E41.09608
G1 X108.392 Y80.379 E41.12938
G1 X108.830 Y80.968 E41.16605
G1 X109.436 Y81.469 E41.20534
G1 X110.116 Y81.856 E41.24444
G1 X110.810 Y82.128 E41.28168
G1 X111.522 Y82.272 E41.31798
G1 X112.237 Y82.273 E41.35370
G1 X112.881 Y82.158 E41.38639
G1 X113.385 Y81.956 E41.41352
G1 X113.804 Y81.682 E41.43853
G1 X114.227 Y81.338 E41.46577
G1 X114.633 Y80.917 E41.49500
G1 X114.976 Y80.424 E41.52501
G1 X115.243 Y79.916 E41.55368
G1 X115.433 Y79.429 E41.57980
G1 X115.557 Y78.948 E41.60462
G1 X115.627 Y78.458 E41.62935
G1 X115.637 Y77.969 E41.65379
G1 X115.583 Y77.486 E41.67807
G1 X115.426 Y76.963 E41.70536
G1 X115.171 Y76.420 E41.73533
G1 X115.131 Y76.338 E41.73989
G1 X114.691 Y75.742 E41.77691
G1 X114.630 Y75.662 E41.78193
G1 X113.945 Y75.065 E41.82733
G1 X113.868 Y74.998 E41.83243
G1 X113.000 Y74.485 E41.88281
G1 X111.928 Y74.118 E41.93943
G1 X110.900 Y74.040 E41.99094
G1 X110.030 Y74.227 E42.03540
G1 X109.234 Y74.543 E42.07819
G1 X108.570 Y74.863 E42.11502
G1 X107.953 Y75.243 E42.15123
G1 X107.336 Y75.742 E42.19088
G1 X106.664 Y76.347 E42.23606
G1 X105.871 Y77.066 E42.28954
G1 X105.030 Y77.836 E42.34652
G1 X104.256 Y78.570 E42.39981
G1 X103.497 Y79.267 E42.45130
G1 X102.673 Y79.935 E42.50430
G1 X101.726 Y80.587 E42.56175
G1 X101.449 Y80.767 E42.57826
G1 X100.461 Y81.282 E42.63393
G1 X99.745 Y81.550 E42.67213
G1 X99.481 Y81.652 E42.68627
G1 X98.515 Y81.858 E42.73562
G1 X97.792 Y81.903 E42.77181
G1 X97.565 Y81.916 E42.78318
G1 X96.813 Y81.860 E42.82085
G1 X96.594 Y81.841 E42.83184
G1 X95.866 Y81.697 E42.86892
G1 X95.698 Y81.663 E42.87748
G1 X95.050 Y81.444 E42.91166
G1 X94.153 Y81.066 E42.96029
G1 X92.892 Y80.509 E43.02917
G1 X91.607 Y80.053 E43.09730
G1 X90.627 Y79.976 E43.14642
G1 X89.942 Y80.131 E43.18151
G1 X89.466 Y80.387 E43.20852
G1 X89.238 Y80.858 E43.23466
G1 X89.338 Y81.105 E43.24798
G1 X89.396 Y81.306 E43.25843
G1 X89.559 Y81.489 E43.27067
G1 X89.668 Y81.639 E43.27994
G1 X89.969 Y81.916 E43.30038
G1 X90.504 Y82.507 E43.34021
G1 X92.735 Y85.428 E43.52386
G1 X93.166 Y85.968 E43.55838
G1 X93.947 Y86.926 E43.62014
G1 X94.319 Y87.342 E43.64802
G1 X95.212 Y88.312 E43.71390
G1 X96.504 Y89.498 E43.80153
G1 X96.602 Y89.585 E43.80808
G1 X98.008 Y90.664 E43.89663
G1 X99.406 Y91.549 E43.97931
G1 X100.720 Y92.246 E44.05363
G1 X101.871 Y92.750 E44.11641
G1 X102.937 Y93.233 E44.17488
G1 X104.019 Y93.870 E44.23762
G1 X104.958 Y94.534 E44.29508
G1 X105.588 Y95.091 E44.33710
G1 X106.013 Y95.621 E44.37104
G1 X106.351 Y96.224 E44.40558
G1 X106.608 Y96.869 E44.44027
G1 X106.783 Y97.501 E44.47304
G1 X106.899 Y98.221 E44.50948
G1 X106.977 Y99.170 E44.55706
G1 X106.956 Y100.163 E44.60668
G1 X106.785 Y101.101 E44.65432
G1 X106.489 Y101.980 E44.70067
G1 X106.088 Y102.798 E44.74619
G1 X105.620 Y103.473 E44.78723
G1 X105.102 Y103.962 E44.82282
G1 X104.494 Y104.355 E44.85899
G1 X103.763 Y104.724 E44.89991
G1 X102.960 Y104.992 E44.94221
G1 X102.096 Y105.098 E44.98570
G1 X101.256 Y105.070 E45.02769
G1 X100.561 Y104.929 E45.06313
G1 X99.928 Y104.667 E45.09736
G1 X99.223 Y104.245 E45.13841
G1 X98.581 Y103.723 E45.17975
G1 X98.101 Y103.152 E45.21703
G1 X97.752 Y102.526 E45.25284
G1 X97.539 Y101.886 E45.28654
G1 X97.446 Y101.173 E45.32247
G1 X97.463 Y100.353 E45.36345
G1 X97.620 Y99.543 E45.40467
G1 X97.811 Y99.106 E45.42850
G1 X97.936 Y98.829 E45.44369
G1 X98.428 Y98.175 E45.48458
G1 X98.857 Y97.798 E45.51311
G1 X99.100 Y97.588 E45.52916
G1 X99.604 Y97.293 E45.55834
G1 X99.850 Y97.153 E45.57248
G1 X100.350 Y97.012 E45.59844
G1 X100.599 Y96.947 E45.61130
G1 X101.022 Y96.912 E45.63251
G1 X100.641 Y97.004 E45.65209
G1 X99.946 Y97.317 E45.69018
G1 X99.308 Y97.812 E45.73052
G1 X98.766 Y98.401 E45.77052
G1 X98.337 Y99.030 E45.80856
G1 X98.036 Y99.706 E45.84553
G1 X97.891 Y100.416 E45.88174
G1 X97.878 Y101.077 E45.91477
G1 X97.982 Y101.624 E45.94260
G1 X98.199 Y102.121 E45.96969
G1 X98.515 Y102.664 E46.00108
G1 X98.948 Y103.211 E46.03594
G1 X99.494 Y103.684 E46.07204
G1 X100.077 Y104.051 E46.10646
G1 X100.634 Y104.283 E46.13661
G1 X101.206 Y104.406 E46.16584
G1 X101.853 Y104.457 E46.19827
G1 X102.564 Y104.393 E46.23394
G1 X103.293 Y104.172 E46.27200
G1 X103.963 Y103.854 E46.30905
G1 X104.527 Y103.485 E46.34273
G1 X105.007 Y103.028 E46.37585
G1 X105.411 Y102.458 E46.41075
G1 X105.726 Y101.838 E46.44550
G1 X105.945 Y101.201 E46.47916
G1 X106.059 Y100.505 E46.51440
G1 X106.064 Y99.721 E46.55357
G1 X105.990 Y98.971 E46.59123
G1 X105.859 Y98.363 E46.62230
G1 X105.660 Y97.822 E46.65111
G1 X105.386 Y97.246 E46.68298
G1 X104.987 Y96.675 E46.71778
G1 X104.443 Y96.191 E46.75416
G1 X103.722 Y95.759 E46.79616
G1 X102.771 Y95.313 E46.84864
G1 X101.656 Y94.915 E46.90780
G1 X100.491 Y94.647 E46.96753
G1 X99.174 Y94.320 E47.03533
G1 X97.542 Y93.743 E47.12182
G1 X95.778 Y92.993 E47.21760
G1 X94.055 Y92.140 E47.31366
G1 X92.718 Y91.418 E47.38958
G1 X91.504 Y90.748 E47.45886
G1 X91.086 Y90.521 E47.48263
G1 X89.905 Y89.996 E47.54721
G1 X88.894 Y89.828 E47.59842
G1 X88.012 Y90.008 E47.64339
G1 X87.784 Y90.182 E47.65772
G1 X87.295 Y90.459 E47.68581
G1 X87.127 Y90.690 E47.70008
G1 X86.732 Y91.113 E47.72899
G1 X86.294 Y91.922 E47.77496
G1 X86.046 Y92.486 E47.80575
G1 X85.747 Y93.144 E47.84186
G1 X85.671 Y93.302 E47.85062
G1 X85.364 Y93.785 E47.87921
G1 X84.947 Y94.204 E47.90875
G1 X84.443 Y94.567 E47.93979
G1 X83.885 Y94.855 E47.97116
G1 X83.329 Y95.079 E48.00111
G1 X82.870 Y95.235 E48.02533
G1 X82.332 Y95.362 E48.05295
G1 X81.819 Y95.449 E48.07895
G1 X81.468 Y95.502 E48.09669
G1 X80.539 Y95.840 E48.14608
G1 X80.099 Y96.596 E48.18979
G1 X80.017 Y97.384 E48.22938
G1 X80.047 Y98.070 E48.26368
G1 X80.191 Y98.757 E48.29876
G1 X80.457 Y99.494 E48.33791
G1 X80.819 Y100.250 E48.37979
G1 X81.245 Y100.994 E48.42262
G1 X81.664 Y101.658 E48.46185
G1 X82.012 Y102.196 E48.49387
G1 X82.391 Y102.697 E48.52526
G1 X82.882 Y103.214 E48.56088
G1 X83.430 Y103.761 E48.59957
G1 X83.995 Y104.350 E48.64035
G1 X84.526 Y104.979 E48.68148
G1 X84.977 Y105.637 E48.72134
G1 X85.309 Y106.369 E48.76150
G1 X85.498 Y107.261 E48.80706
G1 X85.536 Y108.367 E48.86235
G1 X85.413 Y109.692 E48.92884
G1 X85.137 Y110.761 E48.98401
G1 X85.068 Y111.022 E48.99750
G1 X84.566 Y111.931 E49.04938
G1 X84.448 Y112.138 E49.06129
G1 X83.801 Y112.903 E49.11135
G1 X83.669 Y113.057 E49.12148
G1 X82.863 Y113.754 E49.17473
G1 X82.013 Y114.234 E49.22350
G1 X81.080 Y114.524 E49.27232
G1 X80.141 Y114.594 E49.31937
G1 X80.071 Y114.599 E49.32287
G1 X79.049 Y114.437 E49.37457
G1 X78.019 Y114.102 E49.42869
G1 X77.304 Y113.717 E49.46927
G1 X76.756 Y113.273 E49.50451
G1 X76.279 Y112.766 E49.53929
G1 X75.903 Y112.221 E49.57237
G1 X75.588 Y111.565 E49.60873
G1 X75.372 Y110.828 E49.64711
G1 X75.259 Y110.007 E49.68852
G1 X75.301 Y109.164 E49.73069
G1 X75.557 Y108.381 E49.77185
G1 X76.025 Y107.600 E49.81734
G1 X76.614 Y106.919 E49.86233
G1 X76.697 Y106.821 E49.86875
G1 X77.363 Y106.266 E49.91206
G1 X77.463 Y106.182 E49.91859
G1 X78.220 Y105.800 E49.96096
G1 X78.940 Y105.614 E49.99811
G1 X79.552 Y105.571 E50.02877
G1 X79.583 Y105.578 E50.03036
G1 X79.481 Y105.604 E50.03561
G1 X78.885 Y105.703 E50.06580
G1 X78.344 Y105.921 E50.09495
G1 X78.213 Y105.972 E50.10197
G1 X77.664 Y106.358 E50.13550
G1 X77.554 Y106.437 E50.14227
G1 X77.041 Y107.020 E50.18107
G1 X76.911 Y107.198 E50.19208
G1 X76.490 Y107.863 E50.23141
G1 X76.138 Y108.638 E50.27394
G1 X75.928 Y109.417 E50.31425
G1 X75.884 Y110.173 E50.35209
G1 X75.964 Y110.781 E50.38273
G1 X75.972 Y110.846 E50.38600
G1 X76.172 Y111.385 E50.41473
G1 X76.460 Y111.831 E50.44126
G1 X76.845 Y112.295 E50.47138
G1 X77.331 Y112.738 E50.50424
G1 X77.863 Y113.078 E50.53579
G1 X77.906 Y113.106 E50.53835
G1 X78.541 Y113.381 E50.57293
G1 X79.245 Y113.575 E50.60941
G1 X79.325 Y113.598 E50.61357
G1 X80.157 Y113.678 E50.65533
G1 X81.025 Y113.591 E50.69892
G1 X81.887 Y113.323 E50.74403
G1 X82.543 Y112.945 E50.78186
G1 X82.704 Y112.853 E50.79112
G1 X83.265 Y112.313 E50.83003
G1 X83.412 Y112.174 E50.84014
G1 X83.832 Y111.476 E50.88084
G1 X83.940 Y111.298 E50.89124
G1 X84.202 Y110.537 E50.93146
G1 X84.275 Y110.329 E50.94247
G1 X84.372 Y109.581 E50.98016
G1 X84.403 Y109.359 E50.99136
G1 X84.384 Y108.483 E51.03514
G1 X84.278 Y107.774 E51.07096
G1 X84.057 Y107.169 E51.10314
G1 X83.713 Y106.636 E51.13484
G1 X83.268 Y106.131 E51.16847
G1 X82.720 Y105.582 E51.20723
G1 X82.134 Y105.047 E51.24687
G1 X81.588 Y104.606 E51.28194
G1 X80.993 Y104.150 E51.31940
G1 X80.557 Y103.800 E51.34733
G1 X79.796 Y103.152 E51.39727
G1 X79.514 Y102.904 E51.41604
G1 X79.107 Y102.471 E51.44573
G1 X78.484 Y101.754 E51.49319
G1 X77.919 Y101.041 E51.53865
G1 X77.411 Y100.339 E51.58194
G1 X77.203 Y100.040 E51.60014
G1 X76.811 Y99.375 E51.63871
G1 X76.600 Y98.917 E51.66391
G1 X76.421 Y98.538 E51.68485
G1 X76.188 Y97.929 E51.71743
G1 X76.002 Y97.431 E51.74399
G1 X75.794 Y96.731 E51.78048
G1 X75.662 Y96.270 E51.80444
G1 X75.594 Y95.742 E51.83104
G1 X75.545 Y95.300 E51.85326
G1 X75.467 Y94.881 E51.87455
G1 X75.413 Y94.433 E51.89710
G1 X75.223 Y94.218 E51.91144
G1 X75.027 Y93.929 E51.92888
G1 X74.654 Y93.613 E51.95331
G1 X74.374 Y93.214 E51.97767
G1 X74.092 Y92.643 E52.00949
G1 X73.792 Y91.891 E52.04994
G1 X73.509 Y91.069 E52.09338
G1 X73.300 Y90.352 E52.13069
G1 X73.074 Y89.673 E52.16645
G1 X72.754 Y89.026 E52.20252
G1 X72.332 Y88.630 E52.23143
G1 X72.140 Y88.412 E52.24595
G1 X71.436 Y88.038 E52.28578
G1 X71.106 Y87.843 E52.30493
G1 X70.370 Y87.588 E52.34385
G1 X69.931 Y87.430 E52.36716
G1 X69.306 Y87.348 E52.39866
G1 X68.864 Y87.295 E52.42090
G1 X67.917 Y87.337 E52.46826
G1 X67.059 Y87.447 E52.51149
G1 X66.256 Y87.625 E52.55258
G1 X65.490 Y87.863 E52.59266
G1 X64.713 Y88.188 E52.63474
G1 X63.878 Y88.640 E52.68218
G1 X63.198 Y89.146 E52.72454
G1 X63.094 Y89.224 E52.73103
G1 X62.496 Y89.940 E52.77764
G1 X62.121 Y90.836 E52.82617
G1 X61.987 Y91.930 E52.88125
G1 X62.038 Y93.090 E52.93926
G1 X62.232 Y94.192 E52.99517
G1 X62.475 Y95.281 E53.05092
G1 X62.693 Y96.455 E53.11058
G1 X62.841 Y97.650 E53.17075
G1 X62.891 Y98.922 E53.23435
G1 X62.830 Y100.032 E53.28990
G1 X62.653 Y100.861 E53.33225
G1 X62.384 Y101.539 E53.36870
G1 X62.049 Y102.191 E53.40533
G1 X61.601 Y102.821 E53.44395
G1 X61.204 Y103.220 E53.47207
G1 X60.967 Y103.463 E53.48903
G1 X60.220 Y104.045 E53.53635
G1 X59.432 Y104.499 E53.58179
G1 X58.663 Y104.794 E53.62294
G1 X57.963 Y104.907 E53.65837
G1 X57.232 Y104.889 E53.69491
G1 X56.424 Y104.786 E53.73561
G1 X55.611 Y104.555 E53.77784
G1 X54.834 Y104.155 E53.82150
G1 X54.153 Y103.658 E53.86363
G1 X53.663 Y103.156 E53.89868
G1 X53.281 Y102.576 E53.93338
G1 X52.937 Y101.834 E53.97424
G1 X52.701 Y101.045 E54.01539
G1 X52.625 Y100.298 E54.05291
G1 X52.688 Y99.589 E54.08847
G1 X52.875 Y98.932 E54.12261
G1 X53.196 Y98.295 E54.15825
G1 X53.669 Y97.630 E54.19902
G1 X54.258 Y97.043 E54.24057
G1 X54.921 Y96.631 E54.27957
G1 X55.692 Y96.368 E54.32028
G1 X56.263 Y96.296 E54.34903
G1 X56.577 Y96.258 E54.36484
G1 X57.159 Y96.298 E54.39399
G1 X57.445 Y96.320 E54.40832
G1 X57.943 Y96.487 E54.43456
G1 X58.173 Y96.568 E54.44675
G1 X58.500 Y96.762 E54.46574
G1 X58.182 Y96.642 E54.48273
G1 X57.432 Y96.511 E54.52077
G1 X56.626 Y96.561 E54.56112
G1 X55.846 Y96.743 E54.60114
G1 X55.138 Y97.023 E54.63918
G1 X54.510 Y97.413 E54.67612
G1 X53.990 Y97.918 E54.71233
G1 X53.607 Y98.461 E54.74554
G1 X53.387 Y98.970 E54.77324
G1 X53.286 Y99.501 E54.80025
G1 X53.243 Y100.128 E54.83165
G1 X53.294 Y100.823 E54.86647
G1 X53.480 Y101.522 E54.90261
G1 X53.756 Y102.153 E54.93702
G1 X54.086 Y102.656 E54.96708
G1 X54.490 Y103.080 E54.99635
G1 X54.996 Y103.486 E55.02876
G1 X55.619 Y103.833 E55.06439
G1 X56.346 Y104.058 E55.10242
G1 X57.080 Y104.172 E55.13953
G1 X57.753 Y104.185 E55.17316
G1 X58.408 Y104.075 E55.20635
G1 X59.065 Y103.828 E55.24142
G1 X59.679 Y103.470 E55.27693
G1 X60.204 Y103.025 E55.31132
G1 X60.639 Y102.516 E55.34478
G1 X60.986 Y101.970 E55.37710
G1 X61.248 Y101.393 E55.40876
G1 X61.434 Y100.786 E55.44048
G1 X61.532 Y100.023 E55.47892
G1 X61.535 Y98.981 E55.53099
G1 X61.414 Y97.776 E55.59150
G1 X61.218 Y96.926 E55.63508
G1 X60.875 Y95.693 E55.69903
G1 X60.500 Y94.471 E55.76290
G1 X60.397 Y94.145 E55.77998
G1 X60.194 Y93.244 E55.82613
G1 X60.122 Y92.935 E55.84198
G1 X60.023 Y91.585 E55.90961
G1 X60.124 Y90.285 E55.97476
G1 X60.395 Y89.383 E56.02182
G1 X60.443 Y89.224 E56.03012
G1 X60.998 Y88.347 E56.08198
G1 X61.054 Y88.256 E56.08732
G1 X62.022 Y87.295 E56.15547
G1 X63.249 Y86.308 E56.23415
G1 X64.346 Y85.558 E56.30055
G1 X65.097 Y85.088 E56.34482
G1 X66.049 Y84.480 E56.40126
G1 X67.026 Y83.842 E56.45956
G1 X68.039 Y83.164 E56.52047
G1 X68.496 Y82.850 E56.54817
G1 X69.627 Y82.085 E56.61640
G1 X70.065 Y81.786 E56.64289
G1 X70.280 Y81.632 E56.65611
G1 X70.581 Y81.313 E56.67802
G1 X70.758 Y80.862 E56.70223
G1 X70.539 Y80.397 E56.72791
G1 X70.079 Y80.118 E56.75479
G1 X69.424 Y79.890 E56.78945
G1 X68.615 Y79.711 E56.83085
G1 X67.216 Y79.478 E56.90171
G1 X65.861 Y79.294 E56.97004
G1 X64.544 Y79.130 E57.03635
G1 X63.518 Y79.024 E57.08789
G1 X62.548 Y78.943 E57.13652
G1 X61.684 Y78.898 E57.17975
G1 X60.969 Y78.901 E57.21548
G1 X60.331 Y78.980 E57.24760
G1 X59.725 Y79.159 E57.27917
G1 X59.121 Y79.414 E57.31193
G1 X58.462 Y79.728 E57.34840
G1 X57.755 Y80.084 E57.38795
G1 X57.015 Y80.464 E57.42952
G1 X56.239 Y80.869 E57.47326
G1 X55.430 Y81.300 E57.51906
G1 X54.645 Y81.706 E57.56321
G1 X53.920 Y82.051 E57.60333
G1 X53.215 Y82.331 E57.64123
G1 X52.343 Y82.604 E57.68689
G1 X51.510 Y82.826 E57.72996
G1 X50.880 Y82.971 E57.76226
G1 X50.207 Y83.043 E57.79608
G1 X49.298 Y83.031 E57.84151
G1 X48.366 Y82.957 E57.88822
G1 X47.743 Y82.849 E57.91981
G1 X47.126 Y82.664 E57.95200
G1 X46.532 Y82.402 E57.98444
G1 X45.920 Y82.053 E58.01964
G1 X45.386 Y81.666 E58.05259
G1 X44.921 Y81.174 E58.08641
G1 X44.468 Y80.477 E58.12795
G1 X44.086 Y79.698 E58.17130
G1 X43.867 Y79.015 E58.20714
G1 X43.763 Y78.371 E58.23973
G1 X43.742 Y77.700 E58.27328
G1 X43.795 Y77.021 E58.30731
G1 X43.913 Y76.370 E58.34036
G1 X44.111 Y75.742 E58.37327
G1 X44.396 Y75.161 E58.40560
G1 X44.760 Y74.622 E58.43810
G1 X45.174 Y74.153 E58.46936
G1 X45.657 Y73.754 E58.50066
G1 X46.233 Y73.431 E58.53365
G1 X46.914 Y73.194 E58.56968
G1 X47.725 Y73.044 E58.61089
G1 X48.556 Y73.033 E58.65242
G1 X49.336 Y73.198 E58.69225
G1 X50.081 Y73.545 E58.73332
G1 X50.487 Y73.842 E58.75845
G1 X50.807 Y74.082 E58.77844
G1 X51.170 Y74.481 E58.80539
G1 X51.395 Y74.733 E58.82227
G1 X51.632 Y75.183 E58.84768
G1 X51.756 Y75.423 E58.86118
G1 X51.893 Y75.920 E58.88694
G1 X51.948 Y76.116 E58.89711
G1 X51.961 Y76.298 E58.90623
G1 X51.906 Y76.152 E58.91402
G1 X51.612 Y75.531 E58.94835
G1 X51.175 Y74.918 E58.98597
G1 X50.570 Y74.396 E59.02589
G1 X49.890 Y73.990 E59.06547
G1 X49.195 Y73.704 E59.10302
G1 X48.479 Y73.552 E59.13959
G1 X48.057 Y73.553 E59.16067
G1 X47.762 Y73.552 E59.17541
G1 X47.115 Y73.673 E59.20830
G1 X46.609 Y73.884 E59.23570
G1 X46.189 Y74.172 E59.26114
G1 X45.766 Y74.531 E59.28886
G1 X45.362 Y74.972 E59.31875
G1 X45.020 Y75.485 E59.34955
G1 X44.755 Y76.015 E59.37916
G1 X44.566 Y76.521 E59.40615
G1 X44.443 Y77.021 E59.43188
G1 X44.374 Y77.528 E59.45744
G1 X44.365 Y78.032 E59.48263
G1 X44.426 Y78.560 E59.50919
G1 X44.592 Y79.133 E59.53899
G1 X44.902 Y79.834 E59.57729
G1 X45.288 Y80.487 E59.61519
G1 X45.336 Y80.565 E59.61977
G1 X45.754 Y81.008 E59.65020
G1 X45.810 Y81.063 E59.65412
G1 X46.249 Y81.386 E59.68136
G1 X46.724 Y81.690 E59.70953
G1 X47.210 Y81.939 E59.73682
G1 X47.696 Y82.117 E59.76268
G1 X48.239 Y82.230 E59.79039
G1 X48.899 Y82.297 E59.82354
G1 X49.557 Y82.312 E59.85642
G1 X50.086 Y82.267 E59.88295
G1 X50.595 Y82.159 E59.90895
G1 X51.225 Y81.994 E59.94149
G1 X51.906 Y81.775 E59.97723
G1 X52.570 Y81.506 E60.01303
G1 X53.264 Y81.172 E60.05151
G1 X54.045 Y80.757 E60.09570
G1 X54.855 Y80.282 E60.14262
G1 X55.599 Y79.780 E60.18747
G1 X56.306 Y79.266 E60.23114
G1 X57.013 Y78.744 E60.27505
G1 X57.741 Y78.266 E60.31857
G1 X58.569 Y77.835 E60.36521
G1 X58.602 Y77.818 E60.36706
G1 X59.431 Y77.496 E60.41150
G1 X60.340 Y77.234 E60.45877
G1 X61.325 Y77.022 E60.50911
G1 X62.399 Y76.840 E60.56354
G1 X63.449 Y76.675 E60.61664
G1 X64.555 Y76.483 E60.67273
G1 X65.770 Y76.262 E60.73444
G1 X66.733 Y76.083 E60.78338
G1 X68.265 Y75.786 E60.86135
G1 X69.675 Y75.501 E60.93323
G1 X70.522 Y75.077 E60.98055
G1 X70.600 Y74.462 E61.01153
G1 X70.614 Y74.175 E61.02589
G1 X70.311 Y73.325 E61.07097
G1 X69.899 Y72.499 E61.11709
G1 X69.364 Y71.699 E61.16518
G1 X68.694 Y70.965 E61.21484
G1 X68.160 Y70.587 E61.24753
G1 X67.740 Y70.294 E61.27312
G1 X66.793 Y69.867 E61.32502
G1 X66.392 Y69.688 E61.34696
G1 X65.080 Y69.206 E61.41680
G1 X63.469 Y68.632 E61.50225
G1 X62.008 Y68.055 E61.58074
G1 X60.374 Y67.291 E61.67087
G1 X59.847 Y66.991 E61.70117
G1 X58.745 Y66.358 E61.76466
G1 X58.147 Y65.917 E61.80179
G1 X57.279 Y65.269 E61.85591
G1 X56.741 Y64.775 E61.89241
G1 X56.021 Y64.102 E61.94165
G1 X55.580 Y63.600 E61.97504
G1 X55.007 Y62.932 E62.01901
G1 X54.662 Y62.452 E62.04855
G1 X54.213 Y61.806 E62.08786
G1 X53.947 Y61.362 E62.11372
G1 X53.616 Y60.778 E62.14726
G1 X53.135 Y59.750 E62.20397
G1 X52.743 Y58.724 E62.25885
G1 X52.450 Y57.637 E62.31510
G1 X52.352 Y56.924 E62.35106
G1 X52.286 Y56.449 E62.37502
G1 X52.269 Y55.740 E62.41046
G1 X52.258 Y55.349 E62.43000
G1 X52.374 Y54.542 E62.47074
G1 X52.581 Y53.860 E62.50635
G1 X52.821 Y53.245 E62.53933
G1 X53.114 Y52.671 E62.57153
G1 X53.456 Y52.173 E62.60172
G1 X53.877 Y51.718 E62.63269
G1 F600 E59.13269
G1 Z0.525
G0 F10500 X105.253 Y103.132
;TYPE:FILL
G1 Z0.425
G1 F600 E62.63269
G1 F1500 X105.421 Y103.299 E62.64453
G0 F10500 X105.255 Y103.163
G0 X106.148 Y101.509
G0 X106.348 Y101.575
;TYPE:SKIN
G1 F1500 X106.370 Y101.066 E62.65790
G1 X106.510 Y100.146 E62.67632
G1 X106.485 Y99.060 E62.70490
G1 X106.034 Y98.079 E62.75885
G0 F10500 X106.508 Y97.493
G1 F1500 X102.208 Y93.193 E63.06270
G0 F10500 X102.121 Y93.384
G0 X101.550 Y94.405
G0 X101.503 Y94.609
G1 F1500 X97.505 Y90.610 E63.34524
G0 F10500 X97.377 Y90.778
G0 X96.976 Y92.987
G0 X96.894 Y93.181
G1 F1500 X70.924 Y67.212 E65.18029
G0 F10500 X70.851 Y67.407
G0 X69.216 Y66.827
G0 X69.275 Y66.623
G1 F1500 X94.933 Y92.281 E66.99334
G0 F10500 X95.028 Y92.093
G0 X92.801 Y90.922
G0 X92.698 Y91.107
G1 F1500 X67.823 Y66.232 E68.75105
G0 F10500 X66.497 Y65.967
G1 F1500 X90.504 Y89.974 E70.44743
G0 F10500 X89.057 Y89.587
G1 F1500 X65.253 Y65.783 E72.12947
G0 F10500 X64.066 Y65.657
G1 F1500 X88.124 Y89.715 E73.82946
G0 F10500 X87.428 Y90.080
G1 F1500 X70.538 Y73.189 E75.02297
G0 F10500 X70.852 Y74.564
G1 F1500 X86.868 Y90.581 E76.15473
G0 F10500 X86.400 Y91.173
G1 F1500 X70.572 Y75.345 E77.27317
G0 F10500 X69.866 Y75.700
G1 F1500 X86.032 Y91.865 E78.41545
G0 F10500 X85.706 Y92.600
G1 F1500 X69.009 Y75.903 E79.59529
G0 F10500 X68.124 Y76.079
G1 F1500 X85.354 Y93.309 E80.81280
G0 F10500 X84.881 Y93.896
G1 F1500 X67.234 Y76.250 E82.05974
G0 F10500 X66.343 Y76.419
G1 F1500 X69.594 Y79.670 E82.28946
G0 F10500 X68.244 Y79.381
G1 F1500 X65.449 Y76.586 E82.48696
G0 F10500 X64.548 Y76.746
G1 F1500 X66.982 Y79.179 E82.65891
G0 F10500 X65.755 Y79.014
G1 F1500 X63.648 Y76.907 E82.80780
G0 F10500 X62.733 Y77.052
G1 F1500 X64.545 Y78.864 E82.93584
G0 F10500 X63.368 Y78.747
G1 F1500 X61.825 Y77.204 E83.04487
G0 F10500 X60.934 Y77.375
G1 F1500 X62.221 Y78.662 E83.13581
G0 F10500 X61.135 Y78.635
G1 F1500 X59.678 Y77.709 E83.21022
G1 X60.186 Y78.747 E83.26797
G0 F10500 X60.127 Y78.545
G0 X69.864 Y76.048
G0 X71.032 Y75.437
G0 X71.190 Y74.091
G0 X69.817 Y71.344
G0 X68.024 Y69.793
G0 X63.709 Y68.214
G0 X63.639 Y68.412
G1 F1500 X60.103 Y64.876 E83.51783
G0 F10500 X60.036 Y65.076
G0 X61.551 Y65.513
G0 X61.592 Y65.304
G1 F1500 X65.287 Y69.000 E83.77896
G0 F10500 X65.359 Y68.804
G0 X67.123 Y69.495
G0 X67.035 Y69.687
G1 F1500 X62.879 Y65.531 E84.07263
G0 F10500 X62.855 Y65.742
G0 X61.949 Y67.505
G0 X61.860 Y67.694
G1 F1500 X53.107 Y58.940 E84.69117
G0 F10500 X53.899 Y58.672
G1 F1500 X52.692 Y57.465 E84.77646
G0 F10500 X53.344 Y57.057
G1 F1500 X52.853 Y56.035 E84.83303
G1 X52.877 Y54.998 E84.87664
G1 X53.065 Y54.125 E84.91120
G1 X53.336 Y53.336 E84.94072
G1 X53.563 Y52.502 E84.96479
G1 X54.274 Y52.152 E84.98210
G1 X54.637 Y51.455 E84.99498
G1 X55.385 Y51.142 E85.00957
G1 X56.112 Y50.809 E85.02688
G1 X56.947 Y50.583 E85.04676
G1 X58.000 Y50.575 E85.06963
G1 X58.595 Y50.640 E85.09954
G1 F600 E81.59954
G1 Z0.525
G0 F10500 X53.964 Y60.858
G1 Z0.425
G1 F600 E85.09954
G1 F1500 X59.716 Y66.610 E85.50599
G0 F10500 X59.820 Y66.429
G0 X68.491 Y70.118
G0 X70.397 Y72.211
G0 X71.173 Y74.512
G0 X71.032 Y75.437
G0 X68.377 Y76.349
G0 X58.626 Y78.340
G0 X58.529 Y78.151
G1 F1500 X59.024 Y79.177 E85.56685
G1 X57.514 Y78.727 E85.62501
G1 X57.596 Y79.871 E85.67819
G1 X56.275 Y79.610 E85.72510
G1 X56.197 Y80.593 E85.76577
G1 X55.018 Y80.474 E85.80161
G1 X54.806 Y81.323 E85.83431
G1 X53.672 Y81.249 E85.86513
G1 X53.348 Y81.986 E85.89388
G1 X52.379 Y82.077 E85.91916
G1 X51.576 Y82.336 E85.94103
G1 X50.717 Y82.536 E85.96101
G1 X50.168 Y82.518 E85.98845
G1 F600 E82.48845
G1 Z0.525
G0 F10500 X60.893 Y89.001
G1 Z0.425
G1 F600 E85.98845
G1 F1500 X62.098 Y90.206 E86.07360
G0 F10500 X62.489 Y89.536
G1 F1500 X61.317 Y88.364 E86.15642
G0 F10500 X61.849 Y87.836
G1 F1500 X62.987 Y88.973 E86.23679
G0 F10500 X63.595 Y88.521
G1 F1500 X62.401 Y87.326 E86.32120
G0 F10500 X62.989 Y86.853
G1 F1500 X64.264 Y88.129 E86.41133
G0 F10500 X64.983 Y87.788
G1 F1500 X63.589 Y86.393 E86.50987
G0 F10500 X64.219 Y85.962
G1 F1500 X65.758 Y87.502 E86.61865
G0 F10500 X66.596 Y87.278
G1 F1500 X64.860 Y85.543 E86.74128
G0 F10500 X65.509 Y85.132
G1 F1500 X67.501 Y87.124 E86.88204
G0 F10500 X68.485 Y87.046
G1 F1500 X66.159 Y84.721 E87.04637
G0 F10500 X66.801 Y84.302
G1 F1500 X69.621 Y87.122 E87.24563
G0 F10500 X69.648 Y86.915
G0 X71.201 Y87.374
G0 X71.132 Y87.573
G1 F1500 X67.440 Y83.880 E87.50655
G0 F10500 X68.075 Y83.454
G1 F1500 X80.318 Y95.697 E88.37167
G0 F10500 X81.053 Y95.372
G1 F1500 X68.707 Y83.026 E89.24406
G0 F10500 X69.338 Y82.597
G1 F1500 X81.907 Y95.165 E90.13217
G0 F10500 X82.785 Y94.983
G1 F1500 X69.970 Y82.167 E91.03774
G0 F10500 X70.569 Y81.706
G1 F1500 X83.563 Y94.699 E91.95589
G0 F10500 X84.278 Y94.354
G1 F1500 X70.968 Y81.044 E92.89640
G0 F10500 X71.160 Y81.127
G0 X73.611 Y89.785
G0 X73.411 Y89.851
G1 F1500 X79.927 Y96.367 E93.35683
G0 F10500 X79.763 Y97.264
G1 F1500 X73.902 Y91.403 E93.77098
G0 F10500 X74.102 Y91.335
G0 X74.969 Y93.236
G0 X74.796 Y93.357
G1 F1500 X74.995 Y93.557 E93.78508
G0 F10500 X75.296 Y93.858
G1 F1500 X79.851 Y98.413 E94.10694
G0 F10500 X79.643 Y98.456
G0 X80.243 Y100.148
G0 X80.435 Y100.057
G1 F1500 X75.825 Y95.448 E94.43266
G0 F10500 X76.076 Y96.759
G1 F1500 X82.324 Y103.007 E94.87416
G0 F10500 X82.169 Y103.153
G0 X81.197 Y103.707
G0 X81.065 Y103.869
G1 F1500 X78.325 Y101.129 E95.06777
G1 F600 E91.56777
G1 Z0.525
G0 F10500 X77.824 Y113.356
G1 Z0.425
G1 F600 E95.06777
G1 F1500 X78.910 Y113.911 E95.10994
G1 X79.821 Y114.292 E95.15928
G1 F600 E91.65928
G1 Z0.525
G0 F10500 X61.572 Y102.407
G1 Z0.425
G1 F600 E95.15928
G1 F1500 X61.022 Y102.388 E95.18340
G1 X60.798 Y103.225 E95.20187
G1 X60.317 Y103.274 E95.22603
G1 F600 E91.72603
G1 Z0.525
G0 F10500 X61.977 Y101.752
G1 Z0.425
G1 F600 E95.22603
G1 F1500 X61.925 Y101.170 E95.25659
G1 X62.135 Y100.318 E95.29658
G1 X62.204 Y99.328 E95.34828
G1 X61.733 Y98.326 E95.40360
G0 F10500 X62.597 Y98.129
G1 F1500 X61.516 Y97.048 E95.47998
G0 F10500 X62.491 Y96.963
G1 F1500 X61.118 Y95.590 E95.57700
G0 F10500 X62.284 Y95.695
G1 F1500 X60.647 Y94.058 E95.69268
G0 F10500 X60.369 Y92.719
G1 F1500 X61.997 Y94.347 E95.80771
G0 F10500 X61.774 Y93.063
G1 F1500 X60.286 Y91.575 E95.91286
G0 F10500 X60.363 Y90.592
G1 F1500 X61.724 Y91.953 E96.00903
G0 F10500 X61.835 Y91.003
G1 F1500 X60.564 Y89.732 E96.09884
G0 F10500 X60.767 Y89.793
G0 X65.293 Y87.323
G0 X68.885 Y86.720
G0 X71.727 Y87.543
G0 X73.230 Y88.690
G0 X76.036 Y94.801
G0 X76.843 Y98.313
G0 X76.644 Y98.387
G1 F1500 X85.151 Y106.895 E96.70000
G0 F10500 X84.321 Y107.125
G1 F1500 X84.954 Y108.288 E96.76642
G1 X84.923 Y109.317 E96.80600
G1 X84.781 Y110.236 E96.83604
G1 X84.535 Y111.052 E96.86051
G1 X84.166 Y111.744 E96.87880
G1 X83.826 Y112.464 E96.89440
G1 X83.118 Y112.816 E96.90799
G1 X82.722 Y113.481 E96.92098
G1 X81.938 Y113.758 E96.93799
G1 X81.131 Y114.012 E96.95952
G1 X80.497 Y113.908 E96.99162
G1 F600 E93.49162
G1 Z0.525
G0 F10500 X59.904 Y103.922
G1 Z0.425
G1 F600 E96.99162
G1 F1500 X59.473 Y104.021 E97.00411
G1 X59.040 Y104.118 E97.02628
G1 F600 E93.52628
G1 Z0.525
G0 F10500 X89.049 Y81.094
G1 Z0.425
G1 F600 E97.02628
G1 F1500 X76.856 Y68.901 E97.88786
G0 F10500 X77.621 Y68.606
G1 F1500 X89.248 Y80.232 E98.70941
G0 F10500 X89.059 Y80.140
G0 X89.917 Y75.865
G0 X89.982 Y75.663
G1 F1500 X95.707 Y81.388 E99.11395
G0 F10500 X96.988 Y81.608
G1 F1500 X91.612 Y76.232 E99.49383
G0 F10500 X91.522 Y76.423
G0 X88.495 Y75.339
G0 X89.417 Y73.961
G0 X90.257 Y73.703
G0 X90.338 Y73.898
G1 F1500 X81.879 Y65.439 E100.09156
G0 F10500 X82.406 Y64.905
G1 F1500 X91.111 Y73.610 E100.70667
G0 F10500 X91.899 Y73.338
G1 F1500 X82.848 Y64.286 E101.34627
G0 F10500 X83.255 Y63.633
G1 F1500 X86.876 Y67.254 E101.60214
G0 F10500 X87.001 Y66.318
G1 F1500 X83.566 Y62.883 E101.84486
G0 F10500 X83.721 Y61.977
G1 F1500 X87.154 Y65.410 E102.08744
G0 F10500 X87.279 Y64.475
G1 F1500 X83.684 Y60.880 E102.34147
G0 F10500 X83.382 Y59.517
G1 F1500 X87.358 Y63.493 E102.62242
G0 F10500 X87.343 Y62.418
G1 F1500 X76.283 Y51.357 E103.40398
G0 F10500 X76.453 Y51.231
G0 X75.242 Y48.993
G0 X75.036 Y49.049
G1 F1500 X87.189 Y61.203 E104.26277
G0 F10500 X86.983 Y61.234
G0 X81.486 Y66.113
G0 X81.340 Y65.961
G1 F1500 X89.607 Y74.227 E104.84690
G0 F10500 X89.168 Y74.849
G1 F1500 X80.762 Y66.443 E105.44088
G0 F10500 X80.182 Y66.924
G1 F1500 X93.944 Y80.685 E106.41330
G0 F10500 X94.030 Y80.493
G0 X94.535 Y78.384
G0 X94.665 Y78.225
G1 F1500 X98.061 Y81.621 E106.65326
G0 F10500 X98.987 Y81.486
G1 F1500 X97.366 Y79.865 E106.76781
G0 F10500 X97.288 Y80.061
G0 X92.243 Y79.776
G0 X92.172 Y79.974
G1 F1500 X79.599 Y67.402 E107.65620
G0 F10500 X78.993 Y67.856
G1 F1500 X90.868 Y79.731 E108.49532
G0 F10500 X89.937 Y79.861
G1 F1500 X78.338 Y68.262 E109.31492
G0 F10500 X78.442 Y68.447
G0 X76.059 Y69.326
G0 X76.013 Y69.119
G1 F1500 X92.695 Y85.801 E110.49371
G0 F10500 X92.529 Y85.931
G0 X88.799 Y81.307
G0 X88.629 Y80.837
G0 X89.038 Y79.977
G0 X90.586 Y79.398
G0 X93.103 Y79.976
G0 X98.720 Y80.383
G0 X98.734 Y80.173
G1 F1500 X99.806 Y81.245 E110.56946
G0 F10500 X100.556 Y80.934
G1 F1500 X99.764 Y80.142 E110.62542
G0 F10500 X99.788 Y80.352
G0 X93.103 Y79.976
G0 X90.586 Y79.398
G0 X89.038 Y79.977
G0 X88.629 Y80.837
G0 X89.566 Y82.325
G0 X94.806 Y88.718
G0 X98.685 Y93.644
G0 X98.615 Y93.842
G1 F1500 X73.211 Y68.438 E112.42052
G0 F10500 X73.116 Y68.626
G0 X74.970 Y69.353
G0 X74.975 Y69.141
G1 F1500 X100.117 Y94.283 E114.19710
G0 F10500 X100.169 Y94.078
G0 X100.149 Y92.480
G0 X100.249 Y92.294
G1 F1500 X103.160 Y95.205 E114.40280
G0 F10500 X103.250 Y95.014
G0 X104.850 Y95.072
G0 X104.991 Y94.914
G1 F1500 X105.583 Y95.506 E114.44463
G0 F10500 X105.418 Y95.638
G0 X97.679 Y91.136
G0 X93.510 Y87.298
G0 X88.799 Y81.307
G0 X88.629 Y80.837
G0 X89.038 Y79.977
G0 X90.586 Y79.398
G0 X93.103 Y79.976
G0 X100.228 Y80.756
G0 X101.157 Y80.384
G0 X101.254 Y80.571
G1 F1500 X101.006 Y79.792 E114.48902
G1 X102.207 Y79.933 E114.52478
G1 X102.365 Y79.030 E114.55807
G1 X103.390 Y78.995 E114.58834
G1 X103.586 Y78.130 E114.61552
G1 X104.495 Y77.978 E114.63940
G1 X104.731 Y77.154 E114.66127
G1 X105.599 Y76.961 E114.68349
G1 X105.805 Y76.107 E114.70725
G1 X106.711 Y75.952 E114.73278
G1 X106.885 Y75.065 E114.75988
G1 X107.879 Y74.999 E114.78815
G1 X108.107 Y74.166 E114.81790
G1 X109.260 Y74.259 E114.84934
G1 X109.596 Y73.533 E114.88116
G1 X110.721 Y73.598 E114.91269
G1 X111.859 Y73.676 E114.94711
G1 X112.881 Y74.167 E115.00377
G0 F10500 X112.950 Y73.966
G0 X111.847 Y73.577
G0 X110.745 Y73.623
G0 X108.924 Y74.072
G0 X106.731 Y75.623
G0 X102.431 Y79.382
G0 X100.263 Y80.395
G0 X97.384 Y80.206
G0 X94.181 Y78.235
G0 X88.495 Y75.339
G0 X89.417 Y73.961
G0 X97.567 Y68.538
G0 X97.769 Y68.601
G1 F1500 X96.404 Y67.235 E115.10026
G0 F10500 X96.072 Y67.964
G1 F1500 X97.436 Y69.328 E115.19664
G0 F10500 X97.032 Y69.985
G1 F1500 X95.638 Y68.591 E115.29514
G0 F10500 X95.109 Y69.123
G1 F1500 X96.553 Y70.567 E115.39718
G0 F10500 X95.998 Y71.073
G1 F1500 X94.468 Y69.543 E115.50529
G0 F10500 X93.710 Y69.845
G1 F1500 X95.392 Y71.527 E115.62414
G0 F10500 X94.774 Y71.970
G1 F1500 X92.819 Y70.014 E115.76232
G0 F10500 X91.766 Y70.022
G1 F1500 X94.098 Y72.355 E115.92714
G0 F10500 X93.415 Y72.733
G1 F1500 X90.527 Y69.844 E116.13125
G0 F10500 X90.488 Y70.052
G0 X88.930 Y69.577
G0 X89.001 Y69.379
G1 F1500 X92.660 Y73.038 E116.38980
G0 F10500 X92.584 Y72.843
G0 X97.806 Y67.719
G0 X98.008 Y67.779
G1 F1500 X96.640 Y66.411 E116.48647
G0 F10500 X96.793 Y65.504
G1 F1500 X98.185 Y66.895 E116.58479
G0 F10500 X98.268 Y65.917
G1 F1500 X96.894 Y64.543 E116.68188
G0 F10500 X96.993 Y63.582
G1 F1500 X98.239 Y64.828 E116.76993
G0 F10500 X98.130 Y63.659
G1 F1500 X97.557 Y62.555 E116.84335
G1 X97.544 Y61.482 E116.90426
G1 X97.514 Y60.391 E116.95595
G1 X97.464 Y59.280 E117.00122
G1 X97.433 Y58.189 E117.04020
G1 X97.456 Y57.152 E117.07309
G1 X97.520 Y56.155 E117.10311
G1 X97.636 Y55.210 E117.13089
G1 X97.833 Y54.346 E117.15527
G1 X98.112 Y53.564 E117.17695
G1 X98.344 Y52.736 E117.19666
G1 X99.034 Y52.365 E117.21414
G1 X99.376 Y51.646 E117.22809
G1 X99.848 Y51.588 E117.25186
G1 F600 E113.75186
G1 Z0.525
G0 F10500 X86.805 Y59.758
G1 Z0.425
G1 F600 E117.25186
G1 F1500 X79.780 Y52.733 E117.74826
G0 F10500 X79.662 Y52.906
G0 X77.045 Y50.877
G0 X75.556 Y48.786
G0 X75.752 Y48.705
G1 F1500 X75.067 Y47.490 E117.81683
G1 X75.084 Y46.446 E117.85586
G1 X75.235 Y45.537 E117.88594
G1 X75.490 Y44.731 E117.91134
G1 X75.773 Y43.953 E117.92954
G1 X76.461 Y43.581 E117.94527
G1 X76.780 Y42.839 E117.96055
G1 X77.503 Y42.502 E117.97602
G1 X78.220 Y42.157 E117.99394
G1 X79.067 Y41.943 E118.01594
G1 X80.097 Y41.913 E118.04202
G1 X80.922 Y42.207 E118.08578
G0 F10500 X81.991 Y42.216
G1 F1500 X83.669 Y43.895 E118.20439
G1 F600 E114.70439
G1 Z0.525
G0 F10500 X84.060 Y55.953
G1 Z0.425
G1 F600 E118.20439
G1 F1500 X84.635 Y56.527 E118.24498
G1 F600 E114.74498
G1 Z0.525
G0 F10500 X100.375 Y51.055
G1 Z0.425
G1 F600 E118.24498
G1 F1500 X100.858 Y51.007 E118.25773
G1 X101.350 Y50.968 E118.28239
;LAYER:1
M106 S255
G0 F10500 X101.750 Y51.146 Z0.675
;TYPE:WALL-OUTER
G1 F1500 X101.238 Y51.288 E118.29488
G1 X100.630 Y51.504 E118.31005
G1 X100.115 Y51.763 E118.32360
G1 X99.968 Y51.849 E118.32761
G1 X99.543 Y52.186 E118.34036
G1 X99.177 Y52.603 E118.35341
G1 X98.849 Y53.114 E118.36769
G1 X98.587 Y53.659 E118.38190
G1 X98.339 Y54.329 E118.39870
G1 X98.118 Y55.284 E118.42175
G1 X97.995 Y56.445 E118.44920
G1 X97.963 Y57.766 E118.48027
G1 X98.040 Y59.134 E118.51249
G1 X98.166 Y60.508 E118.54493
G1 X98.381 Y62.926 E118.60201
G1 X98.498 Y64.156 E118.63106
G1 X98.568 Y65.301 E118.65804
G1 X98.572 Y65.416 E118.66074
G1 X98.537 Y66.412 E118.68418
G1 X98.535 Y66.477 E118.68570
G1 X98.373 Y67.557 E118.71138
G1 X98.076 Y68.622 E118.73738
G1 X98.053 Y68.701 E118.73931
G1 X97.662 Y69.583 E118.76200
G1 X97.571 Y69.775 E118.76700
G1 X97.103 Y70.421 E118.78575
G1 X96.936 Y70.644 E118.79230
G1 X96.069 Y71.443 E118.82003
G1 X94.902 Y72.271 E118.85367
G1 X93.962 Y72.790 E118.87892
G1 X93.523 Y73.031 E118.89069
G1 X92.286 Y73.517 E118.92194
G1 X90.775 Y74.043 E118.95956
G1 X90.063 Y74.324 E118.97756
G1 X89.734 Y74.459 E118.98592
G1 X89.237 Y75.102 E119.00503
G1 X90.202 Y75.484 E119.02944
G1 X91.316 Y75.856 E119.05705
G1 X91.975 Y76.163 E119.07415
G1 X92.496 Y76.420 E119.08780
G1 X92.990 Y76.724 E119.10144
G1 X93.630 Y77.114 E119.11907
G1 X94.702 Y77.930 E119.15074
G1 X95.723 Y78.698 E119.18078
G1 X96.692 Y79.250 E119.20701
G1 X97.588 Y79.613 E119.22974
G1 X98.292 Y79.788 E119.24679
G1 X98.397 Y79.819 E119.24937
G1 X99.145 Y79.860 E119.26698
G1 X99.212 Y79.865 E119.26856
G1 X100.054 Y79.768 E119.28849
G1 X100.111 Y79.760 E119.28985
G1 X101.048 Y79.452 E119.31304
G1 X102.022 Y78.885 E119.33954
G1 X102.898 Y78.250 E119.36498
G1 X103.593 Y77.699 E119.38583
G1 X104.202 Y77.172 E119.40477
G1 X104.807 Y76.607 E119.42423
G1 X105.438 Y75.991 E119.44497
G1 X106.121 Y75.311 E119.46763
G1 X106.846 Y74.643 E119.49081
G1 X107.036 Y74.472 E119.49682
G1 X107.804 Y73.929 E119.51893
G1 X108.387 Y73.631 E119.53433
G1 X108.654 Y73.491 E119.54142
G1 X109.298 Y73.271 E119.55742
G1 X109.635 Y73.151 E119.56583
G1 X110.324 Y73.056 E119.58218
G1 X110.730 Y72.997 E119.59183
G1 X111.965 Y73.112 E119.62100
G1 X112.454 Y73.268 E119.63306
G1 X113.188 Y73.496 E119.65114
G1 X113.614 Y73.759 E119.66291
G1 X114.247 Y74.142 E119.68030
G1 X114.745 Y74.597 E119.69617
G1 X115.088 Y74.914 E119.70715
G1 X115.637 Y75.658 E119.72889
G1 X115.987 Y76.376 E119.74767
G1 X116.200 Y77.020 E119.76362
G1 X116.306 Y77.641 E119.77843
G1 X116.327 Y78.279 E119.79344
G1 X116.274 Y78.915 E119.80845
G1 X116.149 Y79.560 E119.82390
G1 X115.988 Y80.048 E119.83598
G1 X115.950 Y80.163 E119.83883
G1 X115.703 Y80.646 E119.85158
G1 X115.657 Y80.734 E119.85392
G1 X115.330 Y81.203 E119.86736
G1 X114.901 Y81.687 E119.88257
G1 X114.379 Y82.109 E119.89835
G1 X113.804 Y82.416 E119.91368
G1 X113.108 Y82.643 E119.93089
G1 X112.290 Y82.775 E119.95037
G1 X111.437 Y82.777 E119.97043
G1 X110.641 Y82.620 E119.98951
G1 X109.877 Y82.295 E120.00903
G1 X109.148 Y81.786 E120.02994
G1 X108.553 Y81.169 E120.05009
G1 X108.179 Y80.510 E120.06791
G1 X107.976 Y79.856 E120.08401
G1 X107.915 Y79.291 E120.09737
G1 X107.924 Y79.177 E120.10006
G1 X108.063 Y79.550 E120.10942
G1 X108.308 Y80.094 E120.12345
G1 X108.453 Y80.384 E120.13107
G1 X108.875 Y80.958 E120.14782
G1 X109.466 Y81.445 E120.16583
G1 X110.138 Y81.818 E120.18390
G1 X110.827 Y82.070 E120.20115
G1 X111.530 Y82.199 E120.21796
G1 X112.102 Y82.198 E120.23141
G1 X112.235 Y82.196 E120.23453
G1 X112.865 Y82.088 E120.24956
G1 X113.361 Y81.897 E120.26206
G1 X113.778 Y81.631 E120.27369
G1 X114.195 Y81.290 E120.28636
G1 X114.591 Y80.873 E120.29988
G1 X114.926 Y80.387 E120.31376
G1 X115.189 Y79.883 E120.32712
G1 X115.375 Y79.395 E120.33940
G1 X115.495 Y78.915 E120.35104
G1 X115.563 Y78.430 E120.36255
G1 X115.572 Y77.947 E120.37391
G1 X115.519 Y77.476 E120.38506
G1 X115.365 Y76.965 E120.39761
G1 X115.077 Y76.358 E120.41340
G1 X114.586 Y75.698 E120.43275
G1 X113.834 Y75.045 E120.45616
G1 X112.914 Y74.502 E120.48128
G1 X112.307 Y74.306 E120.49628
G1 X111.914 Y74.177 E120.50601
G1 X110.902 Y74.101 E120.52987
G1 X109.979 Y74.302 E120.55208
G1 X109.191 Y74.631 E120.57216
G1 X108.529 Y74.959 E120.58953
G1 X107.909 Y75.356 E120.60684
G1 X107.278 Y75.875 E120.62605
G1 X105.738 Y77.261 E120.67477
G1 X104.869 Y78.057 E120.70248
G1 X104.101 Y78.788 E120.72741
G1 X103.315 Y79.491 E120.75220
G1 X102.423 Y80.169 E120.77855
G1 X101.477 Y80.779 E120.80501
G1 X100.473 Y81.304 E120.83165
G1 X99.469 Y81.687 E120.85692
G1 X98.513 Y81.890 E120.87990
G1 X97.544 Y81.945 E120.90272
G1 X96.578 Y81.862 E120.92552
G1 X95.666 Y81.671 E120.94743
G1 X94.897 Y81.410 E120.96652
G1 X94.024 Y81.030 E120.98891
G1 X93.561 Y80.826 E121.00081
G1 X92.832 Y80.496 E121.01962
G1 X91.574 Y80.056 E121.05096
G1 X90.960 Y80.007 E121.06544
G1 X90.560 Y79.981 E121.07487
G1 X89.841 Y80.136 E121.09216
G1 X89.355 Y80.389 E121.10504
G1 X89.116 Y80.858 E121.11742
G1 X89.205 Y80.995 E121.12126
G1 X89.312 Y81.264 E121.12807
G1 X89.627 Y81.613 E121.13912
G1 X89.960 Y81.902 E121.14949
G1 X90.466 Y82.457 E121.16715
G1 X90.546 Y82.540 E121.16986
G1 X92.766 Y85.447 E121.25587
G1 X93.707 Y86.604 E121.29093
G1 X94.888 Y87.914 E121.33240
G1 X95.267 Y88.300 E121.34512
G1 X95.866 Y88.824 E121.36384
G1 X96.637 Y89.528 E121.38839
G1 X97.612 Y90.247 E121.41687
G1 X98.043 Y90.577 E121.42964
G1 X99.297 Y91.370 E121.46452
G1 X100.725 Y92.162 E121.50292
G1 X101.864 Y92.693 E121.53247
G1 X102.924 Y93.197 E121.56006
G1 X104.016 Y93.849 E121.58997
G1 X104.960 Y94.516 E121.61715
G1 X105.593 Y95.072 E121.63696
G1 X106.027 Y95.609 E121.65319
G1 X106.304 Y96.104 E121.66653
G1 X106.368 Y96.218 E121.66960
G1 X106.570 Y96.736 E121.68268
G1 X106.620 Y96.861 E121.68584
G1 X106.760 Y97.373 E121.69832
G1 X106.887 Y98.078 E121.71517
G1 X106.912 Y98.232 E121.71883
G1 X106.973 Y98.970 E121.73625
G1 X106.991 Y99.172 E121.74102
G1 X106.976 Y99.953 E121.75938
G1 X106.973 Y100.173 E121.76456
G1 X106.843 Y100.902 E121.78197
G1 X106.808 Y101.110 E121.78693
G1 X106.581 Y101.794 E121.80387
G1 X106.517 Y101.990 E121.80872
G1 X106.120 Y102.807 E121.83008
G1 X105.653 Y103.484 E121.84942
G1 X105.132 Y103.978 E121.86630
G1 X104.519 Y104.375 E121.88347
G1 X103.779 Y104.750 E121.90298
G1 X102.980 Y105.019 E121.92280
G1 X102.108 Y105.132 E121.94348
G1 X101.273 Y105.108 E121.96312
G1 X100.583 Y104.969 E121.97967
G1 X99.935 Y104.703 E121.99614
G1 X99.232 Y104.281 E122.01542
G1 X98.579 Y103.753 E122.03516
G1 X98.079 Y103.166 E122.05329
G1 X97.723 Y102.539 E122.07025
G1 X97.508 Y101.894 E122.08623
G1 X97.421 Y101.182 E122.10310
G1 X97.447 Y100.362 E122.12239
G1 X97.611 Y99.542 E122.14205
G1 X97.927 Y98.813 E122.16073
G1 X98.410 Y98.151 E122.18000
G1 X99.072 Y97.562 E122.20084
G1 X99.819 Y97.123 E122.22121
G1 X100.559 Y96.909 E122.23932
G1 X101.251 Y96.846 E122.25566
G1 X101.494 Y96.855 E122.26138
G1 X101.254 Y96.874 E122.26704
G1 X100.610 Y97.031 E122.28263
G1 X99.931 Y97.337 E122.30014
G1 X99.304 Y97.824 E122.31880
G1 X98.772 Y98.414 E122.33748
G1 X98.357 Y99.046 E122.35526
G1 X98.071 Y99.721 E122.37250
G1 X97.928 Y100.424 E122.38937
G1 X97.910 Y101.080 E122.40480
G1 X98.007 Y101.623 E122.41777
G1 X98.219 Y102.121 E122.43049
G1 X98.543 Y102.667 E122.44542
G1 X98.984 Y103.211 E122.46189
G1 X99.536 Y103.681 E122.47894
G1 X100.119 Y104.044 E122.49508
G1 X100.672 Y104.273 E122.50916
G1 X101.242 Y104.392 E122.52285
G1 X101.884 Y104.436 E122.53798
G1 X102.584 Y104.366 E122.55452
G1 X103.104 Y104.207 E122.56731
G1 X103.304 Y104.141 E122.57226
G1 X103.783 Y103.914 E122.58472
G1 X103.967 Y103.824 E122.58954
G1 X104.523 Y103.460 E122.60516
G1 X104.996 Y103.006 E122.62058
G1 X105.394 Y102.440 E122.63685
G1 X105.707 Y101.818 E122.65322
G1 X105.924 Y101.182 E122.66902
G1 X106.037 Y100.488 E122.68556
G1 X106.042 Y99.887 E122.69969
G1 X106.042 Y99.704 E122.70399
G1 X105.983 Y99.112 E122.71798
G1 X105.867 Y98.492 E122.73281
G1 X105.835 Y98.351 E122.73621
G1 X105.639 Y97.815 E122.74963
G1 X105.369 Y97.242 E122.76452
G1 X105.060 Y96.798 E122.77724
G1 X104.977 Y96.680 E122.78064
G1 X104.444 Y96.202 E122.79747
G1 X103.726 Y95.774 E122.81712
G1 X102.771 Y95.333 E122.84186
G1 X101.657 Y94.939 E122.86964
G1 X100.493 Y94.673 E122.89772
G1 X99.176 Y94.345 E122.92963
G1 X98.421 Y94.076 E122.94847
G1 X97.638 Y93.795 E122.96804
G1 X96.159 Y93.178 E123.00572
G1 X94.773 Y92.548 E123.04151
G1 X94.050 Y92.186 E123.06053
G1 X93.396 Y91.847 E123.07785
G1 X92.446 Y91.330 E123.10328
G1 X91.487 Y90.801 E123.12903
G1 X91.075 Y90.565 E123.14019
G1 X90.154 Y90.142 E123.16402
G1 X89.914 Y90.021 E123.17034
G1 X89.040 Y89.869 E123.19120
G1 X88.932 Y89.846 E123.19380
G1 X88.242 Y90.007 E123.21046
G1 X88.105 Y90.031 E123.21373
G1 X87.586 Y90.429 E123.22911
G1 X87.438 Y90.512 E123.23310
G1 X87.030 Y91.072 E123.24939
G1 X86.910 Y91.201 E123.25353
G1 X86.574 Y91.870 E123.27114
G1 X86.152 Y92.800 E123.29515
G1 X85.855 Y93.425 E123.31142
G1 X85.531 Y93.927 E123.32547
G1 X85.084 Y94.380 E123.34043
G1 X84.552 Y94.767 E123.35590
G1 X83.965 Y95.071 E123.37144
G1 X83.385 Y95.304 E123.38614
G1 X82.889 Y95.472 E123.39845
G1 X82.322 Y95.601 E123.41213
G1 X81.423 Y95.738 E123.43351
G1 X80.766 Y95.966 E123.44986
G1 X80.510 Y96.034 E123.45609
G1 X80.217 Y96.532 E123.46968
G1 X80.085 Y96.706 E123.47481
G1 X80.019 Y97.461 E123.49263
G1 X80.067 Y98.139 E123.50861
G1 X80.227 Y98.829 E123.52527
G1 X80.506 Y99.561 E123.54369
G1 X80.877 Y100.304 E123.56321
G1 X81.299 Y101.023 E123.58282
G1 X81.713 Y101.668 E123.60084
G1 X82.065 Y102.203 E123.61590
G1 X82.446 Y102.701 E123.63064
G1 X82.927 Y103.213 E123.64716
G1 X83.469 Y103.758 E123.66523
G1 X84.029 Y104.346 E123.68432
G1 X84.580 Y104.995 E123.70434
G1 X85.032 Y105.645 E123.72296
G1 X85.369 Y106.379 E123.74195
G1 X85.559 Y107.264 E123.76323
G1 X85.577 Y107.822 E123.77636
G1 X85.596 Y108.358 E123.78897
G1 X85.471 Y109.689 E123.82040
G1 X85.126 Y111.026 E123.85287
G1 X84.771 Y111.681 E123.87039
G1 X84.507 Y112.157 E123.88319
G1 X84.041 Y112.718 E123.90033
G1 X83.726 Y113.091 E123.91181
G1 X83.224 Y113.531 E123.92751
G1 X82.914 Y113.800 E123.93716
G1 X82.056 Y114.287 E123.96036
G1 X81.429 Y114.479 E123.97578
G1 X81.100 Y114.581 E123.98388
G1 X80.401 Y114.631 E124.00035
G1 X80.079 Y114.655 E124.00795
G1 X79.303 Y114.538 E124.02640
G1 X78.992 Y114.489 E124.03380
G1 X78.243 Y114.246 E124.05232
G1 X78.004 Y114.166 E124.05824
G1 X77.423 Y113.857 E124.07372
G1 X77.277 Y113.779 E124.07761
G1 X76.812 Y113.406 E124.09162
G1 X76.708 Y113.321 E124.09478
G1 X76.283 Y112.878 E124.10922
G1 X76.220 Y112.810 E124.11140
G1 X75.815 Y112.232 E124.12799
G1 X75.508 Y111.585 E124.14483
G1 X75.324 Y110.938 E124.16065
G1 X75.298 Y110.851 E124.16278
G1 X75.192 Y110.074 E124.18122
G1 X75.183 Y110.014 E124.18265
G1 X75.227 Y109.159 E124.20278
G1 X75.488 Y108.346 E124.22285
G1 X75.965 Y107.546 E124.24475
G1 X76.638 Y106.757 E124.26914
G1 X77.411 Y106.100 E124.29299
G1 X78.171 Y105.705 E124.31313
G1 X78.902 Y105.508 E124.33093
G1 X79.523 Y105.471 E124.34556
G1 X79.815 Y105.547 E124.35266
G1 X79.781 Y105.606 E124.35426
G1 X79.471 Y105.685 E124.36178
G1 X78.936 Y105.772 E124.37452
G1 X78.873 Y105.784 E124.37603
G1 X78.273 Y106.019 E124.39118
G1 X78.215 Y106.044 E124.39267
G1 X77.601 Y106.473 E124.41028
G1 X77.567 Y106.507 E124.41141
G1 X77.018 Y107.134 E124.43101
G1 X76.552 Y107.884 E124.45177
G1 X76.218 Y108.649 E124.47140
G1 X76.023 Y109.402 E124.48968
G1 X75.972 Y110.165 E124.50767
G1 X76.052 Y110.828 E124.52337
G1 X76.237 Y111.355 E124.53650
G1 X76.521 Y111.803 E124.54897
G1 X76.895 Y112.256 E124.56279
G1 X77.370 Y112.687 E124.57787
G1 X77.933 Y113.049 E124.59360
G1 X78.587 Y113.335 E124.61039
G1 X79.114 Y113.475 E124.62321
G1 X79.338 Y113.536 E124.62867
G1 X80.160 Y113.613 E124.64808
G1 X81.017 Y113.530 E124.66833
G1 X81.866 Y113.266 E124.68923
G1 X82.664 Y112.807 E124.71088
G1 X83.354 Y112.146 E124.73334
G1 X83.875 Y111.290 E124.75691
G1 X84.207 Y110.335 E124.78068
G1 X84.337 Y109.369 E124.80360
G1 X84.324 Y108.495 E124.82415
G1 X84.221 Y107.791 E124.84088
G1 X84.006 Y107.200 E124.85567
G1 X83.671 Y106.678 E124.87025
G1 X83.228 Y106.178 E124.88596
G1 X82.676 Y105.636 E124.90415
G1 X82.093 Y105.111 E124.92260
G1 X81.565 Y104.673 E124.93873
G1 X80.990 Y104.215 E124.95601
G1 X80.270 Y103.633 E124.97778
G1 X79.504 Y102.955 E125.00183
G1 X78.830 Y102.241 E125.02492
G1 X78.209 Y101.493 E125.04778
G1 X77.662 Y100.781 E125.06889
G1 X77.194 Y100.092 E125.08848
G1 X76.801 Y99.406 E125.10707
G1 X76.421 Y98.563 E125.12881
G1 X75.999 Y97.457 E125.15664
G1 X75.683 Y96.340 E125.18394
G1 X75.618 Y96.111 E125.18953
G1 X75.530 Y95.418 E125.20596
G1 X75.459 Y95.277 E125.20967
G1 X75.347 Y94.651 E125.22463
G1 X74.969 Y94.199 E125.23848
G1 X74.928 Y94.139 E125.24019
G1 X74.500 Y93.774 E125.25341
G1 X74.189 Y93.342 E125.26593
G1 X73.962 Y92.882 E125.27799
G1 X73.649 Y92.135 E125.29704
G1 X73.365 Y91.329 E125.31713
G1 X73.145 Y90.590 E125.33526
G1 X72.932 Y89.897 E125.35231
G1 X72.880 Y89.749 E125.35600
G1 X72.585 Y89.098 E125.37280
G1 X72.007 Y88.463 E125.39299
G1 X71.026 Y87.891 E125.41969
G1 X69.909 Y87.492 E125.44758
G1 X68.856 Y87.363 E125.47253
G1 X67.914 Y87.416 E125.49471
G1 X67.061 Y87.530 E125.51495
G1 X66.263 Y87.702 E125.53414
G1 X65.501 Y87.921 E125.55278
G1 X64.723 Y88.225 E125.57242
G1 X64.255 Y88.468 E125.58482
G1 X63.880 Y88.670 E125.59484
G1 X63.098 Y89.248 E125.61770
G1 X62.505 Y89.953 E125.63936
G1 X62.188 Y90.712 E125.65870
G1 X62.136 Y90.833 E125.66180
G1 X62.012 Y91.854 E125.68598
G1 X62.004 Y91.916 E125.68745
G1 X62.059 Y93.066 E125.71452
G1 X62.254 Y94.170 E125.74088
G1 X62.499 Y95.261 E125.76718
G1 X62.717 Y96.421 E125.79493
G1 X62.869 Y97.648 E125.82400
G1 X62.916 Y98.913 E125.85377
G1 X62.850 Y100.043 E125.88038
G1 X62.686 Y100.810 E125.89882
G1 X62.672 Y100.879 E125.90048
G1 X62.439 Y101.468 E125.91537
G1 X62.098 Y102.153 E125.93336
G1 X62.066 Y102.217 E125.93505
G1 X61.661 Y102.785 E125.95145
G1 X61.618 Y102.847 E125.95322
G1 X61.054 Y103.421 E125.97214
G1 X60.987 Y103.491 E125.97442
G1 X60.325 Y104.008 E125.99417
G1 X60.241 Y104.074 E125.99668
G1 X59.456 Y104.528 E126.01801
G1 X58.685 Y104.826 E126.03744
G1 X57.978 Y104.940 E126.05428
G1 X57.246 Y104.924 E126.07150
G1 X56.425 Y104.819 E126.09096
G1 X55.605 Y104.588 E126.11099
G1 X54.828 Y104.193 E126.13149
G1 X54.149 Y103.700 E126.15122
G1 X53.655 Y103.196 E126.16781
G1 X53.270 Y102.612 E126.18426
G1 X52.925 Y101.866 E126.20358
G1 X52.683 Y101.063 E126.22330
G1 X52.600 Y100.300 E126.24135
G1 X52.661 Y99.580 E126.25834
G1 X52.845 Y98.932 E126.27418
G1 X53.177 Y98.288 E126.29121
G1 X53.658 Y97.631 E126.31036
G1 X54.254 Y97.049 E126.32995
G1 X54.926 Y96.623 E126.34865
G1 X55.698 Y96.348 E126.36792
G1 X56.574 Y96.232 E126.38870
G1 X57.433 Y96.287 E126.40894
G1 X58.162 Y96.525 E126.42697
G1 X58.753 Y96.866 E126.44302
G1 X58.146 Y96.638 E126.45826
G1 X57.411 Y96.509 E126.47581
G1 X56.616 Y96.558 E126.49454
G1 X55.841 Y96.745 E126.51328
G1 X55.141 Y97.036 E126.53111
G1 X54.523 Y97.435 E126.54840
G1 X54.007 Y97.939 E126.56536
G1 X53.625 Y98.478 E126.58090
G1 X53.404 Y98.983 E126.59386
G1 X53.303 Y99.514 E126.60657
G1 X53.265 Y100.147 E126.62148
G1 X53.325 Y100.844 E126.63793
G1 X53.517 Y101.541 E126.65493
G1 X53.796 Y102.170 E126.67111
G1 X54.125 Y102.668 E126.68514
G1 X54.529 Y103.085 E126.69879
G1 X55.034 Y103.482 E126.71390
G1 X55.500 Y103.737 E126.72639
G1 X55.654 Y103.819 E126.73049
G1 X56.213 Y103.989 E126.74423
G1 X56.373 Y104.037 E126.74816
G1 X56.945 Y104.124 E126.76176
G1 X57.098 Y104.146 E126.76539
G1 X57.622 Y104.155 E126.77772
G1 X57.765 Y104.155 E126.78108
G1 X58.408 Y104.046 E126.79641
G1 X58.936 Y103.847 E126.80968
G1 X59.060 Y103.798 E126.81282
G1 X59.557 Y103.509 E126.82634
G1 X59.669 Y103.442 E126.82940
G1 X60.101 Y103.076 E126.84272
G1 X60.192 Y102.997 E126.84555
G1 X60.574 Y102.552 E126.85934
G1 X60.944 Y101.983 E126.87530
G1 X61.219 Y101.388 E126.89071
G1 X61.400 Y100.810 E126.90495
G1 X61.510 Y100.021 E126.92368
G1 X61.515 Y99.067 E126.94612
G1 X61.515 Y98.980 E126.94816
G1 X61.401 Y97.839 E126.97512
G1 X61.115 Y96.545 E127.00628
G1 X60.751 Y95.318 E127.03638
G1 X60.421 Y94.267 E127.06228
G1 X60.098 Y92.904 E127.09522
G1 X60.001 Y91.546 E127.12723
G1 X60.102 Y90.237 E127.15810
G1 X60.420 Y89.162 E127.18446
G1 X61.031 Y88.188 E127.21149
G1 X62.043 Y87.169 E127.24526
G1 X62.549 Y86.766 E127.26047
G1 X63.217 Y86.237 E127.28051
G1 X63.812 Y85.831 E127.29744
G1 X64.294 Y85.517 E127.31097
G1 X64.987 Y85.086 E127.33016
G1 X65.574 Y84.736 E127.34623
G1 X66.357 Y84.237 E127.36806
G1 X67.392 Y83.564 E127.39709
G1 X69.359 Y82.247 E127.45275
G1 X69.872 Y81.914 E127.46713
G1 X70.334 Y81.592 E127.48037
G1 X70.669 Y81.269 E127.49131
G1 X70.865 Y80.831 E127.50260
G1 X70.643 Y80.389 E127.51423
G1 X70.170 Y80.120 E127.52702
G1 X69.467 Y79.892 E127.54440
G1 X68.454 Y79.678 E127.56874
G1 X67.897 Y79.602 E127.58196
G1 X67.106 Y79.476 E127.60079
G1 X66.441 Y79.395 E127.61655
G1 X65.713 Y79.297 E127.63382
G1 X64.547 Y79.155 E127.66144
G1 X63.943 Y79.090 E127.67572
G1 X62.943 Y79.003 E127.69932
G1 X62.052 Y78.951 E127.72031
G1 X61.726 Y78.934 E127.72798
G1 X61.014 Y78.941 E127.74473
G1 X60.378 Y79.021 E127.75980
G1 X59.774 Y79.200 E127.77461
G1 X59.169 Y79.457 E127.79007
G1 X58.511 Y79.777 E127.80727
G1 X55.837 Y81.185 E127.87833
G1 X55.055 Y81.588 E127.89901
G1 X54.308 Y81.950 E127.91853
G1 X53.257 Y82.386 E127.94529
G1 X52.378 Y82.655 E127.96690
G1 X51.531 Y82.876 E127.98748
G1 X50.882 Y83.025 E128.00314
G1 X50.213 Y83.097 E128.01896
G1 X49.681 Y83.093 E128.03147
G1 X49.281 Y83.087 E128.04088
G1 X48.668 Y83.041 E128.05533
G1 X48.353 Y83.014 E128.06277
G1 X47.655 Y82.897 E128.07941
G1 X47.078 Y82.716 E128.09363
G1 X46.460 Y82.441 E128.10953
G1 X45.864 Y82.098 E128.12570
G1 X45.345 Y81.717 E128.14084
G1 X44.871 Y81.218 E128.15702
G1 X44.584 Y80.778 E128.16937
G1 X44.407 Y80.505 E128.17702
G1 X44.029 Y79.731 E128.19728
G1 X43.860 Y79.217 E128.21000
G1 X43.803 Y79.040 E128.21437
G1 X43.718 Y78.528 E128.22657
G1 X43.697 Y78.393 E128.22979
G1 X43.678 Y77.879 E128.24188
G1 X43.673 Y77.716 E128.24572
G1 X43.727 Y77.036 E128.26176
G1 X43.849 Y76.372 E128.27763
G1 X44.052 Y75.734 E128.29337
G1 X44.295 Y75.235 E128.30642
G1 X44.662 Y74.657 E128.32252
G1 X45.100 Y74.138 E128.33849
G1 X45.627 Y73.689 E128.35477
G1 X46.199 Y73.370 E128.37017
G1 X46.894 Y73.136 E128.38741
G1 X47.713 Y72.998 E128.40694
G1 X48.557 Y72.997 E128.42678
G1 X49.355 Y73.165 E128.44596
G1 X50.116 Y73.506 E128.46557
G1 X50.839 Y74.035 E128.48663
G1 X51.436 Y74.683 E128.50735
G1 X51.812 Y75.376 E128.52589
G1 X51.997 Y76.051 E128.54234
G1 X52.011 Y76.482 E128.55248
G1 X51.556 Y75.520 E128.57751
G1 X51.135 Y74.922 E128.59470
G1 X50.544 Y74.412 E128.61306
G1 X49.871 Y74.019 E128.63138
G1 X49.178 Y73.754 E128.64883
G1 X48.471 Y73.620 E128.66575
G1 X47.896 Y73.624 E128.67927
G1 X47.763 Y73.626 E128.68240
G1 X47.178 Y73.732 E128.69637
G1 X46.650 Y73.934 E128.70967
G1 X46.215 Y74.223 E128.72195
G1 X45.800 Y74.579 E128.73480
G1 X45.405 Y75.015 E128.74864
G1 X45.072 Y75.521 E128.76288
G1 X44.810 Y76.046 E128.77668
G1 X44.625 Y76.554 E128.78939
G1 X44.507 Y77.050 E128.80138
G1 X44.440 Y77.554 E128.81333
G1 X44.433 Y78.061 E128.82525
G1 X44.492 Y78.569 E128.83728
G1 X44.660 Y79.143 E128.85134
G1 X44.974 Y79.850 E128.86953
G1 X45.384 Y80.534 E128.88828
G1 X45.843 Y81.019 E128.90398
G1 X46.307 Y81.359 E128.91751
G1 X46.766 Y81.650 E128.93029
G1 X47.235 Y81.888 E128.94265
G1 X47.708 Y82.059 E128.95448
G1 X48.246 Y82.171 E128.96740
G1 X48.908 Y82.237 E128.98304
G1 X49.564 Y82.249 E128.99847
G1 X50.088 Y82.202 E129.01084
G1 X50.902 Y82.014 E129.03049
G1 X51.561 Y81.820 E129.04664
G1 X52.229 Y81.576 E129.06336
G1 X52.897 Y81.277 E129.08057
G1 X53.628 Y80.905 E129.09985
G1 X54.418 Y80.464 E129.12113
G1 X54.877 Y80.192 E129.13367
G1 X55.627 Y79.681 E129.15501
G1 X57.065 Y78.622 E129.19700
G1 X57.803 Y78.143 E129.21769
G1 X58.616 Y77.732 E129.23911
G1 X59.486 Y77.402 E129.26099
G1 X60.406 Y77.150 E129.28342
G1 X61.373 Y76.961 E129.30659
G1 X61.990 Y76.879 E129.32122
G1 X63.019 Y76.738 E129.34564
G1 X64.060 Y76.588 E129.37037
G1 X65.168 Y76.407 E129.39677
G1 X65.735 Y76.304 E129.41032
G1 X66.414 Y76.191 E129.42651
G1 X67.132 Y76.059 E129.44367
G1 X67.943 Y75.899 E129.46311
G1 X68.564 Y75.768 E129.47803
G1 X69.571 Y75.543 E129.50229
G1 X69.799 Y75.481 E129.50785
G1 X70.649 Y75.043 E129.53033
G1 X70.703 Y74.190 E129.55043
G1 X70.386 Y73.433 E129.56973
G1 X70.361 Y73.357 E129.57161
G1 X69.964 Y72.594 E129.59183
G1 X69.391 Y71.724 E129.61633
G1 X68.729 Y70.993 E129.63951
G1 X67.780 Y70.313 E129.66697
G1 X66.437 Y69.698 E129.70170
G1 X65.928 Y69.505 E129.71450
G1 X64.941 Y69.138 E129.73926
G1 X64.213 Y68.875 E129.75746
G1 X63.512 Y68.624 E129.77496
G1 X62.462 Y68.208 E129.80152
G1 X60.468 Y67.306 E129.85298
G1 X58.798 Y66.358 E129.89813
G1 X57.352 Y65.292 E129.94037
G1 X56.082 Y64.128 E129.98088
G1 X55.055 Y62.962 E130.01741
G1 X54.227 Y61.817 E130.05064
G1 X53.606 Y60.794 E130.07878
G1 X53.107 Y59.773 E130.10550
G1 X52.706 Y58.736 E130.13164
G1 X52.462 Y57.820 E130.15393
G1 X52.411 Y57.637 E130.15840
G1 X52.266 Y56.595 E130.18313
G1 X52.245 Y56.446 E130.18667
G1 X52.219 Y55.430 E130.21057
G1 X52.216 Y55.348 E130.21250
G1 X52.323 Y54.600 E130.23027
G1 X52.522 Y53.920 E130.24693
G1 X52.756 Y53.291 E130.26271
G1 X53.061 Y52.663 E130.27912
G1 X53.403 Y52.161 E130.29340
G1 X53.829 Y51.700 E130.30816
G1 X54.356 Y51.265 E130.32423
G1 X54.990 Y50.848 E130.34207
G1 X55.686 Y50.477 E130.36062
G1 X56.376 Y50.202 E130.37808
G1 X56.987 Y50.078 E130.39274
G1 X57.583 Y50.061 E130.40676
G1 X58.213 Y50.119 E130.42164
G1 X58.824 Y50.262 E130.43639
G1 X59.398 Y50.498 E130.45099
G1 X59.965 Y50.814 E130.46625
G1 X60.518 Y51.181 E130.48185
G1 X61.031 Y51.625 E130.49781
G1 X61.526 Y52.219 E130.51599
G1 X61.945 Y52.858 E130.53395
G1 X62.255 Y53.469 E130.55006
G1 X62.438 Y54.055 E130.56450
G1 X62.501 Y54.700 E130.57974
G1 X62.439 Y55.413 E130.59657
G1 X62.243 Y56.221 E130.61612
G1 X61.917 Y57.034 E130.63671
G1 X61.472 Y57.782 E130.65718
G1 X60.884 Y58.433 E130.67780
G1 X60.134 Y58.951 E130.69924
G1 X59.326 Y59.286 E130.71980
G1 X58.578 Y59.387 E130.73755
G1 X57.905 Y59.312 E130.75347
G1 X57.879 Y59.303 E130.75412
G1 X58.147 Y59.292 E130.76043
G1 X58.581 Y59.246 E130.77069
G1 X59.300 Y59.043 E130.78825
G1 X60.013 Y58.647 E130.80743
G1 X60.654 Y58.107 E130.82714
G1 X61.167 Y57.463 E130.84650
G1 X61.549 Y56.767 E130.86517
G1 X61.814 Y56.068 E130.88274
G1 X61.958 Y55.416 E130.89844
G1 X61.973 Y54.867 E130.91136
G1 X61.877 Y54.369 E130.92328
G1 X61.699 Y53.860 E130.93596
G1 X61.443 Y53.327 E130.94986
G1 X61.110 Y52.757 E130.96539
G1 X60.714 Y52.219 E130.98109
G1 X60.292 Y51.815 E130.99483
G1 X59.865 Y51.510 E131.00717
G1 X59.431 Y51.250 E131.01907
G1 X58.960 Y51.058 E131.03102
G1 X58.456 Y50.971 E131.04305
G1 X57.537 Y50.955 E131.06466
G1 X57.413 Y50.961 E131.06758
G1 X56.822 Y51.044 E131.08161
G1 X56.299 Y51.217 E131.09457
G1 X56.183 Y51.258 E131.09746
G1 X55.686 Y51.479 E131.11025
G1 X55.184 Y51.736 E131.12351
G1 X54.717 Y52.054 E131.13679
G1 X54.394 Y52.398 E131.14789
G1 X54.139 Y52.815 E131.15938
G1 X53.918 Y53.323 E131.17241
G1 X53.736 Y53.860 E131.18574
G1 X53.544 Y54.524 E131.20199
G1 X53.434 Y55.290 E131.22019
G1 X53.427 Y55.365 E131.22196
G1 X53.481 Y56.286 E131.24365
G1 X53.687 Y57.286 E131.26766
G1 X54.037 Y58.299 E131.29286
G1 X54.496 Y59.278 E131.31828
G1 X55.039 Y60.161 E131.34266
G1 X55.716 Y61.039 E131.36873
G1 X56.580 Y62.013 E131.39934
G1 X57.573 Y62.970 E131.43177
G1 X58.629 Y63.794 E131.46326
G1 X59.814 Y64.456 E131.49518
G1 X61.028 Y64.866 E131.52531
G1 X61.172 Y64.915 E131.52888
G1 X62.423 Y65.174 E131.55892
G1 X62.604 Y65.212 E131.56327
G1 X63.987 Y65.380 E131.59603
G1 X65.390 Y65.521 E131.62918
G1 X66.832 Y65.725 E131.66343
G1 X67.517 Y65.872 E131.67990
G1 X68.309 Y66.031 E131.69890
G1 X69.802 Y66.460 E131.73542
G1 X71.189 Y66.986 E131.77030
G1 X72.121 Y67.472 E131.79502
G1 X73.159 Y68.071 E131.82319
G1 X74.061 Y68.542 E131.84712
G1 X74.159 Y68.597 E131.84976
G1 X74.900 Y68.838 E131.86808
G1 X75.018 Y68.878 E131.87101
G1 X75.717 Y68.888 E131.88745
G1 X75.833 Y68.884 E131.89018
G1 X76.491 Y68.729 E131.90608
G1 X77.243 Y68.463 E131.92483
G1 X77.932 Y68.158 E131.94255
G1 X78.622 Y67.783 E131.96101
G1 X79.075 Y67.467 E131.97400
G1 X79.544 Y67.107 E131.98790
G1 X79.976 Y66.754 E132.00102
G1 X80.761 Y66.101 E132.02503
G1 X81.167 Y65.749 E132.03766
G1 X81.597 Y65.332 E132.05175
G1 X82.179 Y64.739 E132.07129
G1 X82.937 Y63.676 E132.10198
G1 X83.394 Y62.577 E132.12997
G1 X83.480 Y61.496 E132.15547
G1 X83.337 Y60.515 E132.17878
G1 X83.114 Y59.662 E132.19951
G1 X82.766 Y58.877 E132.21970
G1 X82.263 Y58.132 E132.24084
G1 X81.713 Y57.472 E132.26104
G1 X81.205 Y56.924 E132.27861
G1 X80.625 Y56.341 E132.29794
G1 X79.852 Y55.573 E132.32356
G1 X78.972 Y54.715 E132.35246
G1 X78.076 Y53.867 E132.38147
G1 X77.222 Y53.003 E132.41003
G1 X76.419 Y52.054 E132.43926
G1 X75.722 Y51.090 E132.46724
G1 X75.173 Y50.163 E132.49257
G1 X74.769 Y49.254 E132.51596
G1 X74.516 Y48.367 E132.53765
G1 X74.426 Y47.346 E132.56175
G1 X74.508 Y46.344 E132.58538
G1 X74.531 Y46.083 E132.59155
G1 X74.804 Y45.056 E132.61653
G1 X74.872 Y44.806 E132.62262
G1 X75.368 Y43.936 E132.64617
G1 X75.492 Y43.722 E132.65199
G1 X76.120 Y43.003 E132.67443
G1 X76.271 Y42.834 E132.67976
G1 X76.942 Y42.272 E132.70034
G1 X77.083 Y42.155 E132.70465
G1 X77.937 Y41.691 E132.72750
G1 X78.774 Y41.447 E132.74800
G1 X78.896 Y41.410 E132.75100
G1 X79.820 Y41.351 E132.77277
G1 X79.920 Y41.344 E132.77513
G1 X80.930 Y41.501 E132.79916
G1 X81.003 Y41.515 E132.80091
G1 X81.973 Y41.833 E132.82491
G1 X82.558 Y42.154 E132.84060
G1 X82.689 Y42.228 E132.84414
G1 X83.216 Y42.675 E132.86039
G1 X83.667 Y43.188 E132.87645
G1 X84.001 Y43.722 E132.89126
G1 X84.026 Y43.760 E132.89233
G1 X84.263 Y44.345 E132.90717
G1 X84.285 Y44.398 E132.90852
G1 X84.451 Y45.133 E132.92624
G1 X84.526 Y45.971 E132.94602
G1 X84.462 Y46.806 E132.96571
G1 X84.219 Y47.530 E132.98367
G1 X83.795 Y48.191 E133.00213
G1 X83.209 Y48.776 E133.02160
G1 X82.528 Y49.213 E133.04063
G1 X81.832 Y49.423 E133.05772
G1 X81.156 Y49.476 E133.07366
G1 X80.577 Y49.432 E133.08732
G1 X80.235 Y49.337 E133.09566
G1 X80.201 Y49.304 E133.09678
G1 X80.207 Y49.268 E133.09764
G1 X80.230 Y49.253 E133.09828
G1 X81.067 Y49.202 E133.11800
G1 X81.664 Y49.062 E133.13242
G1 X82.260 Y48.772 E133.14800
G1 X82.778 Y48.298 E133.16451
G1 X83.195 Y47.731 E133.18106
G1 X83.503 Y47.124 E133.19707
G1 X83.692 Y46.474 E133.21298
G1 X83.743 Y45.798 E133.22892
G1 X83.682 Y45.171 E133.24373
G1 X83.527 Y44.659 E133.25631
G1 X83.280 Y44.210 E133.26836
G1 X82.943 Y43.754 E133.28169
G1 X82.530 Y43.336 E133.29551
G1 X81.994 Y42.958 E133.31093
G1 X81.383 Y42.676 E133.32676
G1 X80.641 Y42.468 E133.34488
G1 X79.837 Y42.388 E133.36387
G1 X78.986 Y42.466 E133.38397
G1 X78.138 Y42.718 E133.40477
G1 X77.343 Y43.159 E133.42614
G1 X76.650 Y43.790 E133.44818
G1 X76.127 Y44.613 E133.47111
G1 X75.793 Y45.528 E133.49401
G1 X75.663 Y46.454 E133.51600
G1 X75.679 Y47.292 E133.53571
G1 X75.793 Y47.964 E133.55173
G1 X76.032 Y48.553 E133.56668
G1 X76.408 Y49.129 E133.58285
G1 X76.741 Y49.544 E133.59537
G1 X77.322 Y50.239 E133.61666
G1 X78.018 Y50.983 E133.64062
G1 X78.176 Y51.145 E133.64594
G1 X78.769 Y51.630 E133.66395
G1 X79.592 Y52.220 E133.68776
G1 X80.610 Y52.910 E133.71668
G1 X81.666 Y53.632 E133.74676
G1 X82.537 Y54.267 E133.77210
G1 X83.307 Y54.883 E133.79529
G1 X84.129 Y55.598 E133.82091
G1 X85.009 Y56.479 E133.85019
G1 X85.935 Y57.589 E133.88417
G1 X86.091 Y57.779 E133.88996
G1 X86.757 Y58.892 E133.92045
G1 X86.882 Y59.103 E133.92622
G1 X87.300 Y60.336 E133.95683
G1 X87.380 Y60.578 E133.96282
G1 X87.582 Y61.854 E133.99320
G1 X87.619 Y62.095 E133.99893
G1 X87.629 Y63.346 E134.02835
G1 X87.632 Y63.563 E134.03345
G1 X87.523 Y64.612 E134.05825
G1 X87.493 Y64.934 E134.06586
G1 X87.375 Y65.630 E134.08245
G1 X87.282 Y66.165 E134.09522
G1 X87.198 Y66.699 E134.10793
G1 X87.126 Y67.161 E134.11893
G1 X87.184 Y67.896 E134.13626
G1 X87.625 Y68.358 E134.15128
G1 X87.714 Y68.456 E134.15439
G1 X88.765 Y69.004 E134.18226
G1 X90.066 Y69.463 E134.21470
G1 X91.352 Y69.705 E134.24547
G1 X92.514 Y69.753 E134.27282
G1 X93.431 Y69.626 E134.29458
G1 X94.138 Y69.387 E134.31213
G1 X94.688 Y69.094 E134.32678
G1 X95.145 Y68.710 E134.34082
G1 X95.545 Y68.252 E134.35512
G1 X95.978 Y67.567 E134.37417
G1 X96.237 Y66.877 E134.39150
G1 X96.428 Y66.083 E134.41070
G1 X96.459 Y65.950 E134.41392
G1 X96.558 Y65.187 E134.43201
G1 X96.658 Y64.174 E134.45594
G1 X96.783 Y62.943 E134.48503
G1 X96.892 Y61.532 E134.51831
G1 X96.914 Y60.044 E134.55330
G1 X96.900 Y58.528 E134.58895
G1 X96.893 Y58.166 E134.59746
G1 X96.939 Y57.039 E134.62398
G1 X96.953 Y56.663 E134.63283
G1 X97.089 Y55.354 E134.66378
G1 X97.306 Y54.344 E134.68807
G1 X97.584 Y53.541 E134.70805
G1 X97.814 Y53.057 E134.72065
G1 X97.923 Y52.823 E134.72672
G1 X98.215 Y52.381 E134.73917
G1 X98.323 Y52.215 E134.74383
G1 X98.804 Y51.700 E134.76040
G1 X99.378 Y51.255 E134.77748
G1 X100.047 Y50.875 E134.79557
G1 X100.790 Y50.577 E134.81439
G1 X101.593 Y50.378 E134.83384
G1 X102.369 Y50.296 E134.85219
G1 X103.039 Y50.340 E134.86798
G1 X103.672 Y50.487 E134.88326
G1 X104.311 Y50.708 E134.89916
G1 X104.911 Y51.004 E134.91489
G1 X105.450 Y51.378 E134.93031
G1 X105.935 Y51.815 E134.94566
G1 X106.377 Y52.301 E134.96111
G1 X106.737 Y52.865 E134.97684
G1 X107.002 Y53.574 E134.99464
G1 X107.170 Y54.331 E135.01287
G1 X107.232 Y55.007 E135.02883
G1 X107.179 Y55.634 E135.04363
G1 X106.995 Y56.258 E135.05893
G1 X106.667 Y56.897 E135.07581
G1 X106.181 Y57.567 E135.09528
G1 X105.577 Y58.181 E135.11553
G1 X104.885 Y58.670 E135.13545
G1 X104.095 Y59.030 E135.15586
G1 X103.192 Y59.254 E135.17774
G1 X102.677 Y59.282 E135.18987
G1 X102.319 Y59.296 E135.19829
G1 X101.594 Y59.121 E135.21583
G1 X100.985 Y58.796 E135.23206
G1 X100.974 Y58.787 E135.23239
G1 X101.652 Y59.001 E135.24911
G1 X102.406 Y59.067 E135.26691
G1 X103.217 Y58.925 E135.28627
G1 X104.001 Y58.640 E135.30588
G1 X104.707 Y58.267 E135.32466
G1 X105.324 Y57.806 E135.34277
G1 X105.838 Y57.267 E135.36028
G1 X106.221 Y56.711 E135.37615
G1 X106.443 Y56.203 E135.38919
G1 X106.542 Y55.695 E135.40136
G1 X106.568 Y55.135 E135.41454
G1 X106.516 Y54.519 E135.42908
G1 X106.381 Y53.859 E135.44492
G1 X106.158 Y53.223 E135.46076
G1 X105.846 Y52.712 E135.47484
G1 X105.491 Y52.303 E135.48757
G1 X105.116 Y51.939 E135.49986
G1 X104.687 Y51.625 E135.51236
G1 X104.198 Y51.395 E135.52507
G1 X103.678 Y51.227 E135.53792
G1 X103.111 Y51.092 E135.55162
G1 X102.466 Y51.043 E135.56683
G1 X101.750 Y51.146 E135.58384
G0 F10500 X101.241 Y51.069
;TYPE:SKIN
G1 F1500 X102.020 Y50.713 E135.60036
G1 X102.879 Y50.703 E135.61133
G1 X103.590 Y50.840 E135.61962
G1 X104.227 Y51.052 E135.62680
G1 X104.794 Y51.334 E135.63283
G1 X105.370 Y51.607 E135.63820
G1 X105.645 Y52.180 E135.64360
G1 X106.205 Y52.468 E135.64931
G1 X106.435 Y53.087 E135.65544
G1 X106.666 Y53.704 E135.66200
G1 X106.820 Y54.399 E135.66900
G1 X106.867 Y55.201 E135.67665
G1 X106.750 Y55.742 E135.68966
G1 F600 E132.18966
G1 Z0.775
G0 F10500 X100.571 Y50.890
G1 Z0.675
G1 F600 E135.68966
G1 F1500 X99.552 Y51.910 E135.72356
G0 F10500 X99.168 Y52.294
G1 F1500 X97.745 Y53.716 E135.77087
G0 F10500 X98.191 Y54.119
G1 F1500 X97.653 Y55.081 E135.79722
G1 X97.523 Y56.059 E135.81949
G1 X97.461 Y56.970 E135.84117
G1 X97.440 Y57.839 E135.86273
G1 X97.456 Y58.671 E135.88448
G1 X97.490 Y59.486 E135.90744
G1 X97.528 Y60.297 E135.93222
G1 X97.107 Y61.142 E135.95442
G0 F10500 X97.063 Y62.035
G1 F1500 X98.007 Y61.091 E135.98581
G0 F10500 X98.078 Y61.869
G1 F1500 X96.992 Y62.955 E136.02192
G0 F10500 X96.897 Y63.898
G1 F1500 X98.149 Y62.646 E136.06356
G0 F10500 X98.219 Y63.424
G1 F1500 X96.802 Y64.841 E136.11067
G0 F10500 X96.690 Y65.802
G1 F1500 X98.290 Y64.202 E136.16388
G0 F10500 X98.340 Y65.001
G1 F1500 X96.449 Y66.892 E136.22676
G0 F10500 X96.634 Y66.937
G0 X98.095 Y66.730
G0 X98.279 Y66.759
G1 F1500 X91.453 Y73.585 E136.45374
G0 F10500 X92.796 Y73.090
G1 F1500 X98.085 Y67.801 E136.62962
G0 F10500 X97.653 Y69.082
G1 F1500 X94.463 Y72.272 E136.73569
G0 F10500 X94.373 Y72.107
G0 X93.587 Y69.996
G0 X93.527 Y69.814
G1 F1500 X73.220 Y90.121 E137.41095
G0 F10500 X72.996 Y89.496
G1 F1500 X92.529 Y69.963 E138.06048
G0 F10500 X91.714 Y69.930
G1 F1500 X72.716 Y88.928 E138.69221
G0 F10500 X72.311 Y88.484
G1 F1500 X90.952 Y69.843 E139.31208
G0 F10500 X90.238 Y69.709
G1 F1500 X71.830 Y88.116 E139.92418
G0 F10500 X71.294 Y87.804
G1 F1500 X89.583 Y69.515 E140.53233
G0 F10500 X88.956 Y69.294
G1 F1500 X70.699 Y87.551 E141.13943
G0 F10500 X70.073 Y87.328
G1 F1500 X88.367 Y69.034 E141.74775
G0 F10500 X87.810 Y68.742
G1 F1500 X69.343 Y87.210 E142.36185
G0 F10500 X68.534 Y87.170
G1 F1500 X87.339 Y68.365 E142.98716
G0 F10500 X86.972 Y67.884
G1 F1500 X67.612 Y87.243 E143.63092
G0 F10500 X66.592 Y87.415
G1 F1500 X86.923 Y67.083 E144.30699
G0 F10500 X87.083 Y66.075
G1 F1500 X65.439 Y87.720 E145.02673
G0 F10500 X65.387 Y87.537
G0 X63.790 Y88.264
G0 X63.879 Y88.431
G1 F1500 X87.258 Y65.052 E145.80415
G0 F10500 X87.364 Y64.097
G1 F1500 X70.944 Y80.517 E146.35016
G0 F10500 X70.530 Y80.083
G1 F1500 X87.418 Y63.195 E146.91173
G0 F10500 X87.410 Y62.354
G1 F1500 X69.939 Y79.825 E147.49268
G0 F10500 X69.279 Y79.637
G1 F1500 X87.326 Y61.589 E148.09281
G0 F10500 X87.211 Y60.857
G1 F1500 X68.579 Y79.488 E148.71236
G0 F10500 X67.839 Y79.379
G1 F1500 X81.569 Y65.649 E149.16892
G0 F10500 X82.043 Y65.176
G1 F1500 X87.027 Y60.192 E149.33465
G0 F10500 X86.812 Y59.558
G1 F1500 X83.497 Y62.873 E149.44488
G0 F10500 X83.660 Y61.861
G1 F1500 X86.555 Y58.967 E149.54113
G0 F10500 X86.238 Y58.436
G1 F1500 X83.626 Y61.047 E149.62797
G0 F10500 X83.502 Y60.322
G1 F1500 X85.920 Y57.904 E149.70838
G0 F10500 X85.535 Y57.441
G1 F1500 X83.326 Y59.650 E149.78183
G0 F10500 X83.074 Y59.054
G1 F1500 X85.150 Y56.977 E149.85088
G0 F10500 X84.756 Y56.523
G1 F1500 X82.770 Y58.509 E149.91692
G0 F10500 X82.428 Y58.002
G1 F1500 X84.332 Y56.099 E149.98022
G0 F10500 X83.903 Y55.679
G1 F1500 X82.042 Y57.540 E150.04210
G0 F10500 X81.644 Y57.089
G1 F1500 X83.449 Y55.285 E150.10211
G0 F10500 X82.988 Y54.896
G1 F1500 X81.231 Y56.654 E150.16055
G0 F10500 X80.806 Y56.230
G1 F1500 X82.517 Y54.519 E150.21744
G0 F10500 X82.031 Y54.157
G1 F1500 X80.381 Y55.806 E150.27229
G0 F10500 X79.956 Y55.383
G1 F1500 X81.540 Y53.799 E150.32497
G0 F10500 X81.035 Y53.456
G1 F1500 X79.527 Y54.964 E150.37511
G0 F10500 X79.097 Y54.545
G1 F1500 X80.530 Y53.112 E150.42276
G0 F10500 X80.025 Y52.769
G1 F1500 X78.661 Y54.133 E150.46812
G0 F10500 X78.225 Y53.720
G1 F1500 X79.520 Y52.425 E150.51118
G0 F10500 X79.025 Y52.072
G1 F1500 X77.804 Y53.293 E150.55178
G0 F10500 X77.382 Y52.866
G1 F1500 X78.537 Y51.711 E150.59019
G0 F10500 X78.070 Y51.330
G1 F1500 X76.993 Y52.407 E150.62600
G0 F10500 X76.604 Y51.947
G1 F1500 X77.652 Y50.899 E150.66085
G0 F10500 X77.242 Y50.461
G1 F1500 X76.246 Y51.456 E150.69395
G0 F10500 X75.891 Y50.963
G1 F1500 X76.851 Y50.003 E150.72588
G0 F10500 X76.466 Y49.539
G1 F1500 X75.575 Y50.430 E150.75550
G0 F10500 X75.277 Y49.880
G1 F1500 X75.947 Y48.785 E150.78302
G1 X74.914 Y48.970 E150.80873
G1 X75.515 Y47.520 E150.83376
G1 X74.671 Y47.515 E150.85956
G1 X75.473 Y46.290 E150.89399
G0 F10500 X74.733 Y46.181
G1 F1500 X75.673 Y45.242 E150.92523
G0 F10500 X75.025 Y45.041
G1 F1500 X78.247 Y41.819 E151.03237
G0 F10500 X78.534 Y42.381
G1 F1500 X79.441 Y41.897 E151.05856
G1 X80.274 Y41.912 E151.07877
G1 X81.225 Y41.810 E151.09612
G1 X81.398 Y42.486 E151.11149
G1 X82.406 Y42.326 E151.12581
G1 X82.506 Y43.075 E151.13928
G1 X83.316 Y43.113 E151.15161
G1 X83.335 Y43.943 E151.16332
G1 X83.961 Y44.165 E151.17428
G1 X84.009 Y44.965 E151.18433
G1 X84.116 Y45.707 E151.19488
G1 X84.062 Y46.610 E151.20817
G1 X83.495 Y47.602 E151.23504
G1 F600 E147.73504
G1 Z0.775
G0 F10500 X78.024 Y68.346
G1 Z0.675
G1 F600 E151.23504
G1 F1500 X67.106 Y79.264 E151.59809
G0 F10500 X66.352 Y79.170
G1 F1500 X69.834 Y75.688 E151.71388
G0 F10500 X68.729 Y75.944
G1 F1500 X65.602 Y79.071 E151.81786
G0 F10500 X64.845 Y78.979
G1 F1500 X67.656 Y76.168 E151.91133
G0 F10500 X66.609 Y76.367
G1 F1500 X64.084 Y78.892 E151.99530
G0 F10500 X63.304 Y78.824
G1 F1500 X65.584 Y76.543 E152.07113
G0 F10500 X64.562 Y76.717
G1 F1500 X62.511 Y78.768 E152.13933
G0 F10500 X61.707 Y78.723
G1 F1500 X63.563 Y76.868 E152.20103
G0 F10500 X62.578 Y77.004
G1 F1500 X60.831 Y78.751 E152.25912
G0 F10500 X59.745 Y78.988
G1 F1500 X61.593 Y77.141 E152.32056
G0 F10500 X60.552 Y77.333
G1 F1500 X58.166 Y79.719 E152.39990
G0 F10500 X57.784 Y78.404
G1 F1500 X54.628 Y81.559 E152.50483
G0 F10500 X54.945 Y80.395
G1 F1500 X53.137 Y82.202 E152.56493
G0 F10500 X53.064 Y81.426
G1 F1500 X51.939 Y82.551 E152.60234
G0 F10500 X51.623 Y82.020
G1 F1500 X50.644 Y82.574 E152.62897
G1 X49.700 Y82.669 E152.64741
G1 X48.879 Y82.641 E152.66083
G1 X48.117 Y82.555 E152.67309
G1 X47.433 Y82.390 E152.68434
G1 X46.678 Y82.297 E152.69466
G1 X46.439 Y81.687 E152.70488
G1 X45.629 Y81.649 E152.71530
G1 X45.484 Y80.945 E152.72519
G1 X44.823 Y80.758 E152.73477
G1 X44.945 Y80.212 E152.74792
G0 F10500 X44.784 Y80.308
G0 X46.026 Y81.772
G0 X48.170 Y82.665
G0 X51.028 Y82.498
G0 X54.666 Y80.897
G0 X56.299 Y80.491
G0 X56.383 Y80.654
G1 F1500 X59.366 Y77.670 E152.84713
G1 F600 E149.34713
G1 Z0.775
G0 F10500 X49.253 Y73.358
G1 Z0.675
G1 F600 E152.84713
G1 F1500 X48.821 Y73.366 E152.85255
G1 X48.028 Y73.310 E152.85919
G1 X47.445 Y73.469 E152.87340
G0 F10500 X46.617 Y73.449
G1 F1500 X44.243 Y75.823 E152.95234
G0 F10500 X44.424 Y76.490
G1 F1500 X44.092 Y77.247 E152.96792
G1 X44.071 Y78.115 E152.97918
G1 X44.182 Y78.853 E152.98916
G1 X44.388 Y79.495 E152.99877
G1 X44.367 Y79.941 E153.00927
G0 F10500 X44.536 Y79.859
G0 X44.480 Y79.922
G0 X46.026 Y81.772
G0 X48.170 Y82.665
G0 X51.028 Y82.498
G0 X55.145 Y80.614
G0 X64.135 Y77.081
G0 X69.981 Y75.948
G0 X71.104 Y75.340
G0 X71.204 Y74.106
G0 X69.785 Y71.415
G0 X68.031 Y69.880
G0 X57.604 Y64.980
G0 X57.483 Y65.128
G1 F1500 X58.597 Y64.014 E153.04632
G0 F10500 X58.110 Y63.653
G1 F1500 X57.041 Y64.722 E153.08186
G0 F10500 X56.598 Y64.316
G1 F1500 X57.632 Y63.282 E153.11625
G0 F10500 X57.182 Y62.884
G1 F1500 X56.164 Y63.901 E153.15008
G0 F10500 X55.767 Y63.450
G1 F1500 X56.750 Y62.467 E153.18277
G0 F10500 X56.326 Y62.043
G1 F1500 X55.369 Y62.999 E153.21457
G0 F10500 X54.998 Y62.522
G1 F1500 X55.927 Y61.593 E153.24547
G0 F10500 X55.530 Y61.142
G1 F1500 X54.642 Y62.030 E153.27499
G0 F10500 X54.297 Y61.526
G1 F1500 X55.160 Y60.663 E153.30369
G0 F10500 X54.800 Y60.174
G1 F1500 X53.825 Y60.725 E153.33108
G1 X54.328 Y59.373 E153.35776
G1 X53.269 Y59.584 E153.38383
G1 X53.793 Y58.211 E153.40922
G1 X52.818 Y58.338 E153.43477
G1 X53.394 Y56.913 E153.45929
G1 X52.525 Y56.934 E153.48405
G1 X52.839 Y55.771 E153.50959
G1 X53.276 Y54.911 E153.53227
G0 F10500 X52.501 Y54.837
G1 F1500 X53.532 Y53.806 E153.56656
G0 F10500 X52.850 Y53.639
G1 F1500 X54.313 Y52.176 E153.61521
G0 F10500 X54.634 Y51.855
G1 F1500 X55.855 Y50.634 E153.65581
G0 F10500 X56.366 Y50.972
G1 F1500 X57.244 Y50.517 E153.67863
G1 X58.082 Y50.529 E153.69354
G1 X58.817 Y50.642 E153.70456
G1 X59.422 Y50.885 E153.71130
G1 X59.958 Y51.198 E153.71678
G1 X60.528 Y51.476 E153.72207
G1 X60.808 Y52.045 E153.72722
G1 X61.344 Y52.357 E153.73232
G1 X61.602 Y52.948 E153.73780
G1 X61.888 Y53.510 E153.74373
G1 X61.931 Y53.892 E153.75277
G1 F600 E150.25277
G1 Z0.775
G0 F10500 X59.141 Y64.319
G1 Z0.675
G1 F600 E153.75277
G1 F1500 X57.971 Y65.489 E153.79168
G0 F10500 X58.460 Y65.849
G1 F1500 X59.686 Y64.623 E153.83245
G0 F10500 X60.312 Y64.845
G1 F1500 X58.952 Y66.204 E153.87765
G0 F10500 X59.494 Y66.511
G1 F1500 X60.946 Y65.059 E153.92594
G0 F10500 X61.631 Y65.223
G1 F1500 X60.036 Y66.818 E153.97897
G0 F10500 X60.578 Y67.124
G1 F1500 X62.333 Y65.369 E154.03733
G0 F10500 X63.072 Y65.479
G1 F1500 X61.162 Y67.389 E154.10085
G0 F10500 X61.746 Y67.653
G1 F1500 X63.829 Y65.571 E154.17009
G0 F10500 X64.597 Y65.651
G1 F1500 X62.331 Y67.917 E154.24544
G0 F10500 X62.930 Y68.167
G1 F1500 X65.368 Y65.729 E154.32651
G0 F10500 X66.111 Y65.834
G1 F1500 X63.538 Y68.407 E154.41207
G0 F10500 X64.160 Y68.633
G1 F1500 X66.851 Y65.942 E154.50156
G0 F10500 X67.549 Y66.093
G1 F1500 X64.785 Y68.858 E154.59348
G0 F10500 X65.404 Y69.087
G1 F1500 X68.257 Y66.234 E154.68835
G0 F10500 X68.916 Y66.424
G1 F1500 X66.022 Y69.317 E154.78457
G0 F10500 X66.632 Y69.555
G1 F1500 X69.575 Y66.613 E154.88242
G0 F10500 X70.200 Y66.837
G1 F1500 X67.214 Y69.822 E154.98169
G0 F10500 X67.796 Y70.089
G1 F1500 X70.816 Y67.069 E155.08212
G0 F10500 X71.400 Y67.333
G1 F1500 X68.304 Y70.429 E155.18507
G0 F10500 X68.799 Y70.783
G1 F1500 X71.958 Y67.624 E155.29011
G0 F10500 X72.498 Y67.932
