; generated by Slic3r 1.1.7 on 2015-11-11 at 12:10:53

; perimeters extrusion width = 0.60mm
; infill extrusion width = 0.65mm
; solid infill extrusion width = 0.55mm
; top infill extrusion width = 0.43mm

G21 ; set units to millimeters
M107

M301 P34 I4 D113     ; set PID nozzle
M304 P162 I17 D378 ; set PID Bed

M104 S250                 ; set extruder temp
M140 S110                 ; set bed temp

G28                            ; home
G1 Z5 F300                ; move bed down 5mm
M84                            ; disable steppers
G4 S300                     ; wait 5 mins to preheat

G28                            ; home

G90 ; use absolute coordinates
G92 E0
M82 ; use absolute distances for extrusion
M204 S1800
G1 F1200.000 E-1.20000
G92 E0
G1 Z0.390 F9600.000
G1 X131.467 Y87.991 F9600.000
G1 E1.20000 F1200.000
G1 X132.642 Y86.235 E1.26774 F1200.000
G1 X134.433 Y84.963 E1.33815
G1 X137.000 Y84.394 E1.42246
G1 X142.000 Y84.394 E1.58277
G1 X143.824 Y84.674 E1.64192
G1 X159.267 Y89.543 E2.16110 F1200.000
G1 X160.707 Y90.147 E2.21113
G1 X162.057 Y90.854 E2.26000
G1 X163.384 Y91.701 E2.31050
G1 X164.521 Y92.569 E2.35637
G1 X164.820 Y92.826 E2.36899
G1 X165.967 Y93.908 E2.41954
G1 X166.674 Y94.679 E2.45309
G1 X167.015 Y95.086 E2.47011
G1 X167.956 Y96.351 E2.52067
G1 X168.521 Y97.238 E2.55438
G1 X168.784 Y97.693 E2.57123
G1 X169.198 Y98.504 E2.60040
G1 X169.711 Y99.633 E2.64019
G1 X170.074 Y100.568 E2.67233
G1 X170.526 Y102.079 E2.72288
G1 X170.844 Y103.623 E2.77344
G1 X170.981 Y104.662 E2.80703
G1 X171.027 Y105.189 E2.82400
G1 X171.073 Y106.242 E2.85779
G1 X171.073 Y106.765 E2.87457
G1 X170.981 Y108.339 E2.92512
G1 X170.752 Y109.899 E2.97568
G1 X170.456 Y111.204 E3.01858
G1 X147.865 Y194.098 E5.77323
G1 X146.914 Y196.078 E5.84364
G1 X145.322 Y197.591 E5.91405
G1 X143.296 Y198.439 E5.98446
G1 X142.000 Y198.579 E6.02625
G1 X133.000 Y198.579 E6.31481
G1 X130.840 Y198.182 E6.38522
G1 X128.962 Y197.043 E6.45563
G1 X127.611 Y195.312 E6.52604
G1 X126.921 Y192.500 E6.61887
G1 X126.928 Y179.227 E7.04442
G1 X130.928 Y90.200 E9.90166
G1 X131.425 Y88.053 E9.97232
G1 X131.955 Y88.186 F9600.000
G1 X133.165 Y86.475 E10.03951 F1200.000
G1 X134.924 Y85.337 E10.10669
G1 X137.000 Y84.933 E10.17449
G1 X142.000 Y84.933 E10.33479
G1 X143.662 Y85.188 E10.38870
G1 X159.076 Y90.047 E10.90686 F1200.000
G1 X160.473 Y90.633 E10.95543
G1 X161.786 Y91.320 E11.00294
G1 X163.074 Y92.142 E11.05193
G1 X164.183 Y92.990 E11.09670
G1 X164.456 Y93.224 E11.10821
G1 X165.569 Y94.272 E11.15726
G1 X166.276 Y95.044 E11.19080
G1 X166.587 Y95.414 E11.20632
G1 X167.502 Y96.641 E11.25536
G1 X168.066 Y97.527 E11.28906
G1 X168.306 Y97.942 E11.30442
G1 X168.707 Y98.729 E11.33274
G1 X169.213 Y99.840 E11.37188
G1 X169.559 Y100.730 E11.40250
G1 X169.999 Y102.195 E11.45155
G1 X170.310 Y103.693 E11.50060
G1 X170.446 Y104.732 E11.53418
G1 X170.488 Y105.212 E11.54965
G1 X170.534 Y106.265 E11.58342
G1 X170.534 Y106.742 E11.59871
G1 X170.446 Y108.269 E11.64776
G1 X170.226 Y109.783 E11.69681
G1 X169.935 Y111.062 E11.73888
G1 X147.344 Y193.956 E14.49353
G1 X146.421 Y195.838 E14.56071
G1 X144.865 Y197.241 E14.62790
G1 X142.000 Y198.039 E14.72324
G1 X133.000 Y198.039 E15.01180
G1 X130.942 Y197.643 E15.07899
G1 X129.179 Y196.510 E15.14617
G1 X127.963 Y194.804 E15.21336
G1 X127.461 Y192.500 E15.28896
G1 X127.466 Y179.251 E15.71374
G1 X131.466 Y90.224 E18.57098
G1 X131.937 Y88.259 E18.63576
G1 F1200.000 E17.43576
G92 E0
G1 X141.725 Y192.225 F9600.000
G1 E1.20000 F1200.000
G1 X133.275 Y192.225 E1.47092 F1200.000
G1 X133.275 Y182.235 E1.79122
G1 X141.725 Y182.235 E2.06214
G1 X141.725 Y192.150 E2.38003
G1 X141.292 Y191.975 F9600.000
G1 X141.186 Y191.686 F9600.000
G1 X133.814 Y191.686 E2.61637 F1200.000
G1 X133.814 Y182.774 E2.90209
G1 X141.186 Y182.774 E3.13843
G1 X141.186 Y191.611 E3.42174
G1 F1200.000 E2.22174
G92 E0
G1 X134.185 Y191.275 F9600.000
G1 E1.20000 F1200.000
G1 X134.225 Y191.315 E1.20181 F1200.000
G1 X135.000 Y191.315 E1.22665
G1 X134.185 Y190.500 E1.26359
G1 X134.185 Y189.725 E1.28843
G1 X135.775 Y191.315 E1.36050
G1 X136.549 Y191.315 E1.38533
G1 X134.185 Y188.951 E1.49252
G1 X134.185 Y188.176 E1.51736
G1 X137.324 Y191.315 E1.65968
G1 X138.099 Y191.315 E1.68452
G1 X134.185 Y187.401 E1.86196
G1 X134.185 Y186.627 E1.88680
G1 X138.873 Y191.315 E2.09937
G1 X139.648 Y191.315 E2.12421
G1 X134.185 Y185.852 E2.37191
G1 X134.185 Y185.077 E2.39674
G1 X140.423 Y191.315 E2.67957
G1 X140.815 Y190.932 E2.69713
G1 X134.185 Y184.303 E2.99773
G1 X134.185 Y183.528 E3.02257
G1 X140.815 Y190.157 E3.32316
G1 X140.815 Y189.383 E3.34800
G1 X134.577 Y183.145 E3.63082
G1 X135.352 Y183.145 E3.65566
G1 X140.815 Y188.608 E3.90336
G1 X140.815 Y187.833 E3.92820
G1 X136.127 Y183.145 E4.14077
G1 X136.901 Y183.145 E4.16560
G1 X140.815 Y187.059 E4.34305
G1 X140.815 Y186.284 E4.36789
G1 X137.676 Y183.145 E4.51020
G1 X138.451 Y183.145 E4.53504
G1 X140.815 Y185.509 E4.64223
G1 X140.815 Y184.735 E4.66707
G1 X139.225 Y183.145 E4.73914
G1 X140.000 Y183.145 E4.76398
G1 X140.815 Y183.960 E4.80092
G1 X140.815 Y183.185 E4.82575
G1 X140.775 Y183.145 E4.82757
G1 F1200.000 E3.62757
G92 E0
G1 X141.725 Y180.765 F9600.000
G1 E1.20000 F1200.000
G1 X133.275 Y180.765 E1.47092 F1200.000
G1 X133.275 Y179.548 E1.50993
G1 X135.937 Y172.235 E1.75946
G1 X141.725 Y172.235 E1.94503
G1 X141.725 Y180.690 E2.21612
G1 X141.292 Y180.515 F9600.000
G1 X141.186 Y180.226 F9600.000
G1 X133.814 Y180.226 E2.45246 F1200.000
G1 X133.814 Y179.644 E2.47112
G1 X136.315 Y172.774 E2.70550
G1 X141.186 Y172.774 E2.86168
G1 X141.186 Y180.151 E3.09818
G1 F1200.000 E1.89818
G92 E0
G1 X134.185 Y179.815 F9600.000
G1 E1.20000 F1200.000
G1 X134.225 Y179.855 E1.20181 F1200.000
G1 X135.005 Y179.855 E1.22682
G1 X134.365 Y179.215 E1.25584
G1 X134.573 Y178.643 E1.27535
G1 X135.785 Y179.855 E1.33030
G1 X136.565 Y179.855 E1.35531
G1 X134.781 Y178.071 E1.43619
G1 X134.989 Y177.499 E1.45570
G1 X137.345 Y179.855 E1.56250
G1 X138.125 Y179.855 E1.58751
G1 X135.198 Y176.927 E1.72024
G1 X135.406 Y176.356 E1.73975
G1 X138.905 Y179.855 E1.89841
G1 X139.685 Y179.855 E1.92342
G1 X135.614 Y175.784 E2.10801
G1 X135.822 Y175.212 E2.12752
G1 X140.465 Y179.855 E2.33803
G1 X140.815 Y179.425 E2.35581
G1 X136.030 Y174.640 E2.57275
G1 X136.238 Y174.068 E2.59226
G1 X140.815 Y178.645 E2.79977
G1 X140.815 Y177.865 E2.82478
G1 X136.446 Y173.496 E3.02285
G1 X136.875 Y173.145 E3.04062
G1 X140.815 Y177.085 E3.21926
G1 X140.815 Y176.305 E3.24426
G1 X137.655 Y173.145 E3.38754
G1 X138.435 Y173.145 E3.41254
G1 X140.815 Y175.525 E3.52045
G1 X140.815 Y174.745 E3.54546
G1 X139.215 Y173.145 E3.61800
G1 X139.995 Y173.145 E3.64301
G1 X140.815 Y173.965 E3.68018
G1 X140.815 Y173.185 E3.70519
G1 X140.775 Y173.145 E3.70701
G1 F1200.000 E2.50701
G92 E0
G1 X141.725 Y170.765 F9600.000
G1 E1.20000 F1200.000
G1 X136.472 Y170.765 E1.36842 F1200.000
G1 X137.275 Y168.559 E1.44370
G1 X137.275 Y162.235 E1.64645
G1 X141.725 Y162.235 E1.78913
G1 X141.725 Y170.690 E2.06021
G1 X141.292 Y170.515 F9600.000
G1 X141.186 Y170.226 F9600.000
G1 X137.242 Y170.226 E2.18665 F1200.000
G1 X137.814 Y168.654 E2.24029
G1 X137.814 Y162.774 E2.42879
G1 X141.186 Y162.774 E2.53689
G1 X141.186 Y170.151 E2.77339
G1 F1200.000 E1.57339
G92 E0
G1 X137.820 Y169.855 F9600.000
G1 E1.20000 F1200.000
G1 X137.785 Y169.819 E1.20161 F1200.000
G1 X138.000 Y169.229 E1.22176
G1 X138.626 Y169.855 E1.25014
G1 X139.431 Y169.855 E1.27596
G1 X138.185 Y168.609 E1.33245
G1 X138.185 Y167.804 E1.35828
G1 X140.236 Y169.855 E1.45128
G1 X140.815 Y169.628 E1.47120
G1 X138.185 Y166.998 E1.59043
G1 X138.185 Y166.193 E1.61625
G1 X140.815 Y168.823 E1.73548
G1 X140.815 Y168.017 E1.76130
G1 X138.185 Y165.388 E1.88053
G1 X138.185 Y164.582 E1.90635
G1 X140.815 Y167.212 E2.02558
G1 X140.815 Y166.407 E2.05140
G1 X138.185 Y163.777 E2.17063
G1 X138.359 Y163.145 E2.19164
G1 X140.815 Y165.601 E2.30300
G1 X140.815 Y164.796 E2.32882
G1 X139.164 Y163.145 E2.40366
G1 X139.969 Y163.145 E2.42948
G1 X140.815 Y163.991 E2.46781
G1 X140.815 Y163.185 E2.49363
G1 X140.775 Y163.145 E2.49544
G1 F1200.000 E1.29544
G92 E0
G1 X141.725 Y160.765 F9600.000
G1 E1.20000 F1200.000
G1 X137.275 Y160.765 E1.34267 F1200.000
G1 X137.275 Y152.235 E1.61616
G1 X141.725 Y152.235 E1.75884
G1 X141.725 Y160.690 E2.02992
G1 X141.292 Y160.515 F9600.000
G1 X141.186 Y160.226 F9600.000
G1 X137.814 Y160.226 E2.13801 F1200.000
G1 X137.814 Y152.774 E2.37692
G1 X141.186 Y152.774 E2.48502
G1 X141.186 Y160.151 E2.72152
G1 F1200.000 E1.52152
G92 E0
G1 X138.225 Y159.855 F9600.000
G1 E1.20000 F1200.000
G1 X138.185 Y159.815 E1.20181 F1200.000
G1 X138.185 Y159.043 E1.22655
G1 X138.997 Y159.855 E1.26335
G1 X139.768 Y159.855 E1.28809
G1 X138.185 Y158.272 E1.35988
G1 X138.185 Y157.500 E1.38461
G1 X140.540 Y159.855 E1.49139
G1 X140.815 Y159.358 E1.50959
G1 X138.185 Y156.728 E1.62882
G1 X138.185 Y155.957 E1.65356
G1 X140.815 Y158.586 E1.77279
G1 X140.815 Y157.815 E1.79753
G1 X138.185 Y155.185 E1.91676
G1 X138.185 Y154.414 E1.94149
G1 X140.815 Y157.043 E2.06072
G1 X140.815 Y156.272 E2.08546
G1 X138.185 Y153.642 E2.20469
G1 X138.460 Y153.145 E2.22289
G1 X140.815 Y155.500 E2.32967
G1 X140.815 Y154.728 E2.35440
G1 X139.232 Y153.145 E2.42619
G1 X140.003 Y153.145 E2.45093
G1 X140.815 Y153.957 E2.48773
G1 X140.815 Y153.185 E2.51247
G1 X140.775 Y153.145 E2.51428
G1 F1200.000 E1.31428
G92 E0
G1 X141.725 Y150.765 F9600.000
G1 E1.20000 F1200.000
G1 X137.275 Y150.765 E1.34267 F1200.000
G1 X137.275 Y142.235 E1.61616
G1 X141.725 Y142.235 E1.75884
G1 X141.725 Y150.690 E2.02992
G1 X141.292 Y150.515 F9600.000
G1 X141.186 Y150.226 F9600.000
G1 X137.814 Y150.226 E2.13801 F1200.000
G1 X137.814 Y142.774 E2.37692
G1 X141.186 Y142.774 E2.48502
G1 X141.186 Y150.151 E2.72152
G1 F1200.000 E1.52152
G92 E0
G1 X138.225 Y149.855 F9600.000
G1 E1.20000 F1200.000
G1 X138.185 Y149.815 E1.20181 F1200.000
G1 X138.185 Y149.043 E1.22655
G1 X138.997 Y149.855 E1.26335
G1 X139.768 Y149.855 E1.28809
G1 X138.185 Y148.272 E1.35988
G1 X138.185 Y147.500 E1.38461
G1 X140.540 Y149.855 E1.49139
G1 X140.815 Y149.358 E1.50959
G1 X138.185 Y146.728 E1.62882
G1 X138.185 Y145.957 E1.65356
G1 X140.815 Y148.586 E1.77279
G1 X140.815 Y147.815 E1.79753
G1 X138.185 Y145.185 E1.91675
G1 X138.185 Y144.414 E1.94149
G1 X140.815 Y147.043 E2.06072
G1 X140.815 Y146.272 E2.08546
G1 X138.185 Y143.642 E2.20469
G1 X138.460 Y143.145 E2.22289
G1 X140.815 Y145.500 E2.32967
G1 X140.815 Y144.728 E2.35440
G1 X139.232 Y143.145 E2.42619
G1 X140.003 Y143.145 E2.45093
G1 X140.815 Y143.957 E2.48773
G1 X140.815 Y143.185 E2.51247
G1 X140.775 Y143.145 E2.51428
G1 F1200.000 E1.31428
G92 E0
G1 X141.725 Y140.765 F9600.000
G1 E1.20000 F1200.000
G1 X137.275 Y140.765 E1.34267 F1200.000
G1 X137.275 Y132.235 E1.61616
G1 X141.725 Y132.235 E1.75884
G1 X141.725 Y140.690 E2.02992
G1 X141.292 Y140.515 F9600.000
G1 X141.186 Y140.226 F9600.000
G1 X137.814 Y140.226 E2.13801 F1200.000
G1 X137.814 Y132.774 E2.37692
G1 X141.186 Y132.774 E2.48502
G1 X141.186 Y140.151 E2.72152
G1 F1200.000 E1.52152
G92 E0
G1 X138.225 Y139.855 F9600.000
G1 E1.20000 F1200.000
G1 X138.185 Y139.815 E1.20181 F1200.000
G1 X138.185 Y139.043 E1.22655
G1 X138.997 Y139.855 E1.26335
G1 X139.768 Y139.855 E1.28809
G1 X138.185 Y138.272 E1.35988
G1 X138.185 Y137.500 E1.38461
G1 X140.540 Y139.855 E1.49139
G1 X140.815 Y139.358 E1.50959
G1 X138.185 Y136.728 E1.62882
G1 X138.185 Y135.957 E1.65356
G1 X140.815 Y138.586 E1.77279
G1 X140.815 Y137.815 E1.79753
G1 X138.185 Y135.185 E1.91675
G1 X138.185 Y134.414 E1.94149
G1 X140.815 Y137.043 E2.06072
G1 X140.815 Y136.272 E2.08546
G1 X138.185 Y133.642 E2.20469
G1 X138.460 Y133.145 E2.22289
G1 X140.815 Y135.500 E2.32967
G1 X140.815 Y134.728 E2.35440
G1 X139.232 Y133.145 E2.42619
G1 X140.003 Y133.145 E2.45093
G1 X140.815 Y133.957 E2.48773
G1 X140.815 Y133.185 E2.51247
G1 X140.775 Y133.145 E2.51428
G1 F1200.000 E1.31428
G92 E0
G1 X141.725 Y130.765 F9600.000
G1 E1.20000 F1200.000
G1 X137.275 Y130.765 E1.34267 F1200.000
G1 X137.275 Y122.235 E1.61616
G1 X141.736 Y122.235 E1.75920
G1 X141.725 Y130.690 E2.03028
G1 X141.292 Y130.515 F9600.000
G1 X141.186 Y130.226 F9600.000
G1 X137.814 Y130.226 E2.13838 F1200.000
G1 X137.814 Y122.774 E2.37729
G1 X141.186 Y122.774 E2.48538
G1 X141.186 Y130.151 E2.72188
G1 F1200.000 E1.52188
G92 E0
G1 X138.225 Y129.855 F9600.000
G1 E1.20000 F1200.000
G1 X138.185 Y129.815 E1.20181 F1200.000
G1 X138.185 Y129.043 E1.22655
G1 X138.997 Y129.855 E1.26335
G1 X139.768 Y129.855 E1.28809
G1 X138.185 Y128.272 E1.35988
G1 X138.185 Y127.500 E1.38461
G1 X140.540 Y129.855 E1.49139
G1 X140.815 Y129.358 E1.50959
G1 X138.185 Y126.728 E1.62882
G1 X138.185 Y125.957 E1.65356
G1 X140.815 Y128.586 E1.77279
G1 X140.815 Y127.815 E1.79753
G1 X138.185 Y125.185 E1.91675
G1 X138.185 Y124.414 E1.94149
G1 X140.815 Y127.043 E2.06072
G1 X140.815 Y126.272 E2.08546
G1 X138.185 Y123.642 E2.20469
G1 X138.460 Y123.145 E2.22289
G1 X140.815 Y125.500 E2.32967
G1 X140.815 Y124.728 E2.35440
G1 X139.232 Y123.145 E2.42619
G1 X140.003 Y123.145 E2.45093
G1 X140.815 Y123.957 E2.48773
G1 X140.815 Y123.185 E2.51247
G1 X140.775 Y123.145 E2.51428
G1 F1200.000 E1.31428
G92 E0
G1 X137.275 Y120.765 F9600.000
G1 E1.20000 F1200.000
G1 X137.275 Y112.235 E1.47349 F1200.000
G1 X146.771 Y112.235 E1.77794
G1 X147.007 Y112.493 E1.78916
G1 X147.552 Y112.992 E1.81286
G1 X148.139 Y113.443 E1.83656
G1 X148.762 Y113.840 E1.86027
G1 X149.418 Y114.181 E1.88398
G1 X150.142 Y114.477 E1.90905
G1 X150.806 Y114.686 E1.93138
G1 X151.528 Y114.846 E1.95508
G1 X152.261 Y114.943 E1.97880
G1 X153.000 Y114.975 E2.00250
G1 X153.739 Y114.943 E2.02620
G1 X154.513 Y114.837 E2.05127
G1 X155.194 Y114.686 E2.07361
G1 X155.899 Y114.464 E2.09732
G1 X156.582 Y114.181 E2.12102
G1 X157.238 Y113.840 E2.14473
G1 X157.861 Y113.443 E2.16843
G1 X158.448 Y112.992 E2.19214
G1 X158.993 Y112.493 E2.21584
G1 X159.229 Y112.235 E2.22706
G1 X163.235 Y112.235 E2.35549
G1 X162.604 Y113.225 E2.39313
G1 X161.982 Y114.037 E2.42592
G1 X161.291 Y114.791 E2.45872
G1 X160.537 Y115.482 E2.49151
G1 X159.725 Y116.104 E2.52431
G1 X158.862 Y116.654 E2.55710
G1 X157.955 Y117.126 E2.58990
G1 X157.010 Y117.518 E2.62269
G1 X156.035 Y117.825 E2.65548
G1 X155.036 Y118.047 E2.68828
G1 X154.022 Y118.180 E2.72107
G1 X152.994 Y118.225 E2.75406
G1 X145.994 Y118.225 E2.97849
G1 X145.627 Y118.241 E2.99026
G1 X145.258 Y118.290 E3.00221
G1 X144.894 Y118.370 E3.01417
G1 X144.538 Y118.483 E3.02613
G1 X144.193 Y118.625 E3.03809
G1 X143.862 Y118.797 E3.05004
G1 X143.548 Y118.998 E3.06200
G1 X143.252 Y119.225 E3.07396
G1 X142.977 Y119.477 E3.08592
G1 X142.725 Y119.752 E3.09788
G1 X142.498 Y120.048 E3.10984
G1 X142.298 Y120.362 E3.12179
G1 X142.088 Y120.765 E3.13635
G1 X137.350 Y120.765 E3.28825
G1 X137.525 Y120.332 F9600.000
G1 X137.814 Y120.226 F9600.000
G1 X137.814 Y112.774 E3.52716 F1200.000
G1 X146.533 Y112.774 E3.80671
G1 X147.205 Y113.406 E3.83628
G1 X147.829 Y113.885 E3.86149
G1 X148.492 Y114.307 E3.88671
G1 X149.190 Y114.670 E3.91192
G1 X149.980 Y114.991 E3.93926
G1 X150.667 Y115.208 E3.96235
G1 X151.434 Y115.378 E3.98756
G1 X152.214 Y115.481 E4.01278
G1 X153.000 Y115.515 E4.03799
G1 X153.786 Y115.481 E4.06321
G1 X154.630 Y115.364 E4.09054
G1 X155.333 Y115.208 E4.11363
G1 X156.083 Y114.971 E4.13885
G1 X156.810 Y114.670 E4.16406
G1 X157.508 Y114.307 E4.18928
G1 X158.171 Y113.885 E4.21449
G1 X158.795 Y113.406 E4.23971
G1 X159.467 Y112.774 E4.26927
G1 X162.271 Y112.774 E4.35917
G1 X161.568 Y113.690 E4.39616
G1 X160.909 Y114.409 E4.42745
G1 X160.190 Y115.068 E4.45873
G1 X159.415 Y115.662 E4.49002
G1 X158.593 Y116.186 E4.52130
G1 X157.727 Y116.637 E4.55259
G1 X156.825 Y117.010 E4.58387
G1 X155.895 Y117.304 E4.61515
G1 X154.942 Y117.515 E4.64644
G1 X153.975 Y117.642 E4.67772
G1 X152.982 Y117.686 E4.70957
G1 X145.982 Y117.686 E4.93401
G1 X145.580 Y117.703 E4.94691
G1 X145.164 Y117.758 E4.96037
G1 X144.754 Y117.849 E4.97384
G1 X144.353 Y117.975 E4.98731
G1 X143.965 Y118.136 E5.00077
G1 X143.593 Y118.330 E5.01424
G1 X143.238 Y118.556 E5.02771
G1 X142.905 Y118.812 E5.04118
G1 X142.632 Y119.062 E5.05305
G1 X142.311 Y119.405 E5.06811
G1 X142.056 Y119.738 E5.08159
G1 X141.761 Y120.226 E5.09985
G1 X137.889 Y120.226 E5.22397
