; generated by Slic3r 1.1.7 on 2015-11-11 at 12:10:53

; perimeters extrusion width = 0.60mm
; infill extrusion width = 0.65mm
; solid infill extrusion width = 0.55mm
; top infill extrusion width = 0.43mm

G21 ; set units to millimeters
M107

M301 P34 I4 D113     ; set PID nozzle
M304 P162 I17 D378 ; set PID Bed

M104 S250                 ; set extruder temp
M140 S110                 ; set bed temp

G28                            ; home
G1 Z5 F300                ; move bed down 5mm
M84                            ; disable steppers
G4 S300                     ; wait 5 mins to preheat

G28                            ; home

G90 ; use absolute coordinates
G92 E0
M82 ; use absolute distances for extrusion
M204 S1800
G1 F1200.000 E-1.20000
G92 E0
G1 Z0.390 F9600.000
G1 X179.467 Y121.991 F9600.000
G1 E1.20000 F1200.000
G1 X180.642 Y120.235 E1.26774 F1200.000
G1 X182.433 Y118.963 E1.33815
G1 X185.000 Y118.394 E1.42246
G1 X190.000 Y118.394 E1.58277
G1 X191.824 Y118.674 E1.64192
G1 X207.267 Y123.543 E2.16110 F1200.000
G1 X208.707 Y124.147 E2.21113
G1 X210.057 Y124.854 E2.26000
G1 X211.384 Y125.701 E2.31050
G1 X212.521 Y126.569 E2.35637
G1 X212.820 Y126.826 E2.36899
G1 X213.967 Y127.908 E2.41954
G1 X214.674 Y128.679 E2.45309
G1 X215.015 Y129.086 E2.47011
G1 X215.956 Y130.351 E2.52067
G1 X216.521 Y131.238 E2.55438
G1 X216.784 Y131.693 E2.57123
G1 X217.198 Y132.504 E2.60040
G1 X217.711 Y133.633 E2.64019
G1 X218.074 Y134.568 E2.67233
G1 X218.526 Y136.079 E2.72288
G1 X218.844 Y137.623 E2.77344
G1 X218.981 Y138.662 E2.80703
G1 X219.027 Y139.189 E2.82400
G1 X219.073 Y140.242 E2.85779
G1 X219.073 Y140.765 E2.87457
G1 X218.981 Y142.339 E2.92512
G1 X218.752 Y143.899 E2.97568
G1 X218.456 Y145.204 E3.01858
G1 X195.865 Y228.098 E5.77323
G1 X194.914 Y230.078 E5.84364
G1 X193.322 Y231.591 E5.91405
G1 X191.296 Y232.439 E5.98446
G1 X190.000 Y232.579 E6.02625
G1 X181.000 Y232.579 E6.31481
G1 X178.840 Y232.182 E6.38522
G1 X176.962 Y231.043 E6.45563
G1 X175.611 Y229.312 E6.52604
G1 X174.921 Y226.500 E6.61887
G1 X174.928 Y213.227 E7.04442
G1 X178.928 Y124.200 E9.90166
G1 X179.425 Y122.053 E9.97232
G1 X179.955 Y122.186 F9600.000
G1 X181.165 Y120.475 E10.03951 F1200.000
G1 X182.924 Y119.337 E10.10669
G1 X185.000 Y118.933 E10.17449
G1 X190.000 Y118.933 E10.33479
G1 X191.662 Y119.188 E10.38870
G1 X207.076 Y124.047 E10.90686 F1200.000
G1 X208.473 Y124.633 E10.95543
G1 X209.786 Y125.320 E11.00294
G1 X211.074 Y126.142 E11.05193
G1 X212.183 Y126.990 E11.09670
G1 X212.456 Y127.224 E11.10821
G1 X213.569 Y128.272 E11.15726
G1 X214.276 Y129.044 E11.19080
G1 X214.587 Y129.414 E11.20632
G1 X215.502 Y130.641 E11.25536
G1 X216.066 Y131.527 E11.28906
G1 X216.306 Y131.942 E11.30442
G1 X216.707 Y132.729 E11.33274
G1 X217.213 Y133.840 E11.37188
G1 X217.559 Y134.730 E11.40250
G1 X217.999 Y136.195 E11.45155
G1 X218.310 Y137.693 E11.50060
G1 X218.446 Y138.732 E11.53418
G1 X218.488 Y139.212 E11.54965
G1 X218.534 Y140.265 E11.58342
G1 X218.534 Y140.742 E11.59871
G1 X218.446 Y142.269 E11.64776
G1 X218.226 Y143.783 E11.69681
G1 X217.935 Y145.062 E11.73888
G1 X195.344 Y227.956 E14.49353
G1 X194.421 Y229.838 E14.56071
G1 X192.865 Y231.241 E14.62790
G1 X190.000 Y232.039 E14.72324
G1 X181.000 Y232.039 E15.01180
G1 X178.942 Y231.643 E15.07899
G1 X177.179 Y230.510 E15.14617
G1 X175.963 Y228.804 E15.21336
G1 X175.461 Y226.500 E15.28896
G1 X175.466 Y213.251 E15.71374
G1 X179.466 Y124.224 E18.57098
G1 X179.937 Y122.259 E18.63576
G1 F1200.000 E17.43576
G92 E0
G1 X189.725 Y226.225 F9600.000
G1 E1.20000 F1200.000
G1 X181.275 Y226.225 E1.47092 F1200.000
G1 X181.275 Y216.235 E1.79122
G1 X189.725 Y216.235 E2.06214
G1 X189.725 Y226.150 E2.38003
G1 X189.292 Y225.975 F9600.000
G1 X189.186 Y225.686 F9600.000
G1 X181.814 Y225.686 E2.61637 F1200.000
G1 X181.814 Y216.774 E2.90209
G1 X189.186 Y216.774 E3.13843
G1 X189.186 Y225.611 E3.42174
G1 F1200.000 E2.22174
G92 E0
G1 X182.185 Y225.275 F9600.000
G1 E1.20000 F1200.000
G1 X182.225 Y225.315 E1.20181 F1200.000
G1 X183.000 Y225.315 E1.22665
G1 X182.185 Y224.500 E1.26359
G1 X182.185 Y223.725 E1.28843
G1 X183.775 Y225.315 E1.36050
G1 X184.549 Y225.315 E1.38533
G1 X182.185 Y222.951 E1.49252
G1 X182.185 Y222.176 E1.51736
G1 X185.324 Y225.315 E1.65968
G1 X186.099 Y225.315 E1.68452
G1 X182.185 Y221.401 E1.86196
G1 X182.185 Y220.627 E1.88680
G1 X186.873 Y225.315 E2.09937
G1 X187.648 Y225.315 E2.12421
G1 X182.185 Y219.852 E2.37191
G1 X182.185 Y219.077 E2.39674
G1 X188.423 Y225.315 E2.67957
G1 X188.815 Y224.932 E2.69713
G1 X182.185 Y218.303 E2.99773
G1 X182.185 Y217.528 E3.02257
G1 X188.815 Y224.157 E3.32316
G1 X188.815 Y223.383 E3.34800
G1 X182.577 Y217.145 E3.63082
G1 X183.352 Y217.145 E3.65566
G1 X188.815 Y222.608 E3.90336
G1 X188.815 Y221.833 E3.92820
G1 X184.127 Y217.145 E4.14077
G1 X184.901 Y217.145 E4.16560
G1 X188.815 Y221.059 E4.34305
G1 X188.815 Y220.284 E4.36789
G1 X185.676 Y217.145 E4.51020
G1 X186.451 Y217.145 E4.53504
G1 X188.815 Y219.509 E4.64223
G1 X188.815 Y218.735 E4.66707
G1 X187.225 Y217.145 E4.73914
G1 X188.000 Y217.145 E4.76398
G1 X188.815 Y217.960 E4.80092
G1 X188.815 Y217.185 E4.82575
G1 X188.775 Y217.145 E4.82757
G1 F1200.000 E3.62757
G92 E0
G1 X189.725 Y214.765 F9600.000
G1 E1.20000 F1200.000
G1 X181.275 Y214.765 E1.47092 F1200.000
G1 X181.275 Y213.548 E1.50993
G1 X183.937 Y206.235 E1.75946
G1 X189.725 Y206.235 E1.94503
G1 X189.725 Y214.690 E2.21612
G1 X189.292 Y214.515 F9600.000
G1 X189.186 Y214.226 F9600.000
G1 X181.814 Y214.226 E2.45246 F1200.000
G1 X181.814 Y213.644 E2.47112
G1 X184.315 Y206.774 E2.70550
G1 X189.186 Y206.774 E2.86168
G1 X189.186 Y214.151 E3.09818
G1 F1200.000 E1.89818
G92 E0
G1 X182.185 Y213.815 F9600.000
G1 E1.20000 F1200.000
G1 X182.225 Y213.855 E1.20181 F1200.000
G1 X183.005 Y213.855 E1.22682
G1 X182.365 Y213.215 E1.25584
G1 X182.573 Y212.643 E1.27535
G1 X183.785 Y213.855 E1.33030
G1 X184.565 Y213.855 E1.35531
G1 X182.781 Y212.071 E1.43619
G1 X182.989 Y211.499 E1.45570
G1 X185.345 Y213.855 E1.56250
G1 X186.125 Y213.855 E1.58751
G1 X183.198 Y210.927 E1.72024
G1 X183.406 Y210.356 E1.73975
G1 X186.905 Y213.855 E1.89841
G1 X187.685 Y213.855 E1.92342
G1 X183.614 Y209.784 E2.10801
G1 X183.822 Y209.212 E2.12752
G1 X188.465 Y213.855 E2.33803
G1 X188.815 Y213.425 E2.35581
G1 X184.030 Y208.640 E2.57275
G1 X184.238 Y208.068 E2.59226
G1 X188.815 Y212.645 E2.79977
G1 X188.815 Y211.865 E2.82478
G1 X184.446 Y207.496 E3.02285
G1 X184.875 Y207.145 E3.04062
G1 X188.815 Y211.085 E3.21926
G1 X188.815 Y210.305 E3.24426
G1 X185.655 Y207.145 E3.38754
G1 X186.435 Y207.145 E3.41254
G1 X188.815 Y209.525 E3.52045
G1 X188.815 Y208.745 E3.54546
G1 X187.215 Y207.145 E3.61800
G1 X187.995 Y207.145 E3.64301
G1 X188.815 Y207.965 E3.68018
G1 X188.815 Y207.185 E3.70519
G1 X188.775 Y207.145 E3.70701
G1 F1200.000 E2.50701
G92 E0
G1 X189.725 Y204.765 F9600.000
G1 E1.20000 F1200.000
G1 X184.472 Y204.765 E1.36842 F1200.000
G1 X185.275 Y202.559 E1.44370
G1 X185.275 Y196.235 E1.64645
G1 X189.725 Y196.235 E1.78913
G1 X189.725 Y204.690 E2.06021
G1 X189.292 Y204.515 F9600.000
G1 X189.186 Y204.226 F9600.000
G1 X185.242 Y204.226 E2.18665 F1200.000
G1 X185.814 Y202.654 E2.24029
G1 X185.814 Y196.774 E2.42879
G1 X189.186 Y196.774 E2.53689
G1 X189.186 Y204.151 E2.77339
G1 F1200.000 E1.57339
G92 E0
G1 X185.820 Y203.855 F9600.000
G1 E1.20000 F1200.000
G1 X185.785 Y203.819 E1.20161 F1200.000
G1 X186.000 Y203.229 E1.22176
G1 X186.626 Y203.855 E1.25014
G1 X187.431 Y203.855 E1.27596
G1 X186.185 Y202.609 E1.33245
G1 X186.185 Y201.804 E1.35828
G1 X188.236 Y203.855 E1.45128
G1 X188.815 Y203.628 E1.47120
G1 X186.185 Y200.998 E1.59043
G1 X186.185 Y200.193 E1.61625
G1 X188.815 Y202.823 E1.73548
G1 X188.815 Y202.017 E1.76130
G1 X186.185 Y199.388 E1.88053
G1 X186.185 Y198.582 E1.90635
G1 X188.815 Y201.212 E2.02558
G1 X188.815 Y200.407 E2.05140
G1 X186.185 Y197.777 E2.17063
G1 X186.359 Y197.145 E2.19164
G1 X188.815 Y199.601 E2.30300
G1 X188.815 Y198.796 E2.32882
G1 X187.164 Y197.145 E2.40366
G1 X187.969 Y197.145 E2.42948
G1 X188.815 Y197.991 E2.46781
G1 X188.815 Y197.185 E2.49363
G1 X188.775 Y197.145 E2.49544
G1 F1200.000 E1.29544
G92 E0
G1 X189.725 Y194.765 F9600.000
G1 E1.20000 F1200.000
G1 X185.275 Y194.765 E1.34267 F1200.000
G1 X185.275 Y186.235 E1.61616
G1 X189.725 Y186.235 E1.75884
G1 X189.725 Y194.690 E2.02992
G1 X189.292 Y194.515 F9600.000
G1 X189.186 Y194.226 F9600.000
G1 X185.814 Y194.226 E2.13801 F1200.000
G1 X185.814 Y186.774 E2.37692
G1 X189.186 Y186.774 E2.48502
G1 X189.186 Y194.151 E2.72152
G1 F1200.000 E1.52152
G92 E0
G1 X186.225 Y193.855 F9600.000
G1 E1.20000 F1200.000
G1 X186.185 Y193.815 E1.20181 F1200.000
G1 X186.185 Y193.043 E1.22655
G1 X186.997 Y193.855 E1.26335
G1 X187.768 Y193.855 E1.28809
G1 X186.185 Y192.272 E1.35988
G1 X186.185 Y191.500 E1.38461
G1 X188.540 Y193.855 E1.49139
G1 X188.815 Y193.358 E1.50959
G1 X186.185 Y190.728 E1.62882
G1 X186.185 Y189.957 E1.65356
G1 X188.815 Y192.586 E1.77279
G1 X188.815 Y191.815 E1.79753
G1 X186.185 Y189.185 E1.91676
G1 X186.185 Y188.414 E1.94149
G1 X188.815 Y191.043 E2.06072
G1 X188.815 Y190.272 E2.08546
G1 X186.185 Y187.642 E2.20469
G1 X186.460 Y187.145 E2.22289
G1 X188.815 Y189.500 E2.32967
G1 X188.815 Y188.728 E2.35440
G1 X187.232 Y187.145 E2.42619
G1 X188.003 Y187.145 E2.45093
G1 X188.815 Y187.957 E2.48773
G1 X188.815 Y187.185 E2.51247
G1 X188.775 Y187.145 E2.51428
G1 F1200.000 E1.31428
G92 E0
G1 X189.725 Y184.765 F9600.000
G1 E1.20000 F1200.000
G1 X185.275 Y184.765 E1.34267 F1200.000
G1 X185.275 Y176.235 E1.61616
G1 X189.725 Y176.235 E1.75884
G1 X189.725 Y184.690 E2.02992
G1 X189.292 Y184.515 F9600.000
G1 X189.186 Y184.226 F9600.000
G1 X185.814 Y184.226 E2.13801 F1200.000
G1 X185.814 Y176.774 E2.37692
G1 X189.186 Y176.774 E2.48502
G1 X189.186 Y184.151 E2.72152
G1 F1200.000 E1.52152
G92 E0
G1 X186.225 Y183.855 F9600.000
G1 E1.20000 F1200.000
G1 X186.185 Y183.815 E1.20181 F1200.000
G1 X186.185 Y183.043 E1.22655
G1 X186.997 Y183.855 E1.26335
G1 X187.768 Y183.855 E1.28809
G1 X186.185 Y182.272 E1.35988
G1 X186.185 Y181.500 E1.38461
G1 X188.540 Y183.855 E1.49139
G1 X188.815 Y183.358 E1.50959
G1 X186.185 Y180.728 E1.62882
G1 X186.185 Y179.957 E1.65356
G1 X188.815 Y182.586 E1.77279
G1 X188.815 Y181.815 E1.79753
G1 X186.185 Y179.185 E1.91675
G1 X186.185 Y178.414 E1.94149
G1 X188.815 Y181.043 E2.06072
G1 X188.815 Y180.272 E2.08546
G1 X186.185 Y177.642 E2.20469
G1 X186.460 Y177.145 E2.22289
G1 X188.815 Y179.500 E2.32967
G1 X188.815 Y178.728 E2.35440
G1 X187.232 Y177.145 E2.42619
G1 X188.003 Y177.145 E2.45093
G1 X188.815 Y177.957 E2.48773
G1 X188.815 Y177.185 E2.51247
G1 X188.775 Y177.145 E2.51428
G1 F1200.000 E1.31428
G92 E0
G1 X189.725 Y174.765 F9600.000
G1 E1.20000 F1200.000
G1 X185.275 Y174.765 E1.34267 F1200.000
G1 X185.275 Y166.235 E1.61616
G1 X189.725 Y166.235 E1.75884
G1 X189.725 Y174.690 E2.02992
G1 X189.292 Y174.515 F9600.000
G1 X189.186 Y174.226 F9600.000
G1 X185.814 Y174.226 E2.13801 F1200.000
G1 X185.814 Y166.774 E2.37692
G1 X189.186 Y166.774 E2.48502
G1 X189.186 Y174.151 E2.72152
G1 F1200.000 E1.52152
G92 E0
G1 X186.225 Y173.855 F9600.000
G1 E1.20000 F1200.000
G1 X186.185 Y173.815 E1.20181 F1200.000
G1 X186.185 Y173.043 E1.22655
G1 X186.997 Y173.855 E1.26335
G1 X187.768 Y173.855 E1.28809
G1 X186.185 Y172.272 E1.35988
G1 X186.185 Y171.500 E1.38461
G1 X188.540 Y173.855 E1.49139
G1 X188.815 Y173.358 E1.50959
G1 X186.185 Y170.728 E1.62882
G1 X186.185 Y169.957 E1.65356
G1 X188.815 Y172.586 E1.77279
G1 X188.815 Y171.815 E1.79753
G1 X186.185 Y169.185 E1.91675
G1 X186.185 Y168.414 E1.94149
G1 X188.815 Y171.043 E2.06072
G1 X188.815 Y170.272 E2.08546
G1 X186.185 Y167.642 E2.20469
G1 X186.460 Y167.145 E2.22289
G1 X188.815 Y169.500 E2.32967
G1 X188.815 Y168.728 E2.35440
G1 X187.232 Y167.145 E2.42619
G1 X188.003 Y167.145 E2.45093
G1 X188.815 Y167.957 E2.48773
G1 X188.815 Y167.185 E2.51247
G1 X188.775 Y167.145 E2.51428
G1 F1200.000 E1.31428
G92 E0
G1 X189.725 Y164.765 F9600.000
G1 E1.20000 F1200.000
G1 X185.275 Y164.765 E1.34267 F1200.000
G1 X185.275 Y156.235 E1.61616
G1 X189.736 Y156.235 E1.75920
G1 X189.725 Y164.690 E2.03028
G1 X189.292 Y164.515 F9600.000
G1 X189.186 Y164.226 F9600.000
G1 X185.814 Y164.226 E2.13838 F1200.000
G1 X185.814 Y156.774 E2.37729
G1 X189.186 Y156.774 E2.48538
G1 X189.186 Y164.151 E2.72188
G1 F1200.000 E1.52188
G92 E0
G1 X186.225 Y163.855 F9600.000
G1 E1.20000 F1200.000
G1 X186.185 Y163.815 E1.20181 F1200.000
G1 X186.185 Y163.043 E1.22655
G1 X186.997 Y163.855 E1.26335
G1 X187.768 Y163.855 E1.28809
G1 X186.185 Y162.272 E1.35988
G1 X186.185 Y161.500 E1.38461
G1 X188.540 Y163.855 E1.49139
G1 X188.815 Y163.358 E1.50959
G1 X186.185 Y160.728 E1.62882
G1 X186.185 Y159.957 E1.65356
G1 X188.815 Y162.586 E1.77279
G1 X188.815 Y161.815 E1.79753
G1 X186.185 Y159.185 E1.91675
G1 X186.185 Y158.414 E1.94149
G1 X188.815 Y161.043 E2.06072
G1 X188.815 Y160.272 E2.08546
G1 X186.185 Y157.642 E2.20469
G1 X186.460 Y157.145 E2.22289
G1 X188.815 Y159.500 E2.32967
G1 X188.815 Y158.728 E2.35440
G1 X187.232 Y157.145 E2.42619
G1 X188.003 Y157.145 E2.45093
G1 X188.815 Y157.957 E2.48773
G1 X188.815 Y157.185 E2.51247
G1 X188.775 Y157.145 E2.51428
G1 F1200.000 E1.31428
G92 E0
G1 X185.275 Y154.765 F9600.000
G1 E1.20000 F1200.000
G1 X185.275 Y146.235 E1.47349 F1200.000
G1 X194.771 Y146.235 E1.77794
G1 X195.007 Y146.493 E1.78916
G1 X195.552 Y146.992 E1.81286
G1 X196.139 Y147.443 E1.83656
G1 X196.762 Y147.840 E1.86027
G1 X197.418 Y148.181 E1.88398
G1 X198.142 Y148.477 E1.90905
G1 X198.806 Y148.686 E1.93138
G1 X199.528 Y148.846 E1.95508
G1 X200.261 Y148.943 E1.97880
G1 X201.000 Y148.975 E2.00250
G1 X201.739 Y148.943 E2.02620
G1 X202.513 Y148.837 E2.05127
G1 X203.194 Y148.686 E2.07361
G1 X203.899 Y148.464 E2.09732
G1 X204.582 Y148.181 E2.12102
G1 X205.238 Y147.840 E2.14473
G1 X205.861 Y147.443 E2.16843
G1 X206.448 Y146.992 E2.19214
G1 X206.993 Y146.493 E2.21584
G1 X207.229 Y146.235 E2.22706
G1 X211.235 Y146.235 E2.35549
G1 X210.604 Y147.225 E2.39313
G1 X209.982 Y148.037 E2.42592
G1 X209.291 Y148.791 E2.45872
G1 X208.537 Y149.482 E2.49151
G1 X207.725 Y150.104 E2.52431
G1 X206.862 Y150.654 E2.55710
G1 X205.955 Y151.126 E2.58990
G1 X205.010 Y151.518 E2.62269
G1 X204.035 Y151.825 E2.65548
G1 X203.036 Y152.047 E2.68828
G1 X202.022 Y152.180 E2.72107
G1 X200.994 Y152.225 E2.75406
G1 X193.994 Y152.225 E2.97849
G1 X193.627 Y152.241 E2.99026
G1 X193.258 Y152.290 E3.00221
G1 X192.894 Y152.370 E3.01417
G1 X192.538 Y152.483 E3.02613
G1 X192.193 Y152.625 E3.03809
G1 X191.862 Y152.797 E3.05004
G1 X191.548 Y152.998 E3.06200
G1 X191.252 Y153.225 E3.07396
G1 X190.977 Y153.477 E3.08592
G1 X190.725 Y153.752 E3.09788
G1 X190.498 Y154.048 E3.10984
G1 X190.298 Y154.362 E3.12179
G1 X190.088 Y154.765 E3.13635
G1 X185.350 Y154.765 E3.28825
G1 X185.525 Y154.332 F9600.000
G1 X185.814 Y154.226 F9600.000
G1 X185.814 Y146.774 E3.52716 F1200.000
G1 X194.533 Y146.774 E3.80671
G1 X195.205 Y147.406 E3.83628
G1 X195.829 Y147.885 E3.86149
G1 X196.492 Y148.307 E3.88671
G1 X197.190 Y148.670 E3.91192
G1 X197.980 Y148.991 E3.93926
G1 X198.667 Y149.208 E3.96235
G1 X199.434 Y149.378 E3.98756
G1 X200.214 Y149.481 E4.01278
G1 X201.000 Y149.515 E4.03799
G1 X201.786 Y149.481 E4.06321
G1 X202.630 Y149.364 E4.09054
G1 X203.333 Y149.208 E4.11363
G1 X204.083 Y148.971 E4.13885
G1 X204.810 Y148.670 E4.16406
G1 X205.508 Y148.307 E4.18928
G1 X206.171 Y147.885 E4.21449
G1 X206.795 Y147.406 E4.23971
G1 X207.467 Y146.774 E4.26927
G1 X210.271 Y146.774 E4.35917
G1 X209.568 Y147.690 E4.39616
G1 X208.909 Y148.409 E4.42745
G1 X208.190 Y149.068 E4.45873
G1 X207.415 Y149.662 E4.49002
G1 X206.593 Y150.186 E4.52130
G1 X205.727 Y150.637 E4.55259
G1 X204.825 Y151.010 E4.58387
G1 X203.895 Y151.304 E4.61515
G1 X202.942 Y151.515 E4.64644
G1 X201.975 Y151.642 E4.67772
G1 X200.982 Y151.686 E4.70957
G1 X193.982 Y151.686 E4.93401
G1 X193.580 Y151.703 E4.94691
G1 X193.164 Y151.758 E4.96037
G1 X192.754 Y151.849 E4.97384
G1 X192.353 Y151.975 E4.98731
G1 X191.965 Y152.136 E5.00077
G1 X191.593 Y152.330 E5.01424
G1 X191.238 Y152.556 E5.02771
G1 X190.905 Y152.812 E5.04118
G1 X190.632 Y153.062 E5.05305
G1 X190.311 Y153.405 E5.06811
G1 X190.056 Y153.738 E5.08159
