; generated by Slic3r 1.1.7 on 2015-11-11 at 12:10:53

; perimeters extrusion width = 0.60mm
; infill extrusion width = 0.65mm
; solid infill extrusion width = 0.55mm
; top infill extrusion width = 0.43mm

G21 ; set units to millimeters
M107

M301 P34 I4 D113     ; set PID nozzle
M304 P162 I17 D378 ; set PID Bed

M104 S250                 ; set extruder temp
M140 S110                 ; set bed temp

G28                            ; home
G1 Z5 F300                ; move bed down 5mm
M84                            ; disable steppers
G4 S300                     ; wait 5 mins to preheat

G28                            ; home

G90 ; use absolute coordinates
G92 E0
M82 ; use absolute distances for extrusion
M204 S1800
G1 F1200.000 E-1.20000
G92 E0
G1 Z0.390 F9600.000
G1 X83.467 Y53.991 F9600.000
G1 E1.20000 F1200.000
G1 X84.642 Y52.235 E1.26774 F1200.000
G1 X86.433 Y50.963 E1.33815
G1 X89.000 Y50.394 E1.42246
G1 X94.000 Y50.394 E1.58277
G1 X95.824 Y50.674 E1.64192
G1 X111.267 Y55.543 E2.16110 F1200.000
G1 X112.707 Y56.147 E2.21113
G1 X114.057 Y56.854 E2.26000
G1 X115.384 Y57.701 E2.31050
G1 X116.521 Y58.569 E2.35637
G1 X116.820 Y58.826 E2.36899
G1 X117.967 Y59.908 E2.41954
G1 X118.674 Y60.679 E2.45309
G1 X119.015 Y61.086 E2.47011
G1 X119.956 Y62.351 E2.52067
G1 X120.521 Y63.238 E2.55438
G1 X120.784 Y63.693 E2.57123
G1 X121.198 Y64.504 E2.60040
G1 X121.711 Y65.633 E2.64019
G1 X122.074 Y66.568 E2.67233
G1 X122.526 Y68.079 E2.72288
G1 X122.844 Y69.623 E2.77344
G1 X122.981 Y70.662 E2.80703
G1 X123.027 Y71.189 E2.82400
G1 X123.073 Y72.242 E2.85779
G1 X123.073 Y72.765 E2.87457
G1 X122.981 Y74.339 E2.92512
G1 X122.752 Y75.899 E2.97568
G1 X122.456 Y77.204 E3.01858
G1 X99.865 Y160.098 E5.77323
G1 X98.914 Y162.078 E5.84364
G1 X97.322 Y163.591 E5.91405
G1 X95.296 Y164.439 E5.98446
G1 X94.000 Y164.579 E6.02625
G1 X85.000 Y164.579 E6.31481
G1 X82.840 Y164.182 E6.38522
G1 X80.962 Y163.043 E6.45563
G1 X79.611 Y161.312 E6.52604
G1 X78.921 Y158.500 E6.61887
G1 X78.928 Y145.227 E7.04442
G1 X82.928 Y56.200 E9.90166
G1 X83.425 Y54.053 E9.97232
G1 X83.955 Y54.186 F9600.000
G1 X85.165 Y52.475 E10.03951 F1200.000
G1 X86.924 Y51.337 E10.10669
G1 X89.000 Y50.933 E10.17449
G1 X94.000 Y50.933 E10.33479
G1 X95.662 Y51.188 E10.38870
G1 X111.076 Y56.047 E10.90686 F1200.000
G1 X112.473 Y56.633 E10.95543
G1 X113.786 Y57.320 E11.00294
G1 X115.074 Y58.142 E11.05193
G1 X116.183 Y58.990 E11.09670
G1 X116.456 Y59.224 E11.10821
G1 X117.569 Y60.272 E11.15726
G1 X118.276 Y61.044 E11.19080
G1 X118.587 Y61.414 E11.20632
G1 X119.502 Y62.641 E11.25536
G1 X120.066 Y63.527 E11.28906
G1 X120.306 Y63.942 E11.30442
G1 X120.707 Y64.729 E11.33274
G1 X121.213 Y65.840 E11.37188
G1 X121.559 Y66.730 E11.40250
G1 X121.999 Y68.195 E11.45155
G1 X122.310 Y69.693 E11.50060
G1 X122.446 Y70.732 E11.53418
G1 X122.488 Y71.212 E11.54965
G1 X122.534 Y72.265 E11.58342
G1 X122.534 Y72.742 E11.59871
G1 X122.446 Y74.269 E11.64776
G1 X122.226 Y75.783 E11.69681
G1 X121.935 Y77.062 E11.73888
G1 X99.344 Y159.956 E14.49353
G1 X98.421 Y161.838 E14.56071
G1 X96.865 Y163.241 E14.62790
G1 X94.000 Y164.039 E14.72324
G1 X85.000 Y164.039 E15.01180
G1 X82.942 Y163.643 E15.07899
G1 X81.179 Y162.510 E15.14617
G1 X79.963 Y160.804 E15.21336
G1 X79.461 Y158.500 E15.28896
G1 X79.466 Y145.251 E15.71374
G1 X83.466 Y56.224 E18.57098
G1 X83.937 Y54.259 E18.63576
G1 F1200.000 E17.43576
G92 E0
G1 X93.725 Y158.225 F9600.000
G1 E1.20000 F1200.000
G1 X85.275 Y158.225 E1.47092 F1200.000
G1 X85.275 Y148.235 E1.79122
G1 X93.725 Y148.235 E2.06214
G1 X93.725 Y158.150 E2.38003
G1 X93.292 Y157.975 F9600.000
G1 X93.186 Y157.686 F9600.000
G1 X85.814 Y157.686 E2.61637 F1200.000
G1 X85.814 Y148.774 E2.90209
G1 X93.186 Y148.774 E3.13843
G1 X93.186 Y157.611 E3.42174
G1 F1200.000 E2.22174
G92 E0
G1 X86.185 Y157.275 F9600.000
G1 E1.20000 F1200.000
G1 X86.225 Y157.315 E1.20181 F1200.000
G1 X87.000 Y157.315 E1.22665
G1 X86.185 Y156.500 E1.26359
G1 X86.185 Y155.725 E1.28843
G1 X87.775 Y157.315 E1.36050
G1 X88.549 Y157.315 E1.38533
G1 X86.185 Y154.951 E1.49252
G1 X86.185 Y154.176 E1.51736
G1 X89.324 Y157.315 E1.65968
G1 X90.099 Y157.315 E1.68452
G1 X86.185 Y153.401 E1.86196
G1 X86.185 Y152.627 E1.88680
G1 X90.873 Y157.315 E2.09937
G1 X91.648 Y157.315 E2.12421
G1 X86.185 Y151.852 E2.37191
G1 X86.185 Y151.077 E2.39674
G1 X92.423 Y157.315 E2.67957
G1 X92.815 Y156.932 E2.69713
G1 X86.185 Y150.303 E2.99773
G1 X86.185 Y149.528 E3.02257
G1 X92.815 Y156.157 E3.32316
G1 X92.815 Y155.383 E3.34800
G1 X86.577 Y149.145 E3.63082
G1 X87.352 Y149.145 E3.65566
G1 X92.815 Y154.608 E3.90336
G1 X92.815 Y153.833 E3.92820
G1 X88.127 Y149.145 E4.14077
G1 X88.901 Y149.145 E4.16560
G1 X92.815 Y153.059 E4.34305
G1 X92.815 Y152.284 E4.36789
G1 X89.676 Y149.145 E4.51020
G1 X90.451 Y149.145 E4.53504
G1 X92.815 Y151.509 E4.64223
G1 X92.815 Y150.735 E4.66707
G1 X91.225 Y149.145 E4.73914
G1 X92.000 Y149.145 E4.76398
G1 X92.815 Y149.960 E4.80092
G1 X92.815 Y149.185 E4.82575
G1 X92.775 Y149.145 E4.82757
G1 F1200.000 E3.62757
G92 E0
G1 X93.725 Y146.765 F9600.000
G1 E1.20000 F1200.000
G1 X85.275 Y146.765 E1.47092 F1200.000
G1 X85.275 Y145.548 E1.50993
G1 X87.937 Y138.235 E1.75946
G1 X93.725 Y138.235 E1.94503
G1 X93.725 Y146.690 E2.21612
G1 X93.292 Y146.515 F9600.000
G1 X93.186 Y146.226 F9600.000
G1 X85.814 Y146.226 E2.45246 F1200.000
G1 X85.814 Y145.644 E2.47112
G1 X88.315 Y138.774 E2.70550
G1 X93.186 Y138.774 E2.86168
G1 X93.186 Y146.151 E3.09818
G1 F1200.000 E1.89818
G92 E0
G1 X86.185 Y145.815 F9600.000
G1 E1.20000 F1200.000
G1 X86.225 Y145.855 E1.20181 F1200.000
G1 X87.005 Y145.855 E1.22682
G1 X86.365 Y145.215 E1.25584
G1 X86.573 Y144.643 E1.27535
G1 X87.785 Y145.855 E1.33030
G1 X88.565 Y145.855 E1.35531
G1 X86.781 Y144.071 E1.43619
G1 X86.989 Y143.499 E1.45570
G1 X89.345 Y145.855 E1.56250
G1 X90.125 Y145.855 E1.58751
G1 X87.198 Y142.927 E1.72024
G1 X87.406 Y142.356 E1.73975
G1 X90.905 Y145.855 E1.89841
G1 X91.685 Y145.855 E1.92342
G1 X87.614 Y141.784 E2.10801
G1 X87.822 Y141.212 E2.12752
G1 X92.465 Y145.855 E2.33803
G1 X92.815 Y145.425 E2.35581
G1 X88.030 Y140.640 E2.57275
G1 X88.238 Y140.068 E2.59226
G1 X92.815 Y144.645 E2.79977
G1 X92.815 Y143.865 E2.82478
G1 X88.446 Y139.496 E3.02285
G1 X88.875 Y139.145 E3.04062
G1 X92.815 Y143.085 E3.21926
G1 X92.815 Y142.305 E3.24426
G1 X89.655 Y139.145 E3.38754
G1 X90.435 Y139.145 E3.41254
G1 X92.815 Y141.525 E3.52045
G1 X92.815 Y140.745 E3.54546
G1 X91.215 Y139.145 E3.61800
G1 X91.995 Y139.145 E3.64301
G1 X92.815 Y139.965 E3.68018
G1 X92.815 Y139.185 E3.70519
G1 X92.775 Y139.145 E3.70701
G1 F1200.000 E2.50701
G92 E0
G1 X93.725 Y136.765 F9600.000
G1 E1.20000 F1200.000
G1 X88.472 Y136.765 E1.36842 F1200.000
G1 X89.275 Y134.559 E1.44370
G1 X89.275 Y128.235 E1.64645
G1 X93.725 Y128.235 E1.78913
G1 X93.725 Y136.690 E2.06021
G1 X93.292 Y136.515 F9600.000
G1 X93.186 Y136.226 F9600.000
G1 X89.242 Y136.226 E2.18665 F1200.000
G1 X89.814 Y134.654 E2.24029
G1 X89.814 Y128.774 E2.42879
G1 X93.186 Y128.774 E2.53689
G1 X93.186 Y136.151 E2.77339
G1 F1200.000 E1.57339
G92 E0
G1 X89.820 Y135.855 F9600.000
G1 E1.20000 F1200.000
G1 X89.785 Y135.819 E1.20161 F1200.000
G1 X90.000 Y135.229 E1.22176
G1 X90.626 Y135.855 E1.25014
G1 X91.431 Y135.855 E1.27596
G1 X90.185 Y134.609 E1.33245
G1 X90.185 Y133.804 E1.35828
G1 X92.236 Y135.855 E1.45128
G1 X92.815 Y135.628 E1.47120
G1 X90.185 Y132.998 E1.59043
G1 X90.185 Y132.193 E1.61625
G1 X92.815 Y134.823 E1.73548
G1 X92.815 Y134.017 E1.76130
G1 X90.185 Y131.388 E1.88053
G1 X90.185 Y130.582 E1.90635
G1 X92.815 Y133.212 E2.02558
G1 X92.815 Y132.407 E2.05140
G1 X90.185 Y129.777 E2.17063
G1 X90.359 Y129.145 E2.19164
G1 X92.815 Y131.601 E2.30300
G1 X92.815 Y130.796 E2.32882
G1 X91.164 Y129.145 E2.40366
G1 X91.969 Y129.145 E2.42948
G1 X92.815 Y129.991 E2.46781
G1 X92.815 Y129.185 E2.49363
G1 X92.775 Y129.145 E2.49544
G1 F1200.000 E1.29544
G92 E0
G1 X93.725 Y126.765 F9600.000
G1 E1.20000 F1200.000
G1 X89.275 Y126.765 E1.34267 F1200.000
G1 X89.275 Y118.235 E1.61616
G1 X93.725 Y118.235 E1.75884
G1 X93.725 Y126.690 E2.02992
G1 X93.292 Y126.515 F9600.000
G1 X93.186 Y126.226 F9600.000
G1 X89.814 Y126.226 E2.13801 F1200.000
G1 X89.814 Y118.774 E2.37692
G1 X93.186 Y118.774 E2.48502
G1 X93.186 Y126.151 E2.72152
G1 F1200.000 E1.52152
G92 E0
G1 X90.225 Y125.855 F9600.000
G1 E1.20000 F1200.000
G1 X90.185 Y125.815 E1.20181 F1200.000
G1 X90.185 Y125.043 E1.22655
G1 X90.997 Y125.855 E1.26335
G1 X91.768 Y125.855 E1.28809
G1 X90.185 Y124.272 E1.35988
G1 X90.185 Y123.500 E1.38461
G1 X92.540 Y125.855 E1.49139
G1 X92.815 Y125.358 E1.50959
G1 X90.185 Y122.728 E1.62882
G1 X90.185 Y121.957 E1.65356
G1 X92.815 Y124.586 E1.77279
G1 X92.815 Y123.815 E1.79753
G1 X90.185 Y121.185 E1.91676
G1 X90.185 Y120.414 E1.94149
G1 X92.815 Y123.043 E2.06072
G1 X92.815 Y122.272 E2.08546
G1 X90.185 Y119.642 E2.20469
G1 X90.460 Y119.145 E2.22289
G1 X92.815 Y121.500 E2.32967
G1 X92.815 Y120.728 E2.35440
G1 X91.232 Y119.145 E2.42619
G1 X92.003 Y119.145 E2.45093
G1 X92.815 Y119.957 E2.48773
G1 X92.815 Y119.185 E2.51247
G1 X92.775 Y119.145 E2.51428
G1 F1200.000 E1.31428
G92 E0
G1 X93.725 Y116.765 F9600.000
G1 E1.20000 F1200.000
G1 X89.275 Y116.765 E1.34267 F1200.000
G1 X89.275 Y108.235 E1.61616
G1 X93.725 Y108.235 E1.75884
G1 X93.725 Y116.690 E2.02992
G1 X93.292 Y116.515 F9600.000
G1 X93.186 Y116.226 F9600.000
G1 X89.814 Y116.226 E2.13801 F1200.000
G1 X89.814 Y108.774 E2.37692
G1 X93.186 Y108.774 E2.48502
G1 X93.186 Y116.151 E2.72152
G1 F1200.000 E1.52152
G92 E0
G1 X90.225 Y115.855 F9600.000
G1 E1.20000 F1200.000
G1 X90.185 Y115.815 E1.20181 F1200.000
G1 X90.185 Y115.043 E1.22655
G1 X90.997 Y115.855 E1.26335
G1 X91.768 Y115.855 E1.28809
G1 X90.185 Y114.272 E1.35988
G1 X90.185 Y113.500 E1.38461
G1 X92.540 Y115.855 E1.49139
G1 X92.815 Y115.358 E1.50959
G1 X90.185 Y112.728 E1.62882
G1 X90.185 Y111.957 E1.65356
G1 X92.815 Y114.586 E1.77279
G1 X92.815 Y113.815 E1.79753
G1 X90.185 Y111.185 E1.91675
G1 X90.185 Y110.414 E1.94149
G1 X92.815 Y113.043 E2.06072
G1 X92.815 Y112.272 E2.08546
G1 X90.185 Y109.642 E2.20469
G1 X90.460 Y109.145 E2.22289
G1 X92.815 Y111.500 E2.32967
G1 X92.815 Y110.728 E2.35440
G1 X91.232 Y109.145 E2.42619
G1 X92.003 Y109.145 E2.45093
G1 X92.815 Y109.957 E2.48773
G1 X92.815 Y109.185 E2.51247
G1 X92.775 Y109.145 E2.51428
G1 F1200.000 E1.31428
G92 E0
G1 X93.725 Y106.765 F9600.000
G1 E1.20000 F1200.000
G1 X89.275 Y106.765 E1.34267 F1200.000
G1 X89.275 Y98.235 E1.61616
G1 X93.725 Y98.235 E1.75884
G1 X93.725 Y106.690 E2.02992
G1 X93.292 Y106.515 F9600.000
G1 X93.186 Y106.226 F9600.000
G1 X89.814 Y106.226 E2.13801 F1200.000
G1 X89.814 Y98.774 E2.37692
G1 X93.186 Y98.774 E2.48502
G1 X93.186 Y106.151 E2.72152
G1 F1200.000 E1.52152
G92 E0
G1 X90.225 Y105.855 F9600.000
G1 E1.20000 F1200.000
G1 X90.185 Y105.815 E1.20181 F1200.000
G1 X90.185 Y105.043 E1.22655
G1 X90.997 Y105.855 E1.26335
G1 X91.768 Y105.855 E1.28809
G1 X90.185 Y104.272 E1.35988
G1 X90.185 Y103.500 E1.38461
G1 X92.540 Y105.855 E1.49139
G1 X92.815 Y105.358 E1.50959
G1 X90.185 Y102.728 E1.62882
G1 X90.185 Y101.957 E1.65356
G1 X92.815 Y104.586 E1.77279
G1 X92.815 Y103.815 E1.79753
G1 X90.185 Y101.185 E1.91675
G1 X90.185 Y100.414 E1.94149
G1 X92.815 Y103.043 E2.06072
G1 X92.815 Y102.272 E2.08546
G1 X90.185 Y99.642 E2.20469
G1 X90.460 Y99.145 E2.22289
G1 X92.815 Y101.500 E2.32967
G1 X92.815 Y100.728 E2.35440
G1 X91.232 Y99.145 E2.42619
G1 X92.003 Y99.145 E2.45093
G1 X92.815 Y99.957 E2.48773
G1 X92.815 Y99.185 E2.51247
G1 X92.775 Y99.145 E2.51428
G1 F1200.000 E1.31428
G92 E0
G1 X93.725 Y96.765 F9600.000
G1 E1.20000 F1200.000
G1 X89.275 Y96.765 E1.34267 F1200.000
G1 X89.275 Y88.235 E1.61616
G1 X93.736 Y88.235 E1.75920
G1 X93.725 Y96.690 E2.03028
G1 X93.292 Y96.515 F9600.000
G1 X93.186 Y96.226 F9600.000
G1 X89.814 Y96.226 E2.13838 F1200.000
G1 X89.814 Y88.774 E2.37729
G1 X93.186 Y88.774 E2.48538
G1 X93.186 Y96.151 E2.72188
G1 F1200.000 E1.52188
G92 E0
G1 X90.225 Y95.855 F9600.000
G1 E1.20000 F1200.000
G1 X90.185 Y95.815 E1.20181 F1200.000
G1 X90.185 Y95.043 E1.22655
G1 X90.997 Y95.855 E1.26335
G1 X91.768 Y95.855 E1.28809
G1 X90.185 Y94.272 E1.35988
G1 X90.185 Y93.500 E1.38461
G1 X92.540 Y95.855 E1.49139
G1 X92.815 Y95.358 E1.50959
G1 X90.185 Y92.728 E1.62882
G1 X90.185 Y91.957 E1.65356
G1 X92.815 Y94.586 E1.77279
G1 X92.815 Y93.815 E1.79753
G1 X90.185 Y91.185 E1.91675
G1 X90.185 Y90.414 E1.94149
G1 X92.815 Y93.043 E2.06072
G1 X92.815 Y92.272 E2.08546
G1 X90.185 Y89.642 E2.20469
G1 X90.460 Y89.145 E2.22289
G1 X92.815 Y91.500 E2.32967
G1 X92.815 Y90.728 E2.35440
G1 X91.232 Y89.145 E2.42619
G1 X92.003 Y89.145 E2.45093
G1 X92.815 Y89.957 E2.48773
G1 X92.815 Y89.185 E2.51247
G1 X92.775 Y89.145 E2.51428
G1 F1200.000 E1.31428
G92 E0
G1 X89.275 Y86.765 F9600.000
G1 E1.20000 F1200.000
G1 X89.275 Y78.235 E1.47349 F1200.000
G1 X98.771 Y78.235 E1.77794
G1 X99.007 Y78.493 E1.78916
G1 X99.552 Y78.992 E1.81286
G1 X100.139 Y79.443 E1.83656
G1 X100.762 Y79.840 E1.86027
G1 X101.418 Y80.181 E1.88398
G1 X102.142 Y80.477 E1.90905
G1 X102.806 Y80.686 E1.93138
G1 X103.528 Y80.846 E1.95508
G1 X104.261 Y80.943 E1.97880
G1 X105.000 Y80.975 E2.00250
G1 X105.739 Y80.943 E2.02620
G1 X106.513 Y80.837 E2.05127
G1 X107.194 Y80.686 E2.07361
G1 X107.899 Y80.464 E2.09732
G1 X108.582 Y80.181 E2.12102
G1 X109.238 Y79.840 E2.14473
G1 X109.861 Y79.443 E2.16843
G1 X110.448 Y78.992 E2.19214
G1 X110.993 Y78.493 E2.21584
G1 X111.229 Y78.235 E2.22706
G1 X115.235 Y78.235 E2.35549
G1 X114.604 Y79.225 E2.39313
G1 X113.982 Y80.037 E2.42592
G1 X113.291 Y80.791 E2.45872
G1 X112.537 Y81.482 E2.49151
G1 X111.725 Y82.104 E2.52431
G1 X110.862 Y82.654 E2.55710
G1 X109.955 Y83.126 E2.58990
G1 X109.010 Y83.518 E2.62269
G1 X108.035 Y83.825 E2.65548
G1 X107.036 Y84.047 E2.68828
G1 X106.022 Y84.180 E2.72107
G1 X104.994 Y84.225 E2.75406
G1 X97.994 Y84.225 E2.97849
G1 X97.627 Y84.241 E2.99026
G1 X97.258 Y84.290 E3.00221
G1 X96.894 Y84.370 E3.01417
G1 X96.538 Y84.483 E3.02613
G1 X96.193 Y84.625 E3.03809
G1 X95.862 Y84.797 E3.05004
G1 X95.548 Y84.998 E3.06200
G1 X95.252 Y85.225 E3.07396
G1 X94.977 Y85.477 E3.08592
G1 X94.725 Y85.752 E3.09788
G1 X94.498 Y86.048 E3.10984
G1 X94.298 Y86.362 E3.12179
G1 X94.088 Y86.765 E3.13635
G1 X89.350 Y86.765 E3.28825
G1 X89.525 Y86.332 F9600.000
G1 X89.814 Y86.226 F9600.000
G1 X89.814 Y78.774 E3.52716 F1200.000
G1 X98.533 Y78.774 E3.80671
G1 X99.205 Y79.406 E3.83628
G1 X99.829 Y79.885 E3.86149
G1 X100.492 Y80.307 E3.88671
G1 X101.190 Y80.670 E3.91192
G1 X101.980 Y80.991 E3.93926
G1 X102.667 Y81.208 E3.96235
G1 X103.434 Y81.378 E3.98756
G1 X104.214 Y81.481 E4.01278
G1 X105.000 Y81.515 E4.03799
G1 X105.786 Y81.481 E4.06321
G1 X106.630 Y81.364 E4.09054
G1 X107.333 Y81.208 E4.11363
G1 X108.083 Y80.971 E4.13885
G1 X108.810 Y80.670 E4.16406
G1 X109.508 Y80.307 E4.18928
G1 X110.171 Y79.885 E4.21449
G1 X110.795 Y79.406 E4.23971
G1 X111.467 Y78.774 E4.26927
G1 X114.271 Y78.774 E4.35917
G1 X113.568 Y79.690 E4.39616
G1 X112.909 Y80.409 E4.42745
G1 X112.190 Y81.068 E4.45873
G1 X111.415 Y81.662 E4.49002
G1 X110.593 Y82.186 E4.52130
G1 X109.727 Y82.637 E4.55259
G1 X108.825 Y83.010 E4.58387
G1 X107.895 Y83.304 E4.61515
G1 X106.942 Y83.515 E4.64644
G1 X105.975 Y83.642 E4.67772
G1 X104.982 Y83.686 E4.70957
G1 X97.982 Y83.686 E4.93401
G1 X97.580 Y83.703 E4.94691
G1 X97.164 Y83.758 E4.96037
G1 X96.754 Y83.849 E4.97384
G1 X96.353 Y83.975 E4.98731
G1 X95.965 Y84.136 E5.00077
G1 X95.593 Y84.330 E5.01424
G1 X95.238 Y84.556 E5.02771
G1 X94.905 Y84.812 E5.04118
G1 X94.632 Y85.062 E5.05305
G1 X94.311 Y85.405 E5.06811
G1 X94.056 Y85.738 E5.08159
G1 X93.761 Y86.226 E5.09985
G1 X89.889 Y86.226 E5.22397
G1 X90.225 Y85.855 F9600.000
G1 X90.185 Y85.815 E5.22579 F1200.000
G1 X90.185 Y85.047 E5.25040
G1 X90.993 Y85.855 E5.28703
G1 X91.761 Y85.855 E5.31164
G1 X90.185 Y84.279 E5.38308
G1 X90.185 Y83.512 E5.40769
G1 X92.528 Y85.855 E5.51394
G1 X93.296 Y85.855 E5.53856
G1 X90.185 Y82.744 E5.67961
G1 X90.185 Y81.976 E5.70423
G1 X93.745 Y85.536 E5.86563
G1 X94.083 Y85.106 E5.88315
G1 X90.185 Y81.208 E6.05989
G1 X90.185 Y80.441 E6.08450
G1 X94.460 Y84.716 E6.27834
G1 X94.877 Y84.365 E6.29582
G1 X90.185 Y79.673 E6.50857
