; generated by Slic3r 1.1.7 on 2015-07-08 at 12:16:56

; perimeters extrusion width = 0.50mm
; infill extrusion width = 0.60mm
; solid infill extrusion width = 0.60mm
; top infill extrusion width = 0.43mm

G21 ; set units to millimeters
G21                                      ; metric values
G90                                      ; absolute positioning
M82                                      ; set extruder to absolute mode
M107                                    ; start with the fan off
G92 E0                                 ; set extruder position to 0
M140 S110                           ; get bed heating up
G28                                      ; home all
M109 S150                           ; set to cleaning temp and wait
G1 Z150 E-30 F75                ; suck up XXmm of filament
M109 S170                           ; heat up rest of way
G1 X45 Y174 F11520           ; move behind scraper
G1 Z0  F1200                       ; CRITICAL: set Z to height of top of scraper
G1 X45 Y174 Z-.5 F4000      ; wiping ; plunge into wipe pad
G1 X55 Y172 Z-.5 F4000      ; wiping
G1 X45 Y174 Z0 F4000        ; wiping
G1 X55 Y172 F4000             ; wiping
G1 X45 Y174 F4000             ; wiping
G1 X55 Y172 F4000             ; wiping
G1 X45 Y174 F4000             ; wiping
G1 X55 Y172 F4000             ; wiping
G1 X60 Y174 F4000             ; wiping
G1 X80 Y172 F4000             ; wiping
G1 X60 Y174 F4000             ; wiping
G1 X80 Y172 F4000             ; wiping
G1 X60 Y174 F4000             ; wiping
G1 X90 Y172 F4000             ; wiping
G1 X80 Y174 F4000             ; wiping
G1 X100 Y172 F4000           ; wiping
G1 X80 Y174 F4000             ; wiping
G1 X100 Y172 F4000           ; wiping
G1 X80 Y174 F4000             ; wiping
G1 X100 Y172 F4000           ; wiping
G1 X110 Y174 F4000           ; wiping
G1 X100 Y172 F4000           ; wiping
G1 X110 Y174 F4000           ; wiping
G1 X100 Y172 F4000           ; wiping
G1 X110 Y174 F4000           ; wiping
G1 X115 Y172 Z-0.5 F1000  ; wipe slower and bury noz in cleanish area
G1 Z10                                 ; raise z
G28 X0 Y0                            ; home x and y
M109 S170                           ; set to probing temp
M204 S300                           ; set accel for probing
G29                                      ; Probe
M204 S2000                         ; set accel back to normal
G1 X5 Y15 Z10 F5000          ; get out the way
M400                                    ; clear buffer
G4 S1                                   ; pause
M109 S250                           ; set extruder temp and wait
G4 S25                                 ; wait for bed to temp up
G1 Z2 E0 F75                       ; extrude filament back into nozzle
M140 S110                           ; get bed temping up during first layer
G90 ; use absolute coordinates
G92 E0
M82 ; use absolute distances for extrusion
M204 S2000
G1 F600.000 E-1.00000
G92 E0
G1 Z0.350 F10500.000
G1 X43.320 Y67.475 F10500.000
G1 E1.00000 F600.000
G1 X69.067 Y50.945 E2.00859 F1500.000
G1 X69.930 Y50.493 E2.04068
G1 X70.827 Y50.115 E2.07278
G1 X71.753 Y49.813 E2.10488
G1 X72.231 Y49.690 E2.12116
G1 X72.701 Y49.590 E2.13698
G1 X73.664 Y49.447 E2.16908
G1 X74.635 Y49.385 E2.20118
G1 X75.609 Y49.405 E2.23328
G1 X76.577 Y49.506 E2.26537 F1500.000
G1 X77.534 Y49.688 E2.29747
G1 X78.472 Y49.949 E2.32957
G1 X79.385 Y50.288 E2.36167
G1 X80.266 Y50.703 E2.39376
G1 X81.109 Y51.189 E2.42586
G1 X81.909 Y51.745 E2.45796
G1 X82.295 Y52.052 E2.47423
G1 X108.715 Y74.747 E3.62233
G1 X114.662 Y79.887 E3.88143
G1 X115.971 Y81.543 E3.95100
G1 X116.606 Y84.137 E4.03906
G1 X116.605 Y88.872 E4.19513
G1 X116.499 Y95.242 E4.40515
G1 X116.434 Y96.254 E4.43855
G1 X116.280 Y97.255 E4.47195
G1 X116.040 Y98.240 E4.50536
G1 X115.886 Y98.729 E4.52228
G1 X115.715 Y99.199 E4.53876
G1 X115.308 Y100.127 E4.57217
G1 X114.821 Y101.016 E4.60557
G1 X114.259 Y101.859 E4.63897
G1 X113.625 Y102.649 E4.67237
G1 X112.925 Y103.382 E4.70577
G1 X112.546 Y103.729 E4.72271
G1 X112.164 Y104.051 E4.73918
G1 X111.347 Y104.650 E4.77259
G1 X110.481 Y105.177 E4.80599
G1 X109.572 Y105.625 E4.83939
G1 X109.098 Y105.822 E4.85631
G1 X108.628 Y105.993 E4.87280
G1 X107.656 Y106.278 E4.90620
G1 X106.662 Y106.476 E4.93960
G1 X106.153 Y106.543 E4.95653
G1 X105.655 Y106.587 E4.97301
G1 X104.887 Y106.615 E4.99834
G1 X44.642 Y106.610 E6.98425
G1 X43.631 Y106.544 E7.01765
G1 X42.629 Y106.391 E7.05105
G1 X41.645 Y106.151 E7.08445
G1 X40.685 Y105.826 E7.11786
G1 X39.757 Y105.418 E7.15126
G1 X39.301 Y105.181 E7.16821
G1 X38.868 Y104.932 E7.18466
G1 X38.026 Y104.369 E7.21807
G1 X37.235 Y103.736 E7.25147
G1 X36.502 Y103.035 E7.28487
G1 X36.154 Y102.655 E7.30186
G1 X35.834 Y102.274 E7.31828
G1 X35.234 Y101.457 E7.35168
G1 X34.708 Y100.591 E7.38508
G1 X34.259 Y99.683 E7.41848
G1 X33.891 Y98.739 E7.45189
G1 X33.607 Y97.766 E7.48529
G1 X33.495 Y97.263 E7.50227
G1 X33.341 Y96.263 E7.53562
G1 X33.297 Y95.765 E7.55210
G1 X33.269 Y94.997 E7.57743
G1 X33.269 Y76.997 E8.17078
G1 X33.666 Y74.924 E8.24035
G1 X34.799 Y73.144 E8.30992
G1 X35.850 Y72.271 E8.35497
G1 X43.257 Y67.516 E8.64511
G1 F600.000 E7.64511
G92 E0
G1 X105.752 Y97.785 F10500.000
G1 E1.00000 F600.000
G1 X105.332 Y97.968 E1.01510 F1500.000
G1 X104.980 Y98.079 E1.02725
G1 X104.621 Y98.158 E1.03940
G1 X104.255 Y98.207 E1.05156
G1 X103.887 Y98.223 E1.06371
G1 X103.519 Y98.207 E1.07586
G1 X103.133 Y98.154 E1.08869
G1 X102.793 Y98.079 E1.10016
G1 X102.442 Y97.968 E1.11231
G1 X102.101 Y97.827 E1.12446
G1 X101.774 Y97.657 E1.13661
G1 X101.463 Y97.459 E1.14876
G1 X101.171 Y97.234 E1.16091
G1 X100.899 Y96.985 E1.17306
G1 X100.650 Y96.713 E1.18521
G1 X100.415 Y96.403 E1.19805
G1 X100.228 Y96.110 E1.20951
G1 X100.057 Y95.783 E1.22166
G1 X99.916 Y95.442 E1.23381
G1 X99.806 Y95.091 E1.24596
G1 X99.726 Y94.731 E1.25812
G1 X99.678 Y94.366 E1.27027
G1 X99.662 Y93.997 E1.28242
G1 X99.678 Y93.629 E1.29457
G1 X99.730 Y93.243 E1.30740
G1 X99.806 Y92.904 E1.31887
G1 X99.916 Y92.552 E1.33102
G1 X100.057 Y92.212 E1.34317
G1 X100.228 Y91.884 E1.35533
G1 X100.417 Y91.588 E1.36691
G1 X100.650 Y91.281 E1.37962
G1 X100.899 Y91.010 E1.39177
G1 X101.171 Y90.761 E1.40392
G1 X101.463 Y90.536 E1.41607
G1 X101.774 Y90.338 E1.42822
G1 X102.101 Y90.168 E1.44037
G1 X102.442 Y90.027 E1.45252
G1 X102.793 Y89.916 E1.46468
G1 X103.153 Y89.836 E1.47682
G1 X103.519 Y89.788 E1.48898
G1 X103.907 Y89.773 E1.50179
G1 X104.255 Y89.788 E1.51327 F1500.000
G1 X104.621 Y89.836 E1.52543
G1 X104.981 Y89.916 E1.53758
G1 X105.332 Y90.027 E1.54972
G1 X105.673 Y90.168 E1.56188
G1 X105.999 Y90.338 E1.57403
G1 X106.310 Y90.536 E1.58618
G1 X106.603 Y90.761 E1.59833
G1 X106.875 Y91.010 E1.61048
G1 X107.124 Y91.281 E1.62263
G1 X107.348 Y91.574 E1.63479
G1 X107.545 Y91.883 E1.64688
G1 X107.716 Y92.212 E1.65908
G1 X107.857 Y92.552 E1.67124
G1 X107.968 Y92.904 E1.68339
G1 X108.048 Y93.264 E1.69554
G1 X108.096 Y93.629 E1.70769
G1 X108.112 Y93.997 E1.71984
G1 X108.096 Y94.366 E1.73199
G1 X108.048 Y94.731 E1.74414
G1 X107.968 Y95.091 E1.75629
G1 X107.857 Y95.443 E1.76844
G1 X107.716 Y95.783 E1.78059
G1 X107.546 Y96.110 E1.79274
G1 X107.348 Y96.421 E1.80489
G1 X107.124 Y96.713 E1.81705
G1 X106.875 Y96.985 E1.82920
G1 X106.603 Y97.234 E1.84135
G1 X106.310 Y97.459 E1.85350
G1 X105.819 Y97.751 E1.87235
G1 F600.000 E0.87235
G92 E0
G1 X103.882 Y89.426 F10500.000
G1 X90.830 Y87.565 F10500.000
G1 E1.00000 F600.000
G1 X58.944 Y87.565 E2.05107 F1500.000
G1 X58.944 Y76.430 E2.41814
G1 X90.830 Y76.430 E3.46921
G1 X90.830 Y87.490 E3.83381
G1 X90.212 Y86.947 F10500.000
G1 X59.562 Y86.947 E4.84415 F1500.000
G1 X59.562 Y77.047 E5.17050
G1 X90.212 Y77.047 E6.18084
G1 X90.212 Y86.872 E6.50471
G1 X90.212 Y87.447 F10500.000
G1 F600.000 E5.50471
G92 E0
G1 X77.000 Y64.657 F10500.000
G1 E1.00000 F600.000
G1 X76.673 Y64.827 E1.01215 F1500.000
G1 X76.312 Y64.974 E1.02498
G1 X75.981 Y65.079 E1.03645
G1 X75.621 Y65.158 E1.04860
G1 X75.255 Y65.207 E1.06075
G1 X74.866 Y65.222 E1.07359
G1 X74.519 Y65.207 E1.08505
G1 X74.153 Y65.158 E1.09720
G1 X73.793 Y65.079 E1.10936
G1 X73.423 Y64.960 E1.12218
G1 X73.101 Y64.827 E1.13365
G1 X72.774 Y64.657 E1.14580
G1 X72.463 Y64.459 E1.15795
G1 X72.171 Y64.234 E1.17011
G1 X71.899 Y63.985 E1.18226
G1 X71.650 Y63.713 E1.19441
G1 X71.426 Y63.421 E1.20656
G1 X71.228 Y63.110 E1.21871
G1 X71.057 Y62.783 E1.23086
G1 X70.916 Y62.442 E1.24301
G1 X70.806 Y62.091 E1.25516
G1 X70.726 Y61.731 E1.26731
G1 X70.678 Y61.366 E1.27946
G1 X70.662 Y60.997 E1.29161
G1 X70.678 Y60.629 E1.30376
G1 X70.726 Y60.264 E1.31592
G1 X70.806 Y59.904 E1.32806
G1 X70.916 Y59.552 E1.34022
G1 X71.057 Y59.212 E1.35237
G1 X71.228 Y58.885 E1.36452
G1 X71.426 Y58.574 E1.37667
G1 X71.650 Y58.281 E1.38882
G1 X71.899 Y58.010 E1.40097
G1 X72.171 Y57.761 E1.41312
G1 X72.463 Y57.536 E1.42527
G1 X72.774 Y57.338 E1.43742
G1 X73.101 Y57.168 E1.44958
G1 X73.442 Y57.027 E1.46172
G1 X73.793 Y56.916 E1.47388
G1 X74.153 Y56.836 E1.48603
G1 X74.519 Y56.788 E1.49818
G1 X74.908 Y56.773 E1.51101
G1 X75.255 Y56.788 E1.52248 F1500.000
G1 X75.621 Y56.836 E1.53463
G1 X75.981 Y56.916 E1.54678
G1 X76.332 Y57.027 E1.55893
G1 X76.673 Y57.168 E1.57108
G1 X77.000 Y57.338 E1.58323
G1 X77.310 Y57.536 E1.59538
G1 X77.603 Y57.761 E1.60753
G1 X77.875 Y58.010 E1.61968
G1 X78.124 Y58.281 E1.63183
G1 X78.348 Y58.574 E1.64398
G1 X78.546 Y58.885 E1.65614
G1 X78.716 Y59.212 E1.66829
G1 X78.857 Y59.552 E1.68044
G1 X78.968 Y59.904 E1.69259
G1 X79.048 Y60.264 E1.70474
G1 X79.096 Y60.629 E1.71689
G1 X79.111 Y61.018 E1.72972
G1 X79.096 Y61.366 E1.74119
G1 X79.048 Y61.731 E1.75334
G1 X78.968 Y62.091 E1.76549
G1 X78.857 Y62.443 E1.77764
G1 X78.716 Y62.783 E1.78979
G1 X78.546 Y63.110 E1.80194
G1 X78.348 Y63.421 E1.81409
G1 X78.124 Y63.713 E1.82624
G1 X77.875 Y63.985 E1.83839
G1 X77.603 Y64.234 E1.85055
G1 X77.310 Y64.459 E1.86270
G1 X77.063 Y64.616 E1.87237
G1 F600.000 E0.87237
G92 E0
G1 X74.883 Y56.426 F10500.000
G1 X49.312 Y90.573 F10500.000
G1 E1.00000 F600.000
G1 X49.598 Y90.884 E1.01392 F1500.000
G1 X49.855 Y91.219 E1.02785
G1 X50.080 Y91.572 E1.04162
G1 X50.277 Y91.950 E1.05570
G1 X50.439 Y92.341 E1.06963
G1 X50.566 Y92.744 E1.08356
G1 X50.657 Y93.156 E1.09749
G1 X50.712 Y93.575 E1.11141
G1 X50.731 Y93.997 E1.12534
G1 X50.712 Y94.420 E1.13928
G1 X50.657 Y94.838 E1.15320
G1 X50.566 Y95.251 E1.16713
G1 X50.439 Y95.654 E1.18106
G1 X50.277 Y96.044 E1.19499
G1 X50.082 Y96.419 E1.20892
G1 X49.855 Y96.776 E1.22285
G1 X49.597 Y97.111 E1.23678
G1 X49.312 Y97.423 E1.25071
G1 X49.000 Y97.708 E1.26463
G1 X48.665 Y97.965 E1.27856
G1 X48.309 Y98.192 E1.29249
G1 X47.934 Y98.387 E1.30642
G1 X47.543 Y98.549 E1.32036
G1 X47.141 Y98.676 E1.33428
G1 X46.728 Y98.767 E1.34821
G1 X46.309 Y98.823 E1.36214
G1 X45.887 Y98.841 E1.37607
G1 X45.465 Y98.823 E1.39000
G1 X45.046 Y98.767 E1.40393
G1 X44.633 Y98.676 E1.41785
G1 X44.230 Y98.549 E1.43178
G1 X43.840 Y98.387 E1.44571
G1 X43.465 Y98.192 E1.45965
G1 X43.109 Y97.965 E1.47357
G1 X42.774 Y97.708 E1.48750
G1 X42.462 Y97.423 E1.50142
G1 X42.176 Y97.111 E1.51536
G1 X41.919 Y96.775 E1.52930
G1 X41.692 Y96.419 E1.54322
G1 X41.497 Y96.044 E1.55715
G1 X41.335 Y95.654 E1.57107
G1 X41.208 Y95.251 E1.58501
G1 X41.117 Y94.838 E1.59894
G1 X41.062 Y94.419 E1.61287
G1 X41.043 Y93.997 E1.62679
G1 X41.062 Y93.575 E1.64072
G1 X41.117 Y93.156 E1.65465
G1 X41.208 Y92.744 E1.66859
G1 X41.335 Y92.341 E1.68250
G1 X41.497 Y91.950 E1.69644
G1 X41.692 Y91.575 E1.71038
G1 X41.921 Y91.216 E1.72441
G1 X42.176 Y90.884 E1.73822
G1 X42.462 Y90.572 E1.75216
G1 X42.773 Y90.287 E1.76608
G1 X43.109 Y90.030 E1.78001
G1 X43.465 Y89.803 E1.79395
G1 X43.840 Y89.607 E1.80787
G1 X44.230 Y89.446 E1.82180
G1 X44.633 Y89.319 E1.83574
G1 X45.046 Y89.227 E1.84966
G1 X45.465 Y89.172 E1.86360
G1 X45.934 Y89.156 E1.87907
G1 X46.309 Y89.172 E1.89143 F1500.000
G1 X46.728 Y89.227 E1.90537
G1 X47.141 Y89.319 E1.91930
G1 X47.544 Y89.446 E1.93323
G1 X47.934 Y89.608 E1.94717
G1 X48.308 Y89.802 E1.96107
G1 X48.665 Y90.030 E1.97501
G1 X49.001 Y90.287 E1.98896
G1 X49.257 Y90.522 E2.00042
G1 X48.875 Y91.010 F10500.000
G1 X49.124 Y91.281 E2.01257 F1500.000
G1 X49.348 Y91.574 E2.02472
G1 X49.545 Y91.883 E2.03681
G1 X49.716 Y92.212 E2.04902
G1 X49.857 Y92.552 E2.06117
G1 X49.968 Y92.904 E2.07332
G1 X50.048 Y93.264 E2.08547
G1 X50.096 Y93.629 E2.09762
G1 X50.112 Y93.997 E2.10977
G1 X50.096 Y94.366 E2.12192
G1 X50.048 Y94.731 E2.13407
G1 X49.968 Y95.091 E2.14622
G1 X49.857 Y95.443 E2.15838
G1 X49.716 Y95.783 E2.17053
G1 X49.546 Y96.110 E2.18268
G1 X49.348 Y96.421 E2.19483
G1 X49.124 Y96.713 E2.20698
G1 X48.875 Y96.985 E2.21913
G1 X48.603 Y97.234 E2.23128
G1 X48.311 Y97.458 E2.24343
G1 X48.000 Y97.657 E2.25558
G1 X47.673 Y97.827 E2.26773
G1 X47.332 Y97.968 E2.27989
G1 X46.981 Y98.079 E2.29203
G1 X46.621 Y98.158 E2.30418
G1 X46.255 Y98.207 E2.31634
G1 X45.887 Y98.223 E2.32849
G1 X45.519 Y98.207 E2.34064
G1 X45.153 Y98.158 E2.35279
G1 X44.793 Y98.079 E2.36494
G1 X44.442 Y97.968 E2.37709
G1 X44.101 Y97.827 E2.38924
G1 X43.774 Y97.657 E2.40139
G1 X43.463 Y97.459 E2.41354
G1 X43.171 Y97.234 E2.42569
G1 X42.899 Y96.985 E2.43784
G1 X42.650 Y96.713 E2.45000
G1 X42.426 Y96.421 E2.46215
G1 X42.228 Y96.110 E2.47430
G1 X42.057 Y95.783 E2.48645
G1 X41.916 Y95.443 E2.49860
G1 X41.806 Y95.091 E2.51075
G1 X41.726 Y94.731 E2.52290
G1 X41.678 Y94.366 E2.53505
G1 X41.662 Y93.997 E2.54720
G1 X41.678 Y93.629 E2.55935
G1 X41.726 Y93.264 E2.57150
G1 X41.806 Y92.904 E2.58366
G1 X41.916 Y92.552 E2.59580
G1 X42.057 Y92.212 E2.60796
G1 X42.228 Y91.884 E2.62012
G1 X42.426 Y91.573 E2.63229
G1 X42.650 Y91.281 E2.64441
G1 X42.899 Y91.010 E2.65656
G1 X43.171 Y90.761 E2.66871
G1 X43.463 Y90.536 E2.68086
G1 X43.774 Y90.338 E2.69301
G1 X44.101 Y90.168 E2.70516
G1 X44.442 Y90.027 E2.71731
G1 X44.793 Y89.916 E2.72947
G1 X45.153 Y89.836 E2.74161
G1 X45.538 Y89.787 E2.75440
G1 X45.887 Y89.772 E2.76592 F1500.000
G1 X46.255 Y89.788 E2.77806
G1 X46.621 Y89.836 E2.79022
G1 X46.981 Y89.916 E2.80237
G1 X47.332 Y90.027 E2.81452
G1 X47.673 Y90.168 E2.82667
G1 X47.999 Y90.338 E2.83881
G1 X48.310 Y90.536 E2.85097
G1 X48.603 Y90.761 E2.86312
G1 X48.820 Y90.959 E2.87281
G1 F600.000 E1.87281
G92 E0
G1 X45.386 Y89.473 F10500.000
G1 X39.830 Y77.940 F10500.000
G1 E1.00000 F600.000
G1 X41.285 Y77.940 E1.04798 F1500.000
G1 X41.619 Y78.439 E1.06777
G1 X41.824 Y78.679 E1.07817
G1 X42.034 Y78.888 E1.08794
G1 X42.322 Y79.131 E1.10034
G1 X42.589 Y79.318 E1.11111
G1 X42.867 Y79.480 E1.12172
G1 X43.435 Y79.727 E1.14213
G1 X43.754 Y79.822 E1.15310
G1 X44.071 Y79.888 E1.16378
G1 X44.399 Y79.928 E1.17468
G1 X45.237 Y79.940 E1.20231
G1 X70.480 Y58.122 E2.30214
G1 X70.803 Y58.402 E2.31622
G1 X70.497 Y58.950 E2.33693
G1 X70.335 Y59.341 E2.35086
G1 X70.208 Y59.744 E2.36479
G1 X70.117 Y60.156 E2.37872
G1 X70.062 Y60.575 E2.39265
G1 X70.043 Y60.997 E2.40658
G1 X70.062 Y61.419 E2.42050
G1 X70.117 Y61.838 E2.43443
G1 X70.208 Y62.251 E2.44837
G1 X70.335 Y62.654 E2.46229
G1 X70.497 Y63.044 E2.47622
G1 X70.692 Y63.419 E2.49015
G1 X70.919 Y63.776 E2.50409
G1 X71.176 Y64.111 E2.51801
G1 X71.462 Y64.422 E2.53193
G1 X71.773 Y64.708 E2.54586
G1 X72.109 Y64.965 E2.55980
G1 X72.465 Y65.192 E2.57373
G1 X72.840 Y65.387 E2.58765
G1 X73.231 Y65.549 E2.60159
G1 X73.633 Y65.676 E2.61551
G1 X73.999 Y65.757 E2.62787
G1 X74.465 Y65.823 E2.64337
G1 X74.887 Y65.841 E2.65730
G1 X75.309 Y65.823 E2.67122
G1 X75.728 Y65.767 E2.68515
G1 X76.141 Y65.676 E2.69909
G1 X76.544 Y65.549 E2.71302
G1 X76.934 Y65.387 E2.72693
G1 X77.309 Y65.192 E2.74087
G1 X77.665 Y64.965 E2.75479
G1 X78.000 Y64.708 E2.76873
G1 X78.312 Y64.422 E2.78267
G1 X78.598 Y64.111 E2.79659
G1 X78.855 Y63.776 E2.81052
G1 X79.082 Y63.419 E2.82444
G1 X79.277 Y63.044 E2.83838
G1 X79.439 Y62.654 E2.85230
G1 X79.566 Y62.251 E2.86624
G1 X79.657 Y61.839 E2.88016
G1 X79.712 Y61.419 E2.89409
G1 X79.731 Y60.997 E2.90802
G1 X79.712 Y60.575 E2.92195
G1 X79.663 Y60.204 E2.93431
G1 X79.566 Y59.744 E2.94980
G1 X79.439 Y59.341 E2.96373
G1 X79.277 Y58.950 E2.97766
G1 X78.971 Y58.401 E2.99838
G1 X79.294 Y58.122 E3.01246
G1 X104.536 Y79.940 E4.11228
G1 X104.690 Y79.940 E4.11737
G1 X110.045 Y84.569 E4.35068
G1 X110.045 Y88.572 E4.48264
