;Generated by Cura LulzBot Edition GCodeWriter Version: 2.6.60
;FLAVOR:RepRap
;TIME:7366
;Filament used: 5.88016m
;Layer height: 0.378
;Generated with Cura_SteamEngine 2.6.62
;This G-Code has been generated specifically for the LulzBot Mini with Aerostruder
G26 ; clear potential 'probe fail' condition
G21 ; set units to Millimetres
M107 ; disable fans
G90 ; absolute positioning
M82 ; set extruder to absolute mode
G92 E0 ; set extruder position to 0
M140 S115 ; start bed heating up
G28 ; home all axes
G0 X3 Y188 Z156 F200 ; move away from endstops
M109 R170 ; soften filament before retraction
G1 E-15 F75 ; retract filament
M109 R170 ; wait for extruder to reach wiping temp
G1 X45 Y174 F11520 ; move above wiper pad
G1 Z0 F1200 ; push nozzle into wiper
G1 X45 Y174 Z-.5 F4000 ; wiping
G1 X55 Y172 Z-.5 F4000 ; wiping
G1 X45 Y174 Z0 F4000 ; wiping
G1 X55 Y172 F4000 ; wiping
G1 X45 Y174 F4000 ; wiping
G1 X55 Y172 F4000 ; wiping
G1 X45 Y174 F4000 ; wiping
G1 X55 Y172 F4000 ; wiping
G1 X60 Y174 F4000 ; wiping
G1 X80 Y172 F4000 ; wiping
G1 X60 Y174 F4000 ; wiping
G1 X80 Y172 F4000 ; wiping
G1 X60 Y174 F4000 ; wiping
G1 X90 Y172 F4000 ; wiping
G1 X80 Y174 F4000 ; wiping
G1 X100 Y172 F4000 ; wiping
G1 X80 Y174 F4000 ; wiping
G1 X100 Y172 F4000 ; wiping
G1 X80 Y174 F4000 ; wiping
G1 X100 Y172 F4000 ; wiping
G1 X110 Y174 F4000 ; wiping
G1 X100 Y172 F4000 ; wiping
G1 X110 Y174 F4000 ; wiping
G1 X100 Y172 F4000 ; wiping
G1 X110 Y174 F4000 ; wiping
G1 X115 Y172 Z-0.5 F1000 ; wiping
G1 Z10 ; raise extruder
G28 X0 Y0 ; home X and Y
G0 X3 Y188 F200 ; move away from endstops
M109 R170 ; wait for extruder to reach probe temp
M204 S300 ; set probing acceleration
G29 ; start auto-leveling sequence
M204 S2000 ; restore standard acceleration
G28 X0 Y0 ; re-home to account for build variance of earlier mini builds
G0 X3 Y188 F200 ; move away from endstops
G4 S1 ; pause
M400 ; wait for moves to finish
M117 Heating... ; progress indicator message on LCD
M109 R245 ; wait for extruder to reach printing temp
M190 S116 ; wait for bed to reach printing temp
G1 Z2 E0 F75 ; prime tiny bit of filment into the nozzle
M117 Mini Printing... ; progress indicator message on LCD


M221 S100
;LAYER_COUNT:74
;LAYER:0
M107
M204 S800
M205 X2
G0 F2250 X36.022 Y35.757 Z0.42
;TYPE:SKIRT
G1 F900 X36.41 Y35.422 E0.02025
G1 X36.846 Y35.15 E0.04055
G1 X37.319 Y34.95 E0.06084
G1 X37.817 Y34.825 E0.08112
G1 X38.367 Y34.779 E0.10292
G1 X111.53 Y34.78 E2.99302
G1 X112.042 Y34.82 E3.0133
G1 X112.541 Y34.939 E3.03357
G1 X113.016 Y35.134 E3.05385
G1 X113.455 Y35.4 E3.07413
G1 X113.703 Y35.596 E3.08661
G1 X114.621 Y36.399 E3.13479
G1 X114.98 Y36.766 E3.15507
G1 X115.291 Y37.208 E3.17642
G1 X115.734 Y37.96 E3.2109
G1 X116.024 Y38.598 E3.23858
G1 X120.802 Y53.027 E3.839
G1 X120.901 Y53.397 E3.85413
G1 X122.169 Y59.536 E4.10175
G1 X122.83 Y62.137 E4.20776
G1 X124.415 Y67.417 E4.42553
G1 X126.281 Y72.556 E4.6415
G1 X128.433 Y77.578 E4.85732
G1 X130.87 Y82.478 E5.0735
G1 X133.594 Y87.257 E5.29079
G1 X135.463 Y90.254 E5.43032
G1 X135.688 Y90.682 E5.44942
G1 X136.122 Y91.678 E5.49234
G1 X136.267 Y92.078 E5.50914
G1 X136.471 Y92.782 E5.5381
G1 X136.567 Y93.228 E5.55612
G1 X136.74 Y94.425 E5.60389
G1 X136.774 Y94.914 E5.62326
G1 X136.77 Y95.684 E5.65367
G1 X136.735 Y96.146 E5.67198
G1 X136.578 Y97.216 E5.7147
G1 X136.484 Y97.651 E5.73228
G1 X136.258 Y98.435 E5.76451
G1 X136.104 Y98.859 E5.78233
G1 X135.641 Y99.903 E5.82744
G1 X135.312 Y100.48 E5.85368
G1 X134.418 Y101.735 E5.91454
G1 X133.92 Y102.288 E5.94394
G1 X132.748 Y103.328 E6.00584
G1 X132.29 Y103.669 E6.02839
G1 X131.635 Y104.073 E6.05879
G1 X131.16 Y104.315 E6.07985
G1 X129.98 Y104.801 E6.13026
G1 X129.411 Y104.978 E6.1538
G1 X128.261 Y105.223 E6.20025
G1 X127.552 Y105.295 E6.2284
G1 X125.823 Y105.284 E6.2967
G1 X125.46 Y105.262 E6.31107
G1 X117.209 Y104.294 E6.63923
G1 X107.928 Y103.493 E7.00722
G1 X98.653 Y103.002 E7.37411
G1 X88.918 Y102.817 E7.75874
G1 X70.019 Y102.77 E8.50529
G1 X69.469 Y102.723 E8.52709
G1 X68.472 Y102.552 E8.56705
G1 X67.964 Y102.422 E8.58777
G1 X67.229 Y102.171 E8.61845
G1 X66.838 Y102.009 E8.63517
G1 X66.135 Y101.663 E8.66612
G1 X65.697 Y101.404 E8.68622
G1 X64.86 Y100.817 E8.7266
G1 X64.384 Y100.41 E8.75134
G1 X63.47 Y99.466 E8.80325
G1 X63.097 Y99.004 E8.8267
G1 X62.658 Y98.347 E8.85791
G1 X62.439 Y97.967 E8.87524
G1 X62.082 Y97.239 E8.90727
G1 X61.874 Y96.701 E8.93005
G1 X61.514 Y95.453 E8.98136
G1 X61.457 Y95.224 E8.99069
G1 X60.861 Y92.422 E9.10385
G1 X59.497 Y87.132 E9.31965
G1 X57.827 Y81.903 E9.53648
G1 X55.873 Y76.798 E9.75241
G1 X53.63 Y71.808 E9.96852
G1 X51.11 Y66.948 E10.18478
G1 X48.323 Y62.25 E10.40056
G1 X45.275 Y57.718 E10.6163
G1 X41.971 Y53.356 E10.83246
G1 X38.42 Y49.185 E11.04885
G1 X35.944 Y46.532 E11.1922
G1 X35.624 Y46.13 E11.21249
G1 X35.371 Y45.684 E11.23275
G1 X35.189 Y45.204 E11.25303
G1 X35.084 Y44.701 E11.27333
G1 X35.057 Y44.275 E11.29019
G1 X35.067 Y38.074 E11.53514
G1 X35.108 Y37.562 E11.55543
G1 X35.227 Y37.063 E11.57569
G1 X35.423 Y36.588 E11.59599
G1 X35.69 Y36.149 E11.61629
G1 X35.702 Y36.135 E11.61702
G0 F810 X36.022 Y35.757
G1 F420 E10.61702
G0 F2250 X37.696 Y39.563
G0 X39.861 Y39.57
;TYPE:WALL-INNER
G1 F420 E11.63657
G1 F900 X111.033 Y39.572 E14.44802
G1 X111.264 Y39.806 E14.46101
G1 X111.511 Y40.227 E14.48029
G1 X111.675 Y40.788 E14.50338
G1 X111.726 Y41.096 E14.51571
G1 X115.174 Y51.239 E14.9389
G1 X114.733 Y50.9 E14.96087
G1 X114.461 Y50.755 E14.97305
G1 X113.466 Y50.347 E15.01553
G1 X113.167 Y50.289 E15.02756
G1 X112.181 Y50.164 E15.06682
G1 X108.991 Y50.164 E15.19283
G1 X107.999 Y50.29 E15.23233
G1 X107.697 Y50.352 E15.24451
G1 X106.711 Y50.756 E15.2866
G1 X106.44 Y50.901 E15.29874
G1 X105.586 Y51.553 E15.34119
G1 X105.369 Y51.774 E15.35342
G1 X104.722 Y52.618 E15.39543
G1 X104.578 Y52.889 E15.40755
G1 X104.168 Y53.882 E15.44999
G1 X104.11 Y54.185 E15.46218
G1 X103.974 Y55.264 E15.50514
G1 X104.111 Y56.351 E15.54842
G1 X104.173 Y56.653 E15.56059
G1 X104.576 Y57.639 E15.60267
G1 X104.722 Y57.911 E15.61487
G1 X105.373 Y58.759 E15.6571
G1 X105.59 Y58.976 E15.66922
G1 X106.44 Y59.628 E15.71154
G1 X106.711 Y59.772 E15.72366
G1 X107.704 Y60.182 E15.7661
G1 X108.006 Y60.24 E15.77824
G1 X108.991 Y60.364 E15.81746
G1 X110.788 Y60.364 E15.88845
G1 X110.063 Y60.752 E15.92093
G1 X109.04 Y61.398 E15.96872
G1 X108.072 Y62.118 E16.01638
G1 X107.157 Y62.904 E16.06403
G1 X106.302 Y63.758 E16.11176
G1 X105.511 Y64.671 E16.15948
G1 X104.791 Y65.639 E16.20714
G1 X104.141 Y66.657 E16.25485
G1 X103.569 Y67.721 E16.30257
G1 X103.075 Y68.824 E16.35031
G1 X102.664 Y69.958 E16.39796
G1 X102.336 Y71.122 E16.44573
G1 X102.097 Y72.305 E16.4934
G1 X101.942 Y73.502 E16.54108
G1 X101.877 Y74.708 E16.58879
G1 X101.897 Y75.915 E16.63648
G1 X102.01 Y77.118 E16.68421
G1 X102.208 Y78.308 E16.73186
G1 X102.353 Y78.908 E16.75624
G1 X101.97 Y78.612 E16.77536
G1 X101.714 Y78.44 E16.78755
G1 X100.725 Y78.025 E16.82992
G1 X100.428 Y77.936 E16.84216
G1 X99.369 Y77.797 E16.88435
G1 X96.061 Y77.796 E17.01503
G1 X95.004 Y77.936 E17.05715
G1 X94.709 Y78.024 E17.06931
G1 X93.716 Y78.44 E17.11184
G1 X93.462 Y78.611 E17.12393
G1 X92.599 Y79.278 E17.16702
G1 X91.937 Y80.136 E17.20983
G1 X91.763 Y80.389 E17.22195
G1 X91.347 Y81.386 E17.26463
G1 X91.259 Y81.68 E17.27675
G1 X91.119 Y82.734 E17.31875
G1 X91.118 Y83.041 E17.33088
G1 X91.258 Y84.104 E17.37323
G1 X91.346 Y84.398 E17.38536
G1 X91.761 Y85.394 E17.42798
G1 X91.934 Y85.649 E17.44015
G1 X92.599 Y86.509 E17.4831
G1 X93.46 Y87.175 E17.52609
G1 X93.716 Y87.347 E17.53828
G1 X94.705 Y87.762 E17.58064
G1 X95.002 Y87.851 E17.59289
G1 X96.062 Y87.989 E17.63512
G1 X99.367 Y87.99 E17.76567
G1 X100.425 Y87.851 E17.80783
G1 X100.721 Y87.763 E17.82002
G1 X101.714 Y87.347 E17.86255
G1 X101.968 Y87.176 E17.87465
G1 X102.831 Y86.509 E17.91773
G1 X103.497 Y85.648 E17.96073
G1 X103.669 Y85.392 E17.97292
G1 X104.083 Y84.402 E18.0153
G1 X104.171 Y84.107 E18.02746
G1 X104.249 Y83.516 E18.05101
G1 X104.46 Y83.875 E18.06746
G1 X105.144 Y84.869 E18.11513
G1 X105.902 Y85.811 E18.16289
G1 X106.726 Y86.693 E18.21057
G1 X107.612 Y87.514 E18.25828
G1 X108.556 Y88.266 E18.30596
G1 X109.551 Y88.95 E18.35365
G1 X110.596 Y89.559 E18.40143
G1 X111.679 Y90.088 E18.44904
G1 X112.801 Y90.538 E18.4968
G1 X113.952 Y90.902 E18.54448
G1 X115.125 Y91.185 E18.59215
G1 X116.318 Y91.379 E18.63989
G1 X117.52 Y91.486 E18.68756
G1 X118.728 Y91.503 E18.73529
G1 X119.934 Y91.434 E18.783
G1 X121.13 Y91.275 E18.83067
G1 X121.718 Y91.154 E18.85438
G1 X121.345 Y91.309 E18.87034
G1 X121.092 Y91.48 E18.8824
G1 X120.348 Y92.052 E18.91947
G1 X120.131 Y92.269 E18.93159
G1 X119.481 Y93.118 E18.97383
G1 X119.337 Y93.389 E18.98595
G1 X118.927 Y94.382 E19.02839
G1 X118.869 Y94.683 E19.0405
G1 X118.732 Y95.764 E19.08354
G1 X118.87 Y96.851 E19.12683
G1 X118.932 Y97.153 E19.139
G1 X119.336 Y98.139 E19.1811
G1 X119.481 Y98.41 E19.19324
G1 X120.133 Y99.264 E19.23568
G1 X120.354 Y99.481 E19.24791
G1 X120.85 Y99.861 E19.2726
G1 X116.839 Y99.425 E19.43197
G1 X112.142 Y98.994 E19.61829
G1 X107.438 Y98.641 E19.80464
G1 X102.73 Y98.367 E19.99093
G1 X98.017 Y98.17 E20.17726
G1 X93.302 Y98.053 E20.36357
G1 X88.593 Y98.014 E20.54959
G1 X70.593 Y98.011 E21.26063
G1 X69.999 Y97.973 E21.28415
G1 X69.424 Y97.859 E21.3073
G1 X68.862 Y97.666 E21.33077
G1 X68.341 Y97.411 E21.35369
G1 X67.845 Y97.079 E21.37727
G1 X67.403 Y96.691 E21.4005
G1 X67.02 Y96.254 E21.42345
G1 X66.69 Y95.76 E21.44692
G1 X66.435 Y95.241 E21.46976
G1 X66.241 Y94.676 E21.49336
G1 X66.127 Y94.1 E21.51655
G1 X66.086 Y93.466 E21.54165
G1 X66.086 Y85.104 E21.87197
G1 X66.919 Y85.871 E21.9167
G1 X67.821 Y86.573 E21.96185
G1 X68.78 Y87.196 E22.00702
G1 X69.786 Y87.734 E22.05209
G1 X70.834 Y88.188 E22.0972
G1 X71.917 Y88.55 E22.14231
G1 X73.026 Y88.821 E22.18741
G1 X74.155 Y88.998 E22.23255
G1 X75.293 Y89.078 E22.27762
G1 X76.436 Y89.065 E22.32277
G1 X77.574 Y88.953 E22.36794
G1 X78.697 Y88.747 E22.41304
G1 X79.798 Y88.445 E22.45814
G1 X80.871 Y88.055 E22.50324
G1 X81.908 Y87.575 E22.54838
G1 X82.9 Y87.008 E22.59351
G1 X83.841 Y86.361 E22.63862
G1 X84.724 Y85.637 E22.68373
G1 X85.543 Y84.841 E22.72884
G1 X86.292 Y83.979 E22.77395
G1 X86.967 Y83.057 E22.81909
G1 X87.562 Y82.081 E22.86425
G1 X88.071 Y81.059 E22.90935
G1 X88.494 Y80 E22.95439
G1 X88.826 Y78.905 E22.99959
G1 X89.064 Y77.787 E23.04475
G1 X89.207 Y76.656 E23.08978
G1 X89.257 Y75.514 E23.13493
G1 X89.206 Y74.373 E23.18005
G1 X89.063 Y73.242 E23.22508
G1 X88.825 Y72.124 E23.27024
G1 X88.493 Y71.031 E23.31536
G1 X88.07 Y69.969 E23.36052
G1 X87.561 Y68.95 E23.40551
G1 X86.966 Y67.972 E23.45073
G1 X86.291 Y67.05 E23.49587
G1 X85.542 Y66.189 E23.54095
G1 X84.723 Y65.393 E23.58607
G1 X83.84 Y64.669 E23.63117
G1 X82.899 Y64.021 E23.6763
G1 X81.906 Y63.455 E23.72145
G1 X80.87 Y62.975 E23.76656
G1 X79.797 Y62.584 E23.81167
G1 X78.695 Y62.282 E23.85681
G1 X77.573 Y62.077 E23.90186
G1 X76.437 Y61.964 E23.94696
G1 X75.294 Y61.952 E23.99211
G1 X74.157 Y62.031 E24.03713
G1 X73.027 Y62.208 E24.08231
G1 X71.918 Y62.479 E24.12741
G1 X70.835 Y62.842 E24.17253
G1 X69.787 Y63.295 E24.21763
G1 X68.781 Y63.834 E24.26272
G1 X67.822 Y64.456 E24.30787
G1 X66.92 Y65.158 E24.35302
G1 X66.086 Y65.925 E24.39778
G1 X66.086 Y50.464 E25.00852
G1 X66.024 Y49.534 E25.04534
G1 X65.833 Y48.573 E25.08404
G1 X65.519 Y47.643 E25.12282
G1 X65.084 Y46.762 E25.16163
G1 X64.538 Y45.947 E25.20038
G1 X63.891 Y45.209 E25.23915
G1 X63.153 Y44.562 E25.27792
G1 X62.338 Y44.016 E25.31667
G1 X61.457 Y43.581 E25.35548
G1 X60.527 Y43.267 E25.39426
G1 X59.566 Y43.076 E25.43296
G1 X58.636 Y43.014 E25.46978
G1 X39.85 Y43.014 E26.21187
G1 X39.86 Y40.065 E26.32836
G0 F810 X39.861 Y39.57
G1 F420 E25.32836
G0 F2250 X39.861 Y37.405
G0 X39.989 Y37.435
G0 X40.067 Y37.453
G0 X89.355 Y49.116
G0 X89.433 Y49.134
G0 X89.433 Y49.135
G0 X87.338 Y48.571
G1 F420 E26.34792
G1 F900 X87.147 Y49.536 E26.38677
G1 X87.086 Y50.464 E26.42351
G1 X87.086 Y65.514 E27.01802
G1 X100.194 Y65.514 E27.53581
G1 X107.116 Y43.014 E28.46572
G1 X94.536 Y43.014 E28.96266
G1 X93.606 Y43.076 E28.99948
G1 X92.645 Y43.267 E29.03818
G1 X91.715 Y43.581 E29.07696
G1 X90.835 Y44.016 E29.11573
G1 X90.018 Y44.561 E29.15453
G1 X89.28 Y45.21 E29.19335
G1 X88.633 Y45.947 E29.23209
G1 X88.088 Y46.763 E29.27085
G1 X87.655 Y47.643 E29.30959
G1 X87.498 Y48.103 E29.32879
G0 F810 X87.338 Y48.571
G1 F420 E28.32879
G0 F2250 X89.433 Y49.135
G0 X99.359 Y60.888
G0 X99.411 Y60.949
G0 X105.623 Y68.305
G0 X105.675 Y68.366
G0 X122.801 Y88.64
G0 X123.69 Y90.667
G1 F420 E29.34835
G1 F900 X123.49 Y90.693 E29.35631
G1 X124.551 Y90.306 E29.40093
G1 X125.169 Y90.093 E29.42675
G1 X125.772 Y89.959 E29.45115
G1 X126.357 Y89.895 E29.4744
G1 X126.961 Y89.899 E29.49826
G1 X127.563 Y89.969 E29.5222
G1 X128.136 Y90.103 E29.54544
G1 X128.709 Y90.307 E29.56947
G1 X129.256 Y90.575 E29.59353
G1 X129.753 Y90.89 E29.61677
G1 X130.221 Y91.267 E29.64051
G1 X130.651 Y91.703 E29.6647
G1 X131.01 Y92.158 E29.6876
G1 X131.336 Y92.683 E29.71201
G1 X131.598 Y93.233 E29.73608
G1 X131.785 Y93.776 E29.75876
G1 X131.919 Y94.376 E29.78305
G1 X131.984 Y94.979 E29.807
G1 X131.98 Y95.571 E29.83039
G1 X131.909 Y96.178 E29.85453
G1 X131.898 Y96.222 E29.85632
G1 X131.956 Y95.764 E29.87456
G1 X131.819 Y94.677 E29.91784
G1 X131.758 Y94.376 E29.92997
G1 X131.354 Y93.389 E29.9721
G1 X131.206 Y93.114 E29.98443
G1 X130.46 Y92.15 E30.03259
G1 X129.599 Y91.482 E30.07563
G1 X129.342 Y91.31 E30.08785
G1 X128.354 Y90.896 E30.13016
G1 X128.057 Y90.807 E30.14241
G1 X126.998 Y90.668 E30.1846
G1 X124.185 Y90.667 E30.29572
G0 F810 X123.69 Y90.667
G0 F2250 X123.73 Y91.267
G1 F420 E30.31528
G1 F900 X122.759 Y91.396 E30.35397
G1 X122.541 Y91.461 E30.36296
G1 X121.631 Y91.84 E30.4019
G1 X121.443 Y91.967 E30.41086
G1 X120.745 Y92.503 E30.44562
G1 X120.584 Y92.665 E30.45464
G1 X119.987 Y93.444 E30.49341
G1 X119.88 Y93.645 E30.50241
G1 X119.505 Y94.555 E30.54129
G1 X119.462 Y94.778 E30.55026
G1 X119.337 Y95.764 E30.58952
G1 X119.462 Y96.753 E30.6289
G1 X119.508 Y96.977 E30.63793
G1 X119.879 Y97.883 E30.67661
G1 X119.987 Y98.084 E30.68562
G1 X120.584 Y98.866 E30.72448
G1 X120.748 Y99.027 E30.73356
G1 X121.524 Y99.622 E30.77219
G1 X121.725 Y99.729 E30.78118
G1 X122.635 Y100.104 E30.82006
G1 X122.858 Y100.147 E30.82903
G1 X123.787 Y100.264 E30.86602
G1 X126.9 Y100.264 E30.98899
G1 X127.833 Y100.147 E31.02614
G1 X128.057 Y100.101 E31.03517
G1 X128.963 Y99.73 E31.07384
G1 X129.165 Y99.622 E31.08289
G1 X129.943 Y99.025 E31.12163
G1 X130.104 Y98.864 E31.13062
G1 X130.702 Y98.084 E31.16945
G1 X130.809 Y97.883 E31.17844
G1 X131.184 Y96.973 E31.21732
G1 X131.227 Y96.749 E31.22633
G1 X131.351 Y95.764 E31.26555
G1 X131.227 Y94.775 E31.30492
G1 X131.181 Y94.551 E31.31396
G1 X130.811 Y93.646 E31.35258
G1 X130.701 Y93.442 E31.36173
G1 X130.032 Y92.577 E31.40493
G1 X129.248 Y91.969 E31.44412
G1 X129.057 Y91.841 E31.4532
G1 X128.151 Y91.462 E31.492
G1 X127.931 Y91.396 E31.50107
G1 X126.959 Y91.268 E31.5398
G1 X124.225 Y91.267 E31.6478
G0 F810 X123.73 Y91.267
G0 F2250 X123.289 Y90.128
G1 F420 E31.66735
G1 F900 X124.345 Y89.742 E31.71176
G1 X125.011 Y89.513 E31.73958
G1 X125.668 Y89.367 E31.76617
G1 X126.331 Y89.295 E31.79251
G1 X126.997 Y89.299 E31.81882
G1 X127.666 Y89.377 E31.84543
G1 X128.309 Y89.528 E31.87152
G1 X128.941 Y89.752 E31.89801
G1 X129.547 Y90.049 E31.92467
G1 X130.101 Y90.401 E31.95059
G1 X130.629 Y90.826 E31.97737
G1 X131.097 Y91.3 E32.00368
G1 X131.507 Y91.82 E32.02984
G1 X131.863 Y92.393 E32.05649
G1 X132.152 Y93 E32.08304
G1 X132.365 Y93.62 E32.10894
G1 X132.513 Y94.283 E32.13577
G1 X132.584 Y94.945 E32.16208
G1 X132.58 Y95.609 E32.18831
G1 X132.501 Y96.28 E32.21499
G1 X132.35 Y96.922 E32.24105
G1 X132.125 Y97.555 E32.26758
G1 X131.83 Y98.16 E32.29417
G1 X131.474 Y98.719 E32.32035
G1 X131.053 Y99.242 E32.34687
G1 X130.584 Y99.706 E32.37293
G1 X130.059 Y100.12 E32.39935
G1 X129.486 Y100.476 E32.42599
G1 X128.89 Y100.759 E32.45206
G1 X127.994 Y101.038 E32.48913
G1 X127.061 Y101.157 E32.52628
G1 X126.085 Y101.111 E32.56488
G1 X121.458 Y100.531 E32.74908
G1 X116.779 Y100.022 E32.93501
G1 X112.092 Y99.592 E33.12093
G1 X107.398 Y99.24 E33.30687
G1 X102.7 Y98.966 E33.49277
