; generated by Slic3r 1.1.7 on 2016-01-07 at 12:12:44

; perimeters extrusion width = 0.42mm
; infill extrusion width = 0.58mm
; solid infill extrusion width = 0.55mm
; top infill extrusion width = 0.48mm

G21 ; set units to millimeters
G21                                      ; metric values
G90                                      ; absolute positioning
M82                                      ; set extruder to absolute mode
M107                                    ; start with the fan off
G92 E0                                 ; set extruder position to 0
M140 S110                           ; get bed heating up
G28                                      ; home all
M109 S150                           ; set to cleaning temp and wait
G1 Z150 E-30 F75                ; suck up XXmm of filament
M109 S170                           ; heat up rest of way
G1 X45 Y174 F11520           ; move behind scraper
G1 Z0  F1200                       ; CRITICAL: set Z to height of top of scraper
G1 X45 Y174 Z-.5 F4000      ; wiping ; plunge into wipe pad
G1 X55 Y172 Z-.5 F4000      ; wiping
G1 X45 Y174 Z0 F4000        ; wiping
G1 X55 Y172 F4000             ; wiping
G1 X45 Y174 F4000             ; wiping
G1 X55 Y172 F4000             ; wiping
G1 X45 Y174 F4000             ; wiping
G1 X55 Y172 F4000             ; wiping
G1 X60 Y174 F4000             ; wiping
G1 X80 Y172 F4000             ; wiping
G1 X60 Y174 F4000             ; wiping
G1 X80 Y172 F4000             ; wiping
G1 X60 Y174 F4000             ; wiping
G1 X90 Y172 F4000             ; wiping
G1 X80 Y174 F4000             ; wiping
G1 X100 Y172 F4000           ; wiping
G1 X80 Y174 F4000             ; wiping
G1 X100 Y172 F4000           ; wiping
G1 X80 Y174 F4000             ; wiping
G1 X100 Y172 F4000           ; wiping
G1 X110 Y174 F4000           ; wiping
G1 X100 Y172 F4000           ; wiping
G1 X110 Y174 F4000           ; wiping
G1 X100 Y172 F4000           ; wiping
G1 X110 Y174 F4000           ; wiping
G1 X115 Y172 Z-0.5 F1000  ; wipe slower and bury noz in cleanish area
G1 Z10                                 ; raise z
G28 X0 Y0                            ; home x and y
M109 S170                           ; set to probing temp
M204 S300                           ; set accel for probing
G29                                      ; Probe
M204 S2000                         ; set accel back to normal
G1 X5 Y15 Z10 F5000          ; get out the way
M400                                    ; clear buffer
G4 S1                                   ; pause
M109 S245                           ; set extruder temp and wait
G4 S25                                 ; wait for bed to temp up
G1 Z2 E0 F75                       ; extrude filament back into nozzle
M140 S110                           ; get bed temping up during first layer
G90 ; use absolute coordinates
G92 E0
M82 ; use absolute distances for extrusion
M204 S2000
G1 F600.000 E-1.00000
G92 E0
G1 Z0.350 F10500.000
G1 X28.351 Y41.230 F10500.000
G1 E1.00000 F600.000
G1 X30.713 Y40.709 E1.08020 F1500.000
G1 X103.826 Y40.709 E3.50407
G1 X106.791 Y41.555 E3.60628
G1 X107.345 Y41.914 E3.62816 F1500.000
G1 X108.060 Y42.525 E3.65935
G1 X109.208 Y43.774 E3.71557
G1 X109.514 Y44.239 E3.73404
G1 X110.365 Y45.842 E3.79420
G1 X130.520 Y99.062 E5.68087
G1 X130.964 Y100.502 E5.73081
G1 X131.233 Y101.984 E5.78076
G1 X131.320 Y103.488 E5.83070
G1 X131.226 Y104.992 E5.88064
G1 X130.951 Y106.473 E5.93059
G1 X130.728 Y107.255 E5.95755
G1 X130.499 Y107.910 E5.98055
G1 X129.878 Y109.282 E6.03050
G1 X129.096 Y110.570 E6.08044
G1 X128.164 Y111.754 E6.13039
G1 X127.603 Y112.343 E6.15735
G1 X127.096 Y112.816 E6.18035
G1 X126.468 Y113.334 E6.20731
G1 X125.908 Y113.743 E6.23032
G1 X125.223 Y114.181 E6.25728
G1 X124.617 Y114.519 E6.28028
G1 X123.884 Y114.871 E6.30724
G1 X123.101 Y115.180 E6.33514
G1 X122.077 Y115.497 E6.37068
G1 X121.106 Y115.710 E6.40363
G1 X120.043 Y115.846 E6.43916
G1 X119.058 Y115.888 E6.47186
G1 X62.430 Y113.337 E8.35110
G1 X60.918 Y113.190 E8.40147
G1 X59.405 Y112.835 E8.45298
G1 X58.015 Y112.312 E8.50221
G1 X56.675 Y111.598 E8.55258
G1 X55.439 Y110.714 E8.60293
G1 X54.306 Y109.651 E8.65445
G1 X53.364 Y108.503 E8.70368
G1 X52.947 Y107.879 E8.72856
G1 X52.605 Y107.302 E8.75079
G1 X25.719 Y55.127 E10.69665
G1 X25.095 Y52.567 E10.78401
G1 X25.092 Y46.310 E10.99145
G1 X25.496 Y44.238 E11.06144
G1 X26.636 Y42.461 E11.13143
G1 X28.290 Y41.274 E11.19894
G1 F600.000 E10.19894
G92 E0
G1 X91.998 Y73.176 F10500.000
G1 E1.00000 F600.000
G1 X79.849 Y73.176 E1.40277 F1500.000
G1 X79.849 Y58.697 E1.88281
G1 X79.907 Y57.820 E1.91192
G1 X80.084 Y56.929 E1.94206
G1 X80.376 Y56.068 E1.97220
G1 X80.778 Y55.252 E2.00234
G1 X81.283 Y54.496 E2.03248
G1 X81.883 Y53.813 E2.06262
G1 X82.566 Y53.213 E2.09277
G1 X83.322 Y52.708 E2.12291
G1 X84.138 Y52.306 E2.15305
G1 X84.999 Y52.014 E2.18319
G1 X85.891 Y51.836 E2.21334
G1 X86.767 Y51.779 E2.24245
G1 X98.582 Y51.779 E2.63416
G1 X92.020 Y73.104 E3.37386
G1 X91.539 Y72.555 F10500.000
G1 X80.470 Y72.555 E3.74082 F1500.000
G1 X80.470 Y58.717 E4.19958
G1 X80.524 Y57.902 E4.22666
G1 X80.685 Y57.090 E4.25411
G1 X80.951 Y56.306 E4.28155
G1 X81.318 Y55.564 E4.30899
G1 X81.777 Y54.875 E4.33643
G1 X82.323 Y54.253 E4.36387
G1 X82.946 Y53.707 E4.39131
G1 X83.634 Y53.247 E4.41876
G1 X84.376 Y52.881 E4.44620
G1 X85.160 Y52.615 E4.47364
G1 X85.972 Y52.454 E4.50108
G1 X86.787 Y52.400 E4.52816
G1 X97.741 Y52.400 E4.89131
G1 X91.561 Y72.483 E5.58791
G1 X91.490 Y73.052 F10500.000
G1 F600.000 E4.58791
G92 E0
G1 X98.519 Y66.257 F10500.000
G1 E1.00000 F600.000
G1 X97.894 Y65.443 E1.03401 F1500.000
G1 X97.344 Y64.114 E1.08168
G1 X97.451 Y64.114 E1.08524
G1 X97.368 Y63.478 E1.10653
G1 X97.502 Y62.460 E1.14054
G1 X97.894 Y61.513 E1.17456
G1 X98.519 Y60.699 E1.20857
G1 X99.333 Y60.074 E1.24258
G1 X100.281 Y59.681 E1.27660
G1 X101.276 Y59.550 E1.30989
G1 X104.319 Y59.550 E1.41077
G1 X104.449 Y59.567 E1.41512
G1 X105.315 Y59.681 E1.44407 F1500.000
G1 X106.263 Y60.074 E1.47808
G1 X107.077 Y60.699 E1.51209
G1 X107.701 Y61.513 E1.54611
G1 X108.094 Y62.460 E1.58012
G1 X108.228 Y63.478 E1.61413
G1 X108.094 Y64.495 E1.64814
G1 X107.701 Y65.443 E1.68216
G1 X107.077 Y66.257 E1.71617
G1 X106.263 Y66.881 E1.75018
G1 X105.315 Y67.274 E1.78420
G1 X104.319 Y67.405 E1.81749
G1 X101.276 Y67.405 E1.91837
G1 X100.281 Y67.274 E1.95167
G1 X99.333 Y66.881 E1.98568
G1 X98.578 Y66.302 E2.01720
G1 F600.000 E1.01720
G92 E0
G1 X104.592 Y59.088 F10500.000
G1 X92.444 Y87.311 F10500.000
G1 E1.00000 F600.000
G1 X93.392 Y87.703 E1.03401 F1500.000
G1 X94.206 Y88.328 E1.06803
G1 X94.830 Y89.142 E1.10204
G1 X94.889 Y89.283 E1.10710
G1 X95.223 Y90.090 E1.13605
G1 X95.357 Y91.107 E1.17006
G1 X95.223 Y92.124 E1.20408
G1 X94.830 Y93.072 E1.23809
G1 X94.206 Y93.886 E1.27210
G1 X93.392 Y94.510 E1.30612
G1 X92.064 Y95.060 E1.35378
G1 X92.064 Y94.953 E1.35734
G1 X91.448 Y95.034 E1.37792
G1 X88.405 Y95.034 E1.47880
G1 X87.561 Y94.923 E1.50703
G1 X87.410 Y94.903 E1.51209
G1 X86.462 Y94.510 E1.54611
G1 X85.648 Y93.886 E1.58012
G1 X85.023 Y93.072 E1.61413
G1 X84.631 Y92.124 E1.64814
G1 X84.497 Y91.107 E1.68216
G1 X84.631 Y90.090 E1.71617
G1 X85.023 Y89.142 E1.75018
G1 X85.648 Y88.328 E1.78420
G1 X86.462 Y87.703 E1.81821
G1 X87.410 Y87.311 E1.85222
G1 X88.405 Y87.180 E1.88552
G1 X91.448 Y87.180 E1.98640
G1 X91.578 Y87.197 E1.99074
G1 X92.370 Y87.301 E2.01721 F1500.000
G1 X91.622 Y86.699 F10500.000
G1 F600.000 E1.01721
G92 E0
G1 X115.419 Y100.131 F10500.000
G1 E1.00000 F600.000
G1 X116.035 Y100.050 E1.02058 F1500.000
G1 X119.078 Y100.050 E1.12146
G1 X120.073 Y100.181 E1.15475
G1 X121.021 Y100.574 E1.18876
G1 X121.835 Y101.199 E1.22278
G1 X122.460 Y102.013 E1.25679
G1 X122.852 Y102.960 E1.29080
G1 X122.986 Y103.978 E1.32482
G1 X122.902 Y104.614 E1.34611
G1 X123.010 Y104.614 E1.34967
G1 X122.460 Y105.943 E1.39733
G1 X121.835 Y106.757 E1.43135
G1 X121.021 Y107.381 E1.46536
G1 X120.073 Y107.774 E1.49937
G1 X119.078 Y107.905 E1.53267
G1 X116.035 Y107.905 E1.63355
G1 X115.419 Y107.824 E1.65412
G1 X115.419 Y107.931 E1.65769
G1 X114.091 Y107.381 E1.70535
G1 X113.277 Y106.757 E1.73936
G1 X112.653 Y105.943 E1.77338
G1 X112.260 Y104.995 E1.80739
G1 X112.126 Y103.978 E1.84140
G1 X112.260 Y102.960 E1.87541
G1 X112.653 Y102.013 E1.90943
G1 X113.277 Y101.199 E1.94344
G1 X114.091 Y100.574 E1.97745
G1 X115.419 Y100.024 E2.02512
G1 X115.419 Y100.056 E2.02619
G1 X115.829 Y99.845 F10500.000
G1 X116.041 Y99.094 F10500.000
G1 X113.778 Y100.031 E2.10740 F1500.000
G1 X112.834 Y100.755 E2.14683
G1 X112.110 Y101.699 E2.18627
G1 X111.655 Y102.798 E2.22571
G1 X111.499 Y103.978 E2.26514
G1 X111.655 Y105.157 E2.30458
G1 X112.110 Y106.256 E2.34402
G1 X112.834 Y107.200 E2.38345
G1 X113.778 Y107.924 E2.42289
G1 X115.027 Y108.441 E2.46772
G1 X114.917 Y108.861 E2.48211
G1 X112.116 Y108.518 E2.57565
G1 X105.871 Y107.892 E2.78373
G1 X99.613 Y107.405 E2.99181
G1 X93.347 Y107.057 E3.19989
G1 X87.074 Y106.849 E3.40797
G1 X80.803 Y106.779 E3.61587
G1 X62.829 Y106.779 E4.21176
G1 X62.139 Y106.734 E4.23469
G1 X61.491 Y106.605 E4.25658
G1 X60.865 Y106.393 E4.27848
G1 X60.273 Y106.100 E4.30038
G1 X59.724 Y105.734 E4.32227
G1 X59.227 Y105.298 E4.34417
G1 X58.792 Y104.801 E4.36607
G1 X58.425 Y104.252 E4.38796
G1 X58.133 Y103.660 E4.40986
G1 X57.920 Y103.034 E4.43176
G1 X57.792 Y102.387 E4.45365
G1 X57.746 Y101.697 E4.47658
G1 X57.746 Y91.952 E4.79965
G1 X58.206 Y92.504 E4.82347
G1 X59.094 Y93.394 E4.86517
G1 X60.064 Y94.195 E4.90686
G1 X61.106 Y94.900 E4.94856
G1 X62.211 Y95.500 E4.99025
G1 X63.368 Y95.992 E5.03194
G1 X64.568 Y96.371 E5.07364
G1 X65.798 Y96.632 E5.11533
G1 X67.047 Y96.774 E5.15703
G1 X68.305 Y96.796 E5.19872
G1 X69.559 Y96.696 E5.24042
G1 X70.797 Y96.477 E5.28211
G1 X72.008 Y96.139 E5.32381
G1 X73.182 Y95.687 E5.36550
G1 X74.306 Y95.124 E5.40720
G1 X75.372 Y94.455 E5.44889
G1 X76.368 Y93.688 E5.49058
G1 X77.286 Y92.828 E5.53228
G1 X78.117 Y91.884 E5.57397
G1 X78.853 Y90.864 E5.61567
G1 X79.488 Y89.778 E5.65736
G1 X80.016 Y88.637 E5.69906
G1 X80.431 Y87.450 E5.74075
G1 X80.675 Y86.457 E5.77465
G1 X80.731 Y86.228 E5.78245
G1 X80.912 Y84.984 E5.82414
G1 X80.972 Y83.728 E5.86584
G1 X80.912 Y82.471 E5.90753
G1 X80.731 Y81.227 E5.94922
G1 X80.431 Y80.005 E5.99092
G1 X80.016 Y78.818 E6.03261
G1 X79.488 Y77.677 E6.07431
G1 X78.853 Y76.591 E6.11600
G1 X78.117 Y75.572 E6.15770
G1 X77.961 Y75.395 E6.16550
G1 X77.286 Y74.627 E6.19939
G1 X76.368 Y73.768 E6.24109
G1 X75.372 Y73.000 E6.28278
G1 X74.306 Y72.331 E6.32448
G1 X73.182 Y71.768 E6.36617
G1 X72.963 Y71.683 E6.37398
G1 X72.008 Y71.316 E6.40787
G1 X70.797 Y70.978 E6.44956
G1 X69.559 Y70.759 E6.49126
G1 X68.305 Y70.659 E6.53295
G1 X67.047 Y70.681 E6.57465
G1 X66.813 Y70.706 E6.58245
G1 X65.798 Y70.823 E6.61634
G1 X64.568 Y71.084 E6.65803
G1 X63.368 Y71.463 E6.69973
G1 X62.211 Y71.955 E6.74142
G1 X62.003 Y72.066 E6.74923
G1 X61.106 Y72.556 E6.78312
G1 X60.064 Y73.260 E6.82481
G1 X59.094 Y74.061 E6.86651
G1 X58.206 Y74.952 E6.90820
G1 X57.746 Y75.504 E6.93202
G1 X57.746 Y58.697 E7.48922
G1 X57.689 Y57.820 E7.51833
G1 X57.512 Y56.929 E7.54847
G1 X57.219 Y56.068 E7.57860
G1 X56.817 Y55.252 E7.60875
G1 X56.312 Y54.496 E7.63889
G1 X55.712 Y53.813 E7.66904
G1 X55.029 Y53.213 E7.69918
G1 X54.273 Y52.708 E7.72931
G1 X53.457 Y52.306 E7.75947
G1 X52.597 Y52.014 E7.78960
G1 X51.705 Y51.836 E7.81974
G1 X50.829 Y51.779 E7.84885
G1 X31.663 Y51.779 E8.48425
G1 X31.654 Y48.472 E8.59389
G1 X31.658 Y47.279 E8.63342
G1 X103.522 Y47.279 E11.01587
G1 X103.913 Y47.674 E11.03430
G1 X104.231 Y48.214 E11.05508
G1 X104.425 Y48.874 E11.07787
G1 X104.474 Y49.174 E11.08795
G1 X108.396 Y60.714 E11.49203
G1 X108.024 Y60.913 E11.50601
G1 X107.520 Y60.255 E11.53349
G1 X106.576 Y59.531 E11.57293
G1 X105.477 Y59.076 E11.61236
G1 X104.360 Y58.929 E11.64972
G1 X101.236 Y58.929 E11.75330
G1 X100.118 Y59.076 E11.79066
G1 X99.019 Y59.531 E11.83009
G1 X98.076 Y60.255 E11.86953
G1 X97.351 Y61.199 E11.90897
G1 X96.896 Y62.298 E11.94840
G1 X96.739 Y63.493 E11.98836
G1 X96.414 Y63.493 E11.99913
G1 X97.351 Y65.756 E12.08033
G1 X98.076 Y66.700 E12.11976
G1 X99.019 Y67.424 E12.15920
G1 X100.118 Y67.879 E12.19864
G1 X101.236 Y68.026 E12.23600
G1 X104.543 Y68.026 E12.34564
G1 X104.629 Y68.416 E12.35887
G1 X103.251 Y69.057 E12.40925
G1 X102.079 Y69.729 E12.45405
G1 X100.967 Y70.497 E12.49886
G1 X99.925 Y71.357 E12.54365
G1 X98.959 Y72.302 E12.58846
G1 X98.076 Y73.326 E12.63326
G1 X97.284 Y74.420 E12.67806
G1 X96.587 Y75.578 E12.72286
G1 X95.990 Y76.791 E12.76766
G1 X95.498 Y78.049 E12.81246
G1 X95.115 Y79.345 E12.85726
G1 X94.842 Y80.669 E12.90206
G1 X94.683 Y82.011 E12.94686
G1 X94.638 Y83.361 E12.99166
G1 X94.707 Y84.711 E13.03646
G1 X94.890 Y86.050 E13.08126
G1 X95.186 Y87.368 E13.12606
G1 X95.476 Y88.287 E13.15802
G1 X95.106 Y88.480 E13.17185
G1 X94.649 Y87.885 E13.19673
G1 X93.705 Y87.160 E13.23616
G1 X92.606 Y86.705 E13.27560
G1 X91.489 Y86.558 E13.31296
G1 X88.365 Y86.558 E13.41654
G1 X87.248 Y86.705 E13.45389
G1 X86.149 Y87.160 E13.49333
G1 X85.205 Y87.885 E13.53277
G1 X84.481 Y88.828 E13.57220
G1 X84.025 Y89.927 E13.61164
G1 X83.995 Y90.160 E13.61942
G1 X83.870 Y91.107 E13.65108
G1 X84.025 Y92.286 E13.69051
G1 X84.481 Y93.385 E13.72995
G1 X85.205 Y94.329 E13.76939
G1 X86.149 Y95.053 E13.80882
G1 X87.248 Y95.508 E13.84826
G1 X88.365 Y95.655 E13.88562
G1 X91.442 Y95.655 E13.98765
G1 X91.442 Y95.990 E13.99876
G1 X93.705 Y95.053 E14.07996
G1 X94.649 Y94.329 E14.11940
G1 X95.373 Y93.385 E14.15883
G1 X95.828 Y92.286 E14.19827
G1 X95.984 Y91.107 E14.23771
G1 X95.888 Y90.383 E14.26189
G1 X96.288 Y90.259 E14.27575
G1 X96.725 Y91.109 E14.30743
G1 X97.442 Y92.254 E14.35224
G1 X98.254 Y93.334 E14.39704
G1 X99.155 Y94.342 E14.44184
G1 X100.137 Y95.269 E14.48664
G1 X101.195 Y96.111 E14.53144
G1 X102.320 Y96.859 E14.57624
G1 X103.504 Y97.510 E14.62104
G1 X104.739 Y98.058 E14.66584
G1 X106.016 Y98.500 E14.71064
G1 X107.326 Y98.832 E14.75544
G1 X108.659 Y99.052 E14.80024
G1 X110.007 Y99.158 E14.84504
G1 X111.358 Y99.150 E14.88984
G1 X112.704 Y99.028 E14.93464
G1 X114.034 Y98.792 E14.97945
G1 X115.340 Y98.444 E15.02425
G1 X117.288 Y97.759 E15.09270
G1 X117.986 Y97.613 E15.11636
G1 X118.697 Y97.552 E15.14002
G1 X119.411 Y97.577 E15.16368
G1 X120.116 Y97.688 E15.18733
G1 X120.802 Y97.883 E15.21099
G1 X121.460 Y98.160 E15.23465
G1 X122.079 Y98.514 E15.25831
G1 X122.652 Y98.940 E15.28196
G1 X123.169 Y99.432 E15.30562
G1 X123.623 Y99.982 E15.32928
G1 X124.007 Y100.584 E15.35294
G1 X124.316 Y101.227 E15.37659
G1 X124.545 Y101.903 E15.40025
G1 X124.691 Y102.601 E15.42391
G1 X124.752 Y103.312 E15.44757
G1 X124.727 Y104.025 E15.47122
G1 X124.616 Y104.730 E15.49488
G1 X124.421 Y105.417 E15.51854
G1 X124.144 Y106.074 E15.54220
G1 X123.790 Y106.694 E15.56585
G1 X123.364 Y107.267 E15.58951
G1 X122.872 Y107.784 E15.61317
G1 X122.322 Y108.238 E15.63683
G1 X121.720 Y108.622 E15.66048
G1 X121.088 Y108.925 E15.68372
G1 X120.191 Y109.204 E15.71486
G1 X119.272 Y109.321 E15.74559
G1 X118.300 Y109.276 E15.77785
G1 X116.041 Y108.999 E15.85331
G1 X116.041 Y108.526 E15.86898
G1 X119.118 Y108.526 E15.97101
G1 X120.236 Y108.379 E16.00837
G1 X121.335 Y107.924 E16.04781
G1 X122.278 Y107.200 E16.08725
G1 X123.002 Y106.256 E16.12668
G1 X123.940 Y103.993 E16.20788
G1 X123.615 Y103.993 E16.21865
G1 X123.458 Y102.798 E16.25861
G1 X123.002 Y101.699 E16.29804
G1 X122.278 Y100.755 E16.33748
G1 X121.335 Y100.031 E16.37692
G1 X120.236 Y99.576 E16.41635
G1 X119.118 Y99.429 E16.45371
G1 X116.041 Y99.429 E16.55574
G1 X116.041 Y99.169 E16.56436
G1 F600.000 E15.56436
G92 E0
G1 X57.478 Y90.522 F10500.000
G1 E1.00000 F600.000
G1 X57.906 Y91.159 E1.02544 F1500.000
G1 X58.666 Y92.085 E1.06515
G1 X59.512 Y92.933 E1.10487
G1 X60.435 Y93.696 E1.14458
G1 X61.428 Y94.367 E1.18429
G1 X62.480 Y94.940 E1.22401
G1 X63.582 Y95.408 E1.26372
G1 X64.725 Y95.769 E1.30343
G1 X65.896 Y96.018 E1.34315
G1 X67.087 Y96.154 E1.38286
G1 X68.284 Y96.174 E1.42257
G1 X69.478 Y96.079 E1.46229
G1 X70.658 Y95.870 E1.50200
G1 X71.812 Y95.549 E1.54171
G1 X72.930 Y95.118 E1.58143
G1 X74.001 Y94.582 E1.62114
G1 X75.016 Y93.945 E1.66085
G1 X75.964 Y93.214 E1.70057
G1 X76.839 Y92.395 E1.74028
