; generated by Slic3r 1.1.7 on 2015-12-07 at 14:21:03

; perimeters extrusion width = 0.42mm
; infill extrusion width = 0.58mm
; solid infill extrusion width = 0.55mm
; top infill extrusion width = 0.48mm

G21 ; set units to millimeters
G21                                      ; metric values
G90                                      ; absolute positioning
M82                                      ; set extruder to absolute mode
M107                                    ; start with the fan off
G92 E0                                 ; set extruder position to 0
M140 S110                           ; get bed heating up
G28                                      ; home all
M109 S150                           ; set to cleaning temp and wait
G1 Z150 E-30 F75                ; suck up XXmm of filament
M109 S170                           ; heat up rest of way
G1 X45 Y174 F11520           ; move behind scraper
G1 Z0  F1200                       ; CRITICAL: set Z to height of top of scraper
G1 X45 Y174 Z-.5 F4000      ; wiping ; plunge into wipe pad
G1 X55 Y172 Z-.5 F4000      ; wiping
G1 X45 Y174 Z0 F4000        ; wiping
G1 X55 Y172 F4000             ; wiping
G1 X45 Y174 F4000             ; wiping
G1 X55 Y172 F4000             ; wiping
G1 X45 Y174 F4000             ; wiping
G1 X55 Y172 F4000             ; wiping
G1 X60 Y174 F4000             ; wiping
G1 X80 Y172 F4000             ; wiping
G1 X60 Y174 F4000             ; wiping
G1 X80 Y172 F4000             ; wiping
G1 X60 Y174 F4000             ; wiping
G1 X90 Y172 F4000             ; wiping
G1 X80 Y174 F4000             ; wiping
G1 X100 Y172 F4000           ; wiping
G1 X80 Y174 F4000             ; wiping
G1 X100 Y172 F4000           ; wiping
G1 X80 Y174 F4000             ; wiping
G1 X100 Y172 F4000           ; wiping
G1 X110 Y174 F4000           ; wiping
G1 X100 Y172 F4000           ; wiping
G1 X110 Y174 F4000           ; wiping
G1 X100 Y172 F4000           ; wiping
G1 X110 Y174 F4000           ; wiping
G1 X115 Y172 Z-0.5 F1000  ; wipe slower and bury noz in cleanish area
G1 Z10                                 ; raise z
G28 X0 Y0                            ; home x and y
M109 S170                           ; set to probing temp
M204 S300                           ; set accel for probing
G29                                      ; Probe
M204 S2000                         ; set accel back to normal
G1 X5 Y15 Z10 F5000          ; get out the way
M400                                    ; clear buffer
G4 S1                                   ; pause
M109 S245                           ; set extruder temp and wait
G4 S25                                 ; wait for bed to temp up
G1 Z2 E0 F75                       ; extrude filament back into nozzle
M140 S110                           ; get bed temping up during first layer
G90 ; use absolute coordinates
G92 E0
M82 ; use absolute distances for extrusion
M204 S2000
G1 F600.000 E-1.00000
G92 E0
G1 Z0.350 F10500.000
G1 X45.432 Y55.239 F10500.000
G1 E1.00000 F600.000
G1 X46.497 Y54.364 E1.04570 F1500.000
G1 X47.121 Y53.947 E1.07058
G1 X47.698 Y53.605 E1.09281
G1 X99.873 Y26.719 E3.03867
G1 X102.433 Y26.095 E3.12603
G1 X108.690 Y26.092 E3.33347
G1 X110.762 Y26.496 E3.40346 F1500.000
G1 X112.539 Y27.636 E3.47345
G1 X113.770 Y29.351 E3.54344
G1 X114.291 Y31.713 E3.62364
G1 X114.291 Y104.826 E6.04751
G1 X113.445 Y107.791 E6.14972
G1 X113.087 Y108.343 E6.17151
G1 X112.475 Y109.060 E6.20279
G1 X111.228 Y110.206 E6.25894
G1 X110.761 Y110.514 E6.27748
G1 X109.158 Y111.365 E6.33764
G1 X55.938 Y131.519 E8.22429
G1 X54.498 Y131.964 E8.27425
G1 X53.016 Y132.233 E8.32420
G1 X52.206 Y132.302 E8.35115
G1 X51.512 Y132.320 E8.37416
G1 X50.008 Y132.226 E8.42410
G1 X48.527 Y131.951 E8.47405
G1 X47.090 Y131.499 E8.52399
G1 X45.718 Y130.878 E8.57394
G1 X45.011 Y130.474 E8.60091
G1 X44.430 Y130.095 E8.62390
G1 X43.246 Y129.164 E8.67385
G1 X42.184 Y128.096 E8.72379
G1 X41.666 Y127.468 E8.75077
G1 X41.257 Y126.908 E8.77376
G1 X40.819 Y126.222 E8.80072
G1 X40.481 Y125.617 E8.82372
G1 X39.820 Y124.101 E8.87855
G1 X39.503 Y123.077 E8.91410
G1 X39.290 Y122.106 E8.94703
G1 X39.112 Y120.058 E9.01520
G1 X41.663 Y63.430 E10.89445
G1 X41.817 Y61.884 E10.94595
G1 X42.154 Y60.438 E10.99518
G1 X42.687 Y59.016 E11.04554
G1 X43.402 Y57.675 E11.09592
G1 X44.286 Y56.439 E11.14629
G1 X45.374 Y55.287 E11.19883
G1 F600.000 E10.19883
G92 E0
G1 X103.221 Y99.582 F10500.000
G1 E1.00000 F600.000
G1 X81.824 Y92.998 E1.74219 F1500.000
G1 X81.824 Y80.849 E2.14496
G1 X96.303 Y80.849 E2.62500
G1 X97.180 Y80.907 E2.65411
G1 X98.071 Y81.084 E2.68425
G1 X98.932 Y81.376 E2.71439
G1 X99.748 Y81.778 E2.74453
G1 X100.504 Y82.283 E2.77467
G1 X101.187 Y82.883 E2.80482
G1 X101.787 Y83.566 E2.83496
G1 X102.292 Y84.322 E2.86510
G1 X102.694 Y85.138 E2.89524
G1 X102.986 Y85.999 E2.92538
G1 X103.164 Y86.890 E2.95552
G1 X103.221 Y87.767 E2.98463
G1 X103.221 Y99.507 E3.37386
G1 X102.600 Y98.741 F10500.000
G1 X82.445 Y92.539 E4.07294 F1500.000
G1 X82.445 Y81.470 E4.43990
G1 X96.283 Y81.470 E4.89866
G1 X97.098 Y81.524 E4.92575
G1 X97.910 Y81.685 E4.95319
G1 X98.694 Y81.951 E4.98063
G1 X99.436 Y82.318 E5.00807
G1 X100.125 Y82.777 E5.03551
G1 X100.747 Y83.323 E5.06296
G1 X101.293 Y83.946 E5.09040
G1 X101.753 Y84.634 E5.11784
G1 X102.119 Y85.376 E5.14528
G1 X102.385 Y86.160 E5.17272
G1 X102.546 Y86.972 E5.20016
G1 X102.600 Y87.787 E5.22725
G1 X102.600 Y98.666 E5.58791
G1 X102.501 Y99.231 F10500.000
G1 F600.000 E4.58791
G92 E0
G1 X95.476 Y101.661 F10500.000
G1 E1.00000 F600.000
G1 X95.369 Y101.661 E1.00356 F1500.000
G1 X95.450 Y102.276 E1.02414
G1 X95.450 Y105.319 E1.12502
G1 X95.319 Y106.315 E1.15831
G1 X94.926 Y107.263 E1.19233
G1 X94.301 Y108.077 E1.22634
G1 X93.487 Y108.701 E1.26035
G1 X92.540 Y109.094 E1.29437
G1 X91.522 Y109.228 E1.32838
G1 X90.505 Y109.094 E1.36239
G1 X89.557 Y108.701 E1.39640
G1 X88.743 Y108.077 E1.43042
G1 X88.119 Y107.263 E1.46443
G1 X87.726 Y106.315 E1.49844
G1 X87.595 Y105.319 E1.53174
G1 X87.595 Y102.276 E1.63262
G1 X87.726 Y101.281 E1.66591
G1 X88.119 Y100.333 E1.69993
G1 X88.743 Y99.519 E1.73394
G1 X89.557 Y98.894 E1.76795
G1 X90.505 Y98.502 E1.80196
G1 X91.522 Y98.368 E1.83598
G1 X92.388 Y98.482 E1.86493
G1 X92.540 Y98.502 E1.86999 F1500.000
G1 X93.487 Y98.894 E1.90400
G1 X94.301 Y99.519 E1.93802
G1 X94.926 Y100.333 E1.97203
G1 X95.447 Y101.592 E2.01720
G1 F600.000 E1.01720
G92 E0
G1 X92.354 Y98.333 F10500.000
G1 X63.256 Y85.581 F10500.000
G1 E1.00000 F600.000
G1 X63.893 Y85.497 E1.02129 F1500.000
G1 X64.910 Y85.631 E1.05531
G1 X65.858 Y86.023 E1.08932
G1 X66.672 Y86.648 E1.12333
G1 X67.297 Y87.462 E1.15734
G1 X67.689 Y88.410 E1.19136
G1 X67.820 Y89.405 E1.22465
G1 X67.820 Y92.448 E1.32553
G1 X67.689 Y93.444 E1.35883
G1 X67.297 Y94.392 E1.39284
G1 X66.672 Y95.206 E1.42685
G1 X65.858 Y95.830 E1.46087
G1 X65.717 Y95.889 E1.46593
G1 X64.910 Y96.223 E1.49488
G1 X63.893 Y96.357 E1.52889
G1 X62.876 Y96.223 E1.56291
G1 X62.069 Y95.889 E1.59186
G1 X61.928 Y95.830 E1.59692
G1 X61.114 Y95.206 E1.63093
G1 X60.490 Y94.392 E1.66494
G1 X60.097 Y93.444 E1.69896
G1 X59.966 Y92.448 E1.73225
G1 X59.966 Y89.405 E1.83313
G1 X60.097 Y88.410 E1.86643
G1 X60.490 Y87.462 E1.90044
G1 X61.114 Y86.648 E1.93445
G1 X61.928 Y86.023 E1.96847
G1 X63.256 Y85.473 E2.01613
G1 X63.256 Y85.506 E2.01721
G1 X63.666 Y85.294 F10500.000
G1 F600.000 E1.01721
G92 E0
G1 X52.040 Y113.260 F10500.000
G1 E1.00000 F600.000
G1 X52.987 Y113.653 E1.03401 F1500.000
G1 X53.801 Y114.277 E1.06803
G1 X54.426 Y115.091 E1.10204
G1 X54.819 Y116.039 E1.13605
G1 X54.950 Y117.035 E1.16935
G1 X54.950 Y120.078 E1.27023
G1 X54.819 Y121.073 E1.30352
G1 X54.426 Y122.021 E1.33753
G1 X53.801 Y122.835 E1.37155
G1 X52.987 Y123.460 E1.40556
G1 X52.040 Y123.852 E1.43957
G1 X51.022 Y123.986 E1.47359
G1 X50.005 Y123.852 E1.50760
G1 X49.057 Y123.460 E1.54161
G1 X48.243 Y122.835 E1.57562
G1 X47.619 Y122.021 E1.60964
G1 X47.226 Y121.073 E1.64365
G1 X47.095 Y120.078 E1.67695
G1 X47.095 Y117.035 E1.77783
G1 X47.226 Y116.039 E1.81112
G1 X47.619 Y115.091 E1.84513
G1 X48.243 Y114.277 E1.87915
G1 X49.057 Y113.653 E1.91316
G1 X50.005 Y113.260 E1.94717
G1 X51.022 Y113.126 E1.98119
G1 X51.888 Y113.240 E2.01013
G1 X51.965 Y113.250 E2.01271 F1500.000
G1 X51.895 Y113.163 F10500.000
G1 F600.000 E1.01271
G92 E0
G1 X63.878 Y84.543 F10500.000
G1 E1.00000 F600.000
G1 X61.615 Y85.481 E1.08120 F1500.000
G1 X60.671 Y86.205 E1.12064
G1 X59.947 Y87.149 E1.16008
G1 X59.492 Y88.248 E1.19951
G1 X59.345 Y89.365 E1.23687
G1 X59.345 Y92.489 E1.34045
G1 X59.492 Y93.606 E1.37781
G1 X59.947 Y94.705 E1.41724
G1 X60.671 Y95.649 E1.45668
G1 X61.615 Y96.373 E1.49612
G1 X62.714 Y96.828 E1.53555
G1 X63.893 Y96.984 E1.57499
G1 X64.617 Y96.888 E1.59918
G1 X64.741 Y97.288 E1.61304
G1 X63.892 Y97.725 E1.64472
G1 X62.746 Y98.442 E1.68952
G1 X61.666 Y99.254 E1.73432
G1 X60.658 Y100.155 E1.77912
G1 X59.731 Y101.137 E1.82392
G1 X58.889 Y102.195 E1.86872
G1 X58.141 Y103.320 E1.91352
G1 X57.490 Y104.504 E1.95832
G1 X56.942 Y105.739 E2.00313
G1 X56.500 Y107.016 E2.04793
G1 X56.168 Y108.326 E2.09273
G1 X55.948 Y109.659 E2.13753
G1 X55.842 Y111.007 E2.18233
G1 X55.850 Y112.358 E2.22713
G1 X55.972 Y113.704 E2.27193
G1 X56.208 Y115.034 E2.31673
G1 X56.556 Y116.340 E2.36153
G1 X57.241 Y118.288 E2.42999
G1 X57.387 Y118.986 E2.45365
G1 X57.448 Y119.698 E2.47730
G1 X57.423 Y120.411 E2.50096
G1 X57.312 Y121.116 E2.52462
G1 X57.117 Y121.802 E2.54828
G1 X56.840 Y122.460 E2.57193
G1 X56.486 Y123.079 E2.59559
G1 X56.060 Y123.652 E2.61925
G1 X55.568 Y124.169 E2.64291
G1 X55.018 Y124.623 E2.66656
G1 X54.416 Y125.007 E2.69022
G1 X53.773 Y125.316 E2.71388
G1 X53.097 Y125.545 E2.73754
G1 X52.399 Y125.691 E2.76119
G1 X51.688 Y125.752 E2.78485
G1 X50.975 Y125.727 E2.80851
G1 X50.270 Y125.616 E2.83217
G1 X49.583 Y125.421 E2.85582
G1 X48.926 Y125.144 E2.87948
G1 X48.306 Y124.790 E2.90314
G1 X47.733 Y124.364 E2.92680
G1 X47.216 Y123.872 E2.95045
G1 X46.762 Y123.322 E2.97411
G1 X46.378 Y122.720 E2.99777
G1 X46.075 Y122.088 E3.02101
G1 X45.796 Y121.191 E3.05215
G1 X45.679 Y120.272 E3.08287
G1 X45.724 Y119.300 E3.11514
G1 X46.007 Y116.992 E3.19222
G1 X46.474 Y117.020 E3.20773
G1 X46.474 Y120.118 E3.31043
G1 X46.621 Y121.236 E3.34778
G1 X47.076 Y122.335 E3.38722
G1 X47.800 Y123.278 E3.42666
G1 X48.744 Y124.002 E3.46609
G1 X49.843 Y124.458 E3.50553
G1 X51.022 Y124.613 E3.54497
G1 X52.202 Y124.458 E3.58440
G1 X53.301 Y124.002 E3.62384
G1 X54.245 Y123.278 E3.66328
G1 X54.969 Y122.335 E3.70271
G1 X55.424 Y121.236 E3.74215
G1 X55.571 Y120.118 E3.77951
G1 X55.571 Y116.994 E3.88309
G1 X55.424 Y115.877 E3.92045
G1 X54.969 Y114.778 E3.95988
G1 X54.245 Y113.834 E3.99932
G1 X53.301 Y113.110 E4.03876
G1 X52.202 Y112.655 E4.07819
G1 X51.022 Y112.499 E4.11763
G1 X49.843 Y112.655 E4.15707
G1 X48.744 Y113.110 E4.19650
G1 X47.800 Y113.834 E4.23594
G1 X47.076 Y114.778 E4.27538
G1 X46.559 Y116.027 E4.32021
G1 X46.139 Y115.917 E4.33460
G1 X46.482 Y113.116 E4.42814
G1 X47.108 Y106.871 E4.63622
G1 X47.595 Y100.613 E4.84430
G1 X47.943 Y94.347 E5.05237
G1 X48.151 Y88.074 E5.26045
G1 X48.221 Y81.803 E5.46836
G1 X48.221 Y63.829 E6.06424
G1 X48.266 Y63.139 E6.08717
G1 X48.395 Y62.491 E6.10907
G1 X48.607 Y61.865 E6.13097
G1 X48.900 Y61.273 E6.15286
G1 X49.266 Y60.724 E6.17476
G1 X49.702 Y60.227 E6.19666
G1 X50.199 Y59.792 E6.21855
G1 X50.748 Y59.425 E6.24045
G1 X51.340 Y59.133 E6.26235
G1 X51.966 Y58.920 E6.28424
G1 X52.613 Y58.792 E6.30614
G1 X53.303 Y58.746 E6.32907
G1 X63.048 Y58.746 E6.65214
G1 X62.496 Y59.206 E6.67596
G1 X61.606 Y60.094 E6.71765
G1 X60.805 Y61.064 E6.75935
G1 X60.100 Y62.106 E6.80104
G1 X59.500 Y63.211 E6.84273
G1 X59.008 Y64.368 E6.88443
G1 X58.629 Y65.568 E6.92612
G1 X58.368 Y66.798 E6.96782
G1 X58.226 Y68.047 E7.00951
G1 X58.204 Y69.305 E7.05121
G1 X58.304 Y70.558 E7.09290
G1 X58.523 Y71.797 E7.13460
G1 X58.861 Y73.008 E7.17629
G1 X59.313 Y74.182 E7.21799
G1 X59.876 Y75.306 E7.25968
G1 X60.545 Y76.372 E7.30137
G1 X61.312 Y77.368 E7.34307
G1 X62.172 Y78.286 E7.38476
G1 X63.116 Y79.117 E7.42646
G1 X64.136 Y79.853 E7.46815
G1 X65.222 Y80.488 E7.50985
G1 X66.363 Y81.016 E7.55154
G1 X67.550 Y81.431 E7.59324
G1 X68.543 Y81.675 E7.62713
G1 X68.772 Y81.731 E7.63493
G1 X70.016 Y81.912 E7.67663
G1 X71.272 Y81.972 E7.71832
G1 X72.529 Y81.912 E7.76001
G1 X73.773 Y81.731 E7.80171
G1 X74.995 Y81.431 E7.84340
G1 X76.182 Y81.016 E7.88510
G1 X77.323 Y80.488 E7.92679
G1 X78.409 Y79.853 E7.96849
G1 X79.428 Y79.117 E8.01018
G1 X79.605 Y78.961 E8.01799
G1 X80.373 Y78.286 E8.05188
G1 X81.232 Y77.368 E8.09357
G1 X82.000 Y76.372 E8.13527
G1 X82.669 Y75.306 E8.17696
G1 X83.232 Y74.182 E8.21866
G1 X83.317 Y73.963 E8.22646
G1 X83.684 Y73.008 E8.26035
G1 X84.022 Y71.797 E8.30205
G1 X84.241 Y70.558 E8.34374
G1 X84.341 Y69.305 E8.38544
G1 X84.319 Y68.047 E8.42713
G1 X84.294 Y67.813 E8.43493
G1 X84.177 Y66.798 E8.46883
G1 X83.916 Y65.568 E8.51052
G1 X83.537 Y64.368 E8.55221
G1 X83.045 Y63.211 E8.59391
G1 X82.934 Y63.003 E8.60171
G1 X82.444 Y62.106 E8.63560
G1 X81.740 Y61.064 E8.67730
G1 X80.939 Y60.094 E8.71899
G1 X80.048 Y59.206 E8.76069
G1 X79.496 Y58.746 E8.78451
G1 X96.303 Y58.746 E9.34170
G1 X97.180 Y58.689 E9.37081
G1 X98.071 Y58.512 E9.40095
G1 X98.932 Y58.219 E9.43109
G1 X99.748 Y57.817 E9.46123
G1 X100.504 Y57.312 E9.49138
G1 X101.187 Y56.712 E9.52152
G1 X101.787 Y56.029 E9.55166
G1 X102.255 Y55.329 E9.57958
G1 X102.694 Y54.458 E9.61192
G1 X102.986 Y53.597 E9.64207
G1 X103.164 Y52.705 E9.67222
G1 X103.221 Y51.829 E9.70132
G1 X103.221 Y32.663 E10.33672
G1 X107.721 Y32.658 E10.48589
G1 X107.721 Y104.522 E12.86834
G1 X107.326 Y104.913 E12.88676
G1 X106.786 Y105.231 E12.90755
G1 X106.126 Y105.425 E12.93033
G1 X105.826 Y105.474 E12.94042
G1 X94.286 Y109.396 E13.34449
G1 X94.087 Y109.024 E13.35848
G1 X94.745 Y108.520 E13.38596
G1 X95.469 Y107.576 E13.42539
G1 X95.924 Y106.477 E13.46483
G1 X96.071 Y105.360 E13.50219
G1 X96.071 Y102.282 E13.60422
G1 X96.406 Y102.282 E13.61532
G1 X95.469 Y100.019 E13.69653
G1 X94.745 Y99.076 E13.73596
G1 X93.801 Y98.351 E13.77540
G1 X92.702 Y97.896 E13.81484
G1 X91.522 Y97.741 E13.85427
G1 X90.343 Y97.896 E13.89371
G1 X89.244 Y98.351 E13.93315
G1 X88.300 Y99.076 E13.97258
G1 X87.576 Y100.019 E14.01202
G1 X87.121 Y101.118 E14.05146
G1 X86.974 Y102.236 E14.08881
G1 X86.974 Y105.543 E14.19846
G1 X86.584 Y105.629 E14.21169
G1 X85.943 Y104.251 E14.26207
G1 X85.271 Y103.079 E14.30687
G1 X84.503 Y101.967 E14.35167
G1 X83.643 Y100.925 E14.39647
G1 X82.698 Y99.959 E14.44128
G1 X81.674 Y99.076 E14.48608
G1 X80.580 Y98.284 E14.53088
G1 X79.476 Y97.620 E14.57357
G1 X78.209 Y96.990 E14.62047
G1 X76.951 Y96.498 E14.66527
G1 X75.655 Y96.115 E14.71007
G1 X74.331 Y95.842 E14.75487
G1 X72.989 Y95.683 E14.79967
G1 X71.639 Y95.638 E14.84447
G1 X70.289 Y95.707 E14.88928
G1 X68.950 Y95.890 E14.93408
G1 X67.632 Y96.186 E14.97888
G1 X66.713 Y96.476 E15.01083
G1 X66.520 Y96.106 E15.02466
G1 X67.115 Y95.649 E15.04954
G1 X67.840 Y94.705 E15.08898
G1 X68.295 Y93.606 E15.12841
G1 X68.442 Y92.489 E15.16577
G1 X68.442 Y89.365 E15.26935
G1 X68.295 Y88.248 E15.30671
G1 X67.840 Y87.149 E15.34614
G1 X67.115 Y86.205 E15.38558
G1 X66.172 Y85.481 E15.42502
G1 X65.073 Y85.025 E15.46445
G1 X63.878 Y84.868 E15.50441
G1 X63.878 Y84.618 E15.51269
G1 F600.000 E14.51269
G92 E0
G1 X64.478 Y58.478 F10500.000
G1 E1.00000 F600.000
G1 X63.841 Y58.906 E1.02544 F1500.000
G1 X62.915 Y59.666 E1.06515
G1 X62.067 Y60.512 E1.10487
G1 X61.304 Y61.435 E1.14458
G1 X60.633 Y62.428 E1.18429
G1 X60.060 Y63.480 E1.22401
G1 X59.592 Y64.582 E1.26372
G1 X59.231 Y65.725 E1.30343
G1 X58.982 Y66.896 E1.34315
G1 X58.846 Y68.087 E1.38286
G1 X58.826 Y69.284 E1.42257
G1 X58.921 Y70.478 E1.46229
G1 X59.130 Y71.658 E1.50200
G1 X59.451 Y72.812 E1.54171
G1 X59.882 Y73.930 E1.58143
G1 X60.418 Y75.001 E1.62114
G1 X61.055 Y76.016 E1.66085
G1 X61.786 Y76.964 E1.70057
G1 X62.605 Y77.839 E1.74028
G1 X63.504 Y78.630 E1.77999
G1 X64.475 Y79.332 E1.81971
G1 X65.509 Y79.936 E1.85942
G1 X66.596 Y80.439 E1.89913
G1 X67.727 Y80.835 E1.93885
G1 X68.890 Y81.120 E1.97856
G1 X70.076 Y81.293 E2.01827
G1 X71.272 Y81.350 E2.05799
G1 X72.469 Y81.293 E2.09770
G1 X73.654 Y81.120 E2.13741
