; generated by Slic3r 1.1.7 on 2015-02-10 at 12:33:29

; perimeters extrusion width = 0.38mm
; infill extrusion width = 0.56mm
; solid infill extrusion width = 0.56mm
; top infill extrusion width = 0.38mm

G21 ; set units to millimeters
M107

M301 P34 I4 D113     ; set PID nozzle
M304 P162 I17 D378 ; set PID Bed

;M104 S230                 ; set extruder temp for budaschnozzle
M104 S250                 ; set extruder temp for hex_hot_end
;M140 S100                 ; set bed temp for PET
M140 S110                 ; set bed temp for PEI (reminder ~G1 Z2 ~ M140 S(@-10 degree change) ;if -m is present in file name)

G28                            ; home
G1 Z5 F300                ; move bed down 5mm
M84                            ; disable steppers
G4 S300                     ; wait 5 mins to preheat

G28                            ; home

G90 ; use absolute coordinates
G92 E0
M82 ; use absolute distances for extrusion
M204 S1500
G1 F1500.000 E-1.20000
G92 E0
G1 Z0.350 F9600.000
G1 X102.055 Y108.822 F9600.000
G1 E1.20000 F1500.000
G1 X102.791 Y108.188 E1.23192 F1260.000
G1 X103.578 Y107.619 E1.26384
G1 X104.413 Y107.121 E1.29578
G1 X105.287 Y106.696 E1.32771
G1 X106.194 Y106.349 E1.35964
G1 X107.128 Y106.081 E1.39156
G1 X108.082 Y105.895 E1.42349
G1 X108.504 Y105.840 E1.43747
G1 X109.048 Y105.793 E1.45543
G1 X109.750 Y105.768 E1.47850
G1 X187.749 Y105.768 E4.04148
G1 X189.938 Y106.165 E4.11455
G1 X192.156 Y107.594 E4.20125 F1260.000
G1 X195.950 Y111.724 E4.38555
G1 X197.375 Y114.321 E4.48289
G1 X199.269 Y121.387 E4.72327
G1 X199.481 Y123.000 E4.77672
G1 X199.481 Y155.000 E5.82821
G1 X199.269 Y156.613 E5.88166
G1 X197.375 Y163.679 E6.12205
G1 X195.951 Y166.275 E6.21933
G1 X192.342 Y170.213 E6.39486
G1 X190.570 Y171.557 E6.46793
G1 X187.749 Y172.232 E6.56323
G1 X109.481 Y172.226 E9.13507
G1 X108.511 Y172.161 E9.16700
G1 X107.551 Y172.012 E9.19892
G1 X106.607 Y171.780 E9.23085
G1 X106.202 Y171.654 E9.24481
G1 X105.687 Y171.468 E9.26279
G1 X104.797 Y171.078 E9.29471
G1 X103.945 Y170.612 E9.32664
G1 X103.135 Y170.074 E9.35857
G1 X102.376 Y169.468 E9.39050
G1 X101.671 Y168.799 E9.42243
G1 X101.382 Y168.488 E9.43638
G1 X101.027 Y168.071 E9.45436
G1 X100.449 Y167.291 E9.48629
G1 X99.940 Y166.463 E9.51822
G1 X99.504 Y165.594 E9.55015
G1 X99.145 Y164.691 E9.58207
G1 X98.866 Y163.761 E9.61400
G1 X98.668 Y162.810 E9.64593
G1 X98.607 Y162.387 E9.65995
G1 X98.553 Y161.845 E9.67787
G1 X98.519 Y161.064 E9.70355
G1 X98.529 Y116.587 E11.16500
G1 X98.552 Y116.164 E11.17894
G1 X98.606 Y115.619 E11.19694
G1 X98.767 Y114.661 E11.22887
G1 X98.864 Y114.247 E11.24282
G1 X99.143 Y113.314 E11.27482
G1 X99.501 Y112.412 E11.30670
G1 X99.736 Y111.919 E11.32465
G1 X100.213 Y111.072 E11.35659
G1 X100.761 Y110.270 E11.38851
G1 X101.377 Y109.518 E11.42043
G1 X102.002 Y108.875 E11.44991
G1 X102.468 Y109.279 F9600.000
G1 X103.163 Y108.678 E11.48009 F1260.000
G1 X103.907 Y108.140 E11.51025
G1 X104.695 Y107.668 E11.54044
G1 X105.521 Y107.266 E11.57062
G1 X106.378 Y106.937 E11.60080
G1 X107.261 Y106.683 E11.63097
G1 X108.162 Y106.506 E11.66115
G1 X108.583 Y106.451 E11.67512
G1 X109.075 Y106.408 E11.69133
G1 X109.750 Y106.384 E11.71353
G1 X187.749 Y106.384 E14.27651
G1 X189.822 Y106.781 E14.34585
G1 X191.720 Y108.029 E14.42051 F1260.000
G1 X195.496 Y112.140 E14.60393
G1 X196.781 Y114.481 E14.69165
G1 X198.674 Y121.547 E14.93203
G1 X198.865 Y123.000 E14.98019
G1 X198.865 Y155.000 E16.03168
G1 X198.674 Y156.453 E16.07985
G1 X196.781 Y163.520 E16.32023
G1 X195.497 Y165.859 E16.40790
G1 X191.888 Y169.796 E16.58342
G1 X190.195 Y171.056 E16.65275
G1 X187.749 Y171.616 E16.73518
G1 X109.507 Y171.611 E19.30614
G1 X108.591 Y171.550 E19.33632
G1 X107.683 Y171.410 E19.36650
G1 X106.791 Y171.192 E19.39668
G1 X106.386 Y171.066 E19.41063
G1 X105.921 Y170.898 E19.42686
G1 X105.079 Y170.530 E19.45704
G1 X104.273 Y170.091 E19.48722
G1 X103.508 Y169.583 E19.51739
G1 X102.789 Y169.012 E19.54757
G1 X102.122 Y168.380 E19.57775
G1 X101.833 Y168.069 E19.59170
G1 X101.513 Y167.693 E19.60793
G1 X100.965 Y166.956 E19.63811
G1 X100.483 Y166.174 E19.66829
G1 X100.071 Y165.353 E19.69846
G1 X99.731 Y164.500 E19.72864
G1 X99.466 Y163.621 E19.75882
G1 X99.277 Y162.722 E19.78899
G1 X99.217 Y162.300 E19.80301
G1 X99.168 Y161.810 E19.81918
G1 X99.135 Y161.064 E19.84373
G1 X99.144 Y116.622 E21.30405
G1 X99.167 Y116.198 E21.31799
G1 X99.216 Y115.706 E21.33424
G1 X99.367 Y114.800 E21.36441
G1 X99.464 Y114.387 E21.37836
G1 X99.729 Y113.506 E21.40861
G1 X100.068 Y112.653 E21.43874
G1 X100.280 Y112.208 E21.45495
G1 X100.730 Y111.407 E21.48513
G1 X101.247 Y110.649 E21.51531
G1 X101.828 Y109.937 E21.54548
G1 X102.415 Y109.331 E21.57320
G1 F1500.000 E20.37320
G92 E0
G1 X143.660 Y119.872 F9600.000
G1 E1.20000 F1500.000
G1 X143.400 Y120.071 E1.21075 F1680.000
G1 X143.124 Y120.247 E1.22149
G1 X142.834 Y120.398 E1.23224
G1 X142.532 Y120.523 E1.24299
G1 X142.220 Y120.621 E1.25374
G1 X141.953 Y120.680 E1.26271
G1 X141.577 Y120.735 E1.27522
G1 X141.250 Y120.749 E1.28597
G1 X140.923 Y120.735 E1.29672
G1 X140.599 Y120.692 E1.30746
G1 X140.279 Y120.621 E1.31821
G1 X139.968 Y120.523 E1.32896
G1 X139.665 Y120.398 E1.33971
G1 X139.375 Y120.247 E1.35045
G1 X139.099 Y120.071 E1.36120
G1 X138.840 Y119.872 E1.37195
G1 X138.599 Y119.651 E1.38269
G1 X138.414 Y119.450 E1.39167
G1 X138.179 Y119.150 E1.40418
G1 X138.003 Y118.875 E1.41493
G1 X137.852 Y118.584 E1.42567
G1 X137.727 Y118.282 E1.43642
G1 X137.628 Y117.970 E1.44717
G1 X137.558 Y117.651 E1.45792
G1 X137.515 Y117.327 E1.46866
G1 X137.501 Y117.000 E1.47941
G1 X137.515 Y116.673 E1.49016
G1 X137.558 Y116.349 E1.50090
G1 X137.628 Y116.030 E1.51165
G1 X137.727 Y115.718 E1.52240
G1 X137.852 Y115.416 E1.53314
G1 X138.003 Y115.125 E1.54389
G1 X138.179 Y114.850 E1.55464
G1 X138.378 Y114.590 E1.56539
G1 X138.599 Y114.349 E1.57613
G1 X138.840 Y114.128 E1.58688
G1 X139.099 Y113.929 E1.59763
G1 X139.375 Y113.753 E1.60837
G1 X139.665 Y113.602 E1.61912
G1 X139.968 Y113.477 E1.62987
G1 X140.279 Y113.379 E1.64061
G1 X140.599 Y113.308 E1.65136
G1 X140.923 Y113.265 E1.66211
G1 X141.250 Y113.251 E1.67286
G1 X141.523 Y113.263 E1.68183
G1 X141.901 Y113.308 E1.69434 F1680.000
G1 X142.220 Y113.379 E1.70509
G1 X142.532 Y113.477 E1.71584
G1 X142.834 Y113.602 E1.72659
G1 X143.124 Y113.753 E1.73733
G1 X143.400 Y113.929 E1.74808
G1 X143.660 Y114.128 E1.75883
G1 X143.901 Y114.349 E1.76957
G1 X144.122 Y114.590 E1.78032
G1 X144.288 Y114.807 E1.78930
G1 X144.497 Y115.125 E1.80181
G1 X144.648 Y115.416 E1.81256
G1 X144.773 Y115.718 E1.82330
G1 X144.871 Y116.030 E1.83405
G1 X144.942 Y116.349 E1.84480
G1 X144.985 Y116.673 E1.85554
G1 X144.997 Y116.946 E1.86452
G1 X144.985 Y117.327 E1.87703
G1 X144.942 Y117.651 E1.88778
G1 X144.871 Y117.970 E1.89852
G1 X144.773 Y118.282 E1.90927
G1 X144.648 Y118.584 E1.92002
G1 X144.497 Y118.875 E1.93077
G1 X144.321 Y119.150 E1.94151
G1 X144.122 Y119.410 E1.95226
G1 X143.715 Y119.821 E1.97127
G1 F1500.000 E0.77127
G92 E0
G1 X141.502 Y112.883 F9600.000
G1 X149.757 Y134.898 F9600.000
G1 E1.20000 F1500.000
G1 X150.120 Y134.783 E1.21251 F2100.000
G1 X150.492 Y134.701 E1.22503
G1 X150.869 Y134.651 E1.23755
G1 X151.250 Y134.635 E1.25006
G1 X151.550 Y134.648 E1.25992
G1 X152.008 Y134.701 E1.27508 F2100.000
G1 X152.380 Y134.783 E1.28759
G1 X152.743 Y134.898 E1.30011
G1 X153.095 Y135.044 E1.31262
G1 X153.433 Y135.219 E1.32513
G1 X153.754 Y135.424 E1.33765
G1 X154.056 Y135.656 E1.35016
G1 X154.337 Y135.913 E1.36267
G1 X154.594 Y136.194 E1.37519
G1 X154.826 Y136.496 E1.38770
G1 X155.030 Y136.817 E1.40022
G1 X155.206 Y137.155 E1.41273
G1 X155.352 Y137.507 E1.42524
G1 X155.467 Y137.870 E1.43776
G1 X155.549 Y138.242 E1.45028
G1 X155.599 Y138.620 E1.46279
G1 X155.615 Y139.000 E1.47530
G1 X155.599 Y139.381 E1.48782
G1 X155.549 Y139.758 E1.50033
G1 X155.467 Y140.130 E1.51284
G1 X155.376 Y140.416 E1.52271
G1 X155.206 Y140.845 E1.53786
G1 X155.030 Y141.183 E1.55038
G1 X154.826 Y141.504 E1.56289
G1 X154.594 Y141.806 E1.57541
G1 X154.337 Y142.087 E1.58792
G1 X154.056 Y142.344 E1.60043
G1 X153.754 Y142.576 E1.61295
G1 X153.433 Y142.781 E1.62546
G1 X153.095 Y142.956 E1.63798
G1 X152.743 Y143.102 E1.65049
G1 X152.380 Y143.217 E1.66300
G1 X152.008 Y143.299 E1.67552
G1 X151.630 Y143.349 E1.68803
G1 X151.250 Y143.365 E1.70055
G1 X150.869 Y143.349 E1.71306
G1 X150.492 Y143.299 E1.72557
G1 X150.120 Y143.217 E1.73809
G1 X149.757 Y143.102 E1.75060
G1 X149.405 Y142.956 E1.76312
G1 X149.067 Y142.781 E1.77563
G1 X148.746 Y142.576 E1.78814
G1 X148.444 Y142.344 E1.80066
G1 X148.163 Y142.087 E1.81317
G1 X147.906 Y141.806 E1.82569
G1 X147.674 Y141.504 E1.83820
G1 X147.469 Y141.183 E1.85071
G1 X147.293 Y140.845 E1.86323
G1 X147.148 Y140.493 E1.87574
G1 X147.033 Y140.130 E1.88826
G1 X146.951 Y139.758 E1.90077
G1 X146.901 Y139.380 E1.91329
G1 X146.884 Y139.000 E1.92580
G1 X146.901 Y138.619 E1.93831
G1 X146.951 Y138.242 E1.95082
G1 X147.033 Y137.870 E1.96334
G1 X147.148 Y137.507 E1.97585
G1 X147.293 Y137.155 E1.98837
G1 X147.469 Y136.817 E2.00088
G1 X147.674 Y136.496 E2.01340
G1 X147.906 Y136.194 E2.02591
G1 X148.163 Y135.913 E2.03842
G1 X148.444 Y135.656 E2.05094
G1 X148.746 Y135.424 E2.06345
G1 X149.067 Y135.219 E2.07597
G1 X149.405 Y135.044 E2.08848
G1 X149.687 Y134.926 E2.09853
G1 X149.968 Y135.477 F9600.000
G1 X150.279 Y135.379 E2.10928 F1680.000
G1 X150.599 Y135.308 E2.12002
G1 X150.923 Y135.265 E2.13077
G1 X151.196 Y135.253 E2.13975
G1 X151.577 Y135.265 E2.15226 F1680.000
G1 X151.901 Y135.308 E2.16301
G1 X152.220 Y135.379 E2.17375
G1 X152.532 Y135.477 E2.18450
G1 X152.834 Y135.602 E2.19525
G1 X153.124 Y135.753 E2.20599
G1 X153.400 Y135.929 E2.21674
G1 X153.660 Y136.128 E2.22749
G1 X153.901 Y136.349 E2.23823
G1 X154.122 Y136.590 E2.24898
G1 X154.321 Y136.850 E2.25973
G1 X154.497 Y137.125 E2.27048
G1 X154.623 Y137.368 E2.27945
G1 X154.773 Y137.718 E2.29196
G1 X154.871 Y138.030 E2.30271
G1 X154.942 Y138.349 E2.31346
G1 X154.985 Y138.673 E2.32420
G1 X154.999 Y139.000 E2.33495
G1 X154.985 Y139.327 E2.34570
G1 X154.942 Y139.651 E2.35645
G1 X154.871 Y139.970 E2.36719
G1 X154.789 Y140.231 E2.37617
G1 X154.648 Y140.584 E2.38868
G1 X154.497 Y140.875 E2.39943
G1 X154.321 Y141.150 E2.41017
G1 X154.122 Y141.410 E2.42092
G1 X153.901 Y141.651 E2.43167
G1 X153.660 Y141.872 E2.44242
G1 X153.400 Y142.071 E2.45316
G1 X153.124 Y142.247 E2.46391
G1 X152.834 Y142.398 E2.47466
G1 X152.532 Y142.523 E2.48540
G1 X152.220 Y142.621 E2.49615
G1 X151.901 Y142.692 E2.50690
G1 X151.577 Y142.735 E2.51765
G1 X151.250 Y142.749 E2.52839
G1 X150.923 Y142.735 E2.53914
G1 X150.599 Y142.692 E2.54989
G1 X150.279 Y142.621 E2.56063
G1 X149.968 Y142.523 E2.57138
G1 X149.665 Y142.398 E2.58213
G1 X149.375 Y142.247 E2.59287
G1 X149.099 Y142.071 E2.60362
G1 X148.840 Y141.872 E2.61437
G1 X148.599 Y141.651 E2.62511
G1 X148.378 Y141.410 E2.63586
G1 X148.179 Y141.150 E2.64661
G1 X148.032 Y140.920 E2.65559
G1 X147.852 Y140.584 E2.66810
G1 X147.727 Y140.282 E2.67884
G1 X147.628 Y139.970 E2.68959
G1 X147.558 Y139.651 E2.70034
G1 X147.515 Y139.327 E2.71108
G1 X147.501 Y139.000 E2.72183
G1 X147.515 Y138.673 E2.73258
G1 X147.558 Y138.349 E2.74332
G1 X147.628 Y138.030 E2.75407
G1 X147.727 Y137.718 E2.76482
G1 X147.852 Y137.416 E2.77557
G1 X148.003 Y137.125 E2.78631
G1 X148.179 Y136.850 E2.79706
G1 X148.378 Y136.590 E2.80781
G1 X148.599 Y136.349 E2.81855
G1 X148.840 Y136.128 E2.82930
G1 X149.099 Y135.929 E2.84005
G1 X149.375 Y135.753 E2.85079
G1 X149.898 Y135.506 E2.86981
G1 X151.363 Y134.911 F9600.000
G1 F1500.000 E1.66981
G92 E0
G1 X142.532 Y157.477 F9600.000
G1 E1.20000 F1500.000
G1 X142.834 Y157.602 E1.21075 F1680.000
G1 X143.124 Y157.753 E1.22149
G1 X143.400 Y157.929 E1.23224
G1 X143.660 Y158.128 E1.24299
G1 X143.901 Y158.349 E1.25374
G1 X144.122 Y158.590 E1.26448
G1 X144.321 Y158.850 E1.27523
G1 X144.497 Y159.125 E1.28598
G1 X144.623 Y159.368 E1.29496
G1 X144.773 Y159.718 E1.30746
G1 X144.871 Y160.030 E1.31821
G1 X144.942 Y160.349 E1.32896
G1 X144.985 Y160.673 E1.33971
G1 X144.999 Y161.000 E1.35045
G1 X144.985 Y161.327 E1.36120
G1 X144.942 Y161.651 E1.37195
G1 X144.871 Y161.970 E1.38269
G1 X144.773 Y162.282 E1.39344
G1 X144.648 Y162.584 E1.40419
G1 X144.497 Y162.875 E1.41493
G1 X144.321 Y163.150 E1.42568
G1 X144.122 Y163.410 E1.43643
G1 X143.901 Y163.651 E1.44717
G1 X143.660 Y163.872 E1.45792
G1 X143.400 Y164.071 E1.46867
G1 X143.124 Y164.247 E1.47942
G1 X142.834 Y164.398 E1.49016
G1 X142.532 Y164.523 E1.50091
G1 X142.220 Y164.621 E1.51166
G1 X141.901 Y164.692 E1.52240
G1 X141.577 Y164.735 E1.53315
G1 X141.250 Y164.749 E1.54390
G1 X140.923 Y164.735 E1.55465
G1 X140.599 Y164.692 E1.56539
G1 X140.279 Y164.621 E1.57614
G1 X139.968 Y164.523 E1.58689
G1 X139.665 Y164.398 E1.59763
G1 X139.375 Y164.247 E1.60838
G1 X139.099 Y164.071 E1.61913
G1 X138.840 Y163.872 E1.62987
G1 X138.599 Y163.651 E1.64062
G1 X138.378 Y163.410 E1.65137
G1 X138.179 Y163.150 E1.66211
G1 X138.003 Y162.875 E1.67286
G1 X137.852 Y162.584 E1.68361
G1 X137.727 Y162.282 E1.69436
G1 X137.645 Y162.022 E1.70333
G1 X137.558 Y161.651 E1.71584
G1 X137.515 Y161.327 E1.72659
G1 X137.501 Y161.000 E1.73734
G1 X137.515 Y160.673 E1.74808
G1 X137.558 Y160.349 E1.75883
G1 X137.628 Y160.030 E1.76958
G1 X137.727 Y159.718 E1.78033
G1 X137.852 Y159.416 E1.79107
G1 X138.003 Y159.125 E1.80182
G1 X138.179 Y158.850 E1.81257
G1 X138.378 Y158.590 E1.82331
G1 X138.599 Y158.349 E1.83406
G1 X138.840 Y158.128 E1.84481
G1 X139.099 Y157.929 E1.85555
G1 X139.375 Y157.753 E1.86630
G1 X139.665 Y157.602 E1.87705
G1 X139.968 Y157.477 E1.88780
G1 X140.279 Y157.379 E1.89854
G1 X140.599 Y157.308 E1.90929
G1 X140.923 Y157.265 E1.92004
G1 X141.250 Y157.251 E1.93078
G1 X141.523 Y157.263 E1.93976
G1 X141.901 Y157.308 E1.95227 F1680.000
G1 X142.461 Y157.454 E1.97128
G1 X141.373 Y156.913 F9600.000
G1 X139.636 Y156.936 F9600.000
G1 X139.428 Y156.645 E1.98305 F2100.000
G1 X139.656 Y156.336 E1.99566
G1 X141.035 Y154.099 E2.08202
G1 X142.219 Y151.752 E2.16837
G1 X143.199 Y149.314 E2.25472
G1 X143.969 Y146.801 E2.34108
G1 X144.523 Y144.232 E2.42743
G1 X144.857 Y141.626 E2.51379
G1 X144.969 Y139.000 E2.60014
G1 X144.857 Y136.374 E2.68650
G1 X144.523 Y133.768 E2.77285
G1 X143.969 Y131.199 E2.85921
G1 X143.199 Y128.686 E2.94556
G1 X142.219 Y126.248 E3.03192
G1 X141.035 Y123.901 E3.11828
G1 X139.656 Y121.664 E3.20463
G1 X139.428 Y121.355 E3.21724
G1 X139.636 Y121.064 E3.22901
G1 X140.120 Y121.217 E3.24570
G1 X140.492 Y121.299 E3.25821
G1 X140.869 Y121.349 E3.27072
G1 X141.250 Y121.366 E3.28324
G1 X141.710 Y121.338 E3.29839
G1 X142.008 Y121.299 E3.30825
G1 X142.380 Y121.217 E3.32077
G1 X142.743 Y121.102 E3.33328
G1 X143.095 Y120.956 E3.34580
G1 X143.433 Y120.781 E3.35831
G1 X143.754 Y120.576 E3.37083
G1 X144.056 Y120.344 E3.38334
G1 X144.337 Y120.087 E3.39585
G1 X144.594 Y119.806 E3.40837
G1 X144.826 Y119.504 E3.42088
G1 X145.030 Y119.183 E3.43340
G1 X145.206 Y118.845 E3.44591
G1 X145.352 Y118.493 E3.45842
G1 X145.467 Y118.130 E3.47094
G1 X145.549 Y117.758 E3.48345
G1 X145.599 Y117.381 E3.49596
G1 X145.615 Y117.000 E3.50848
G1 X145.599 Y116.620 E3.52099
G1 X145.549 Y116.242 E3.53351
G1 X145.467 Y115.870 E3.54602
G1 X145.352 Y115.507 E3.55854
G1 X145.206 Y115.155 E3.57105
G1 X145.030 Y114.817 E3.58356
G1 X144.826 Y114.496 E3.59608
G1 X144.594 Y114.194 E3.60859
G1 X144.337 Y113.913 E3.62111
G1 X144.056 Y113.656 E3.63362
G1 X143.754 Y113.424 E3.64614
G1 X143.550 Y113.294 E3.65406
G1 X143.654 Y112.940 E3.66620
G1 X155.836 Y112.940 E4.06652
G1 X159.009 Y116.400 E4.22077
G1 X160.810 Y123.124 E4.44950
G1 X160.810 Y154.876 E5.49286
G1 X159.009 Y161.600 E5.72158
G1 X155.836 Y165.060 E5.87584
G1 X143.654 Y165.060 E6.27615
G1 X143.550 Y164.706 E6.28829
G1 X143.754 Y164.576 E6.29622
G1 X144.056 Y164.344 E6.30873
G1 X144.337 Y164.087 E6.32125
G1 X144.594 Y163.806 E6.33376
G1 X144.826 Y163.504 E6.34627
G1 X145.030 Y163.183 E6.35879
G1 X145.206 Y162.845 E6.37130
G1 X145.352 Y162.493 E6.38382
G1 X145.467 Y162.130 E6.39633
G1 X145.549 Y161.758 E6.40884
G1 X145.599 Y161.381 E6.42136
G1 X145.615 Y161.000 E6.43387
G1 X145.599 Y160.620 E6.44638
G1 X145.549 Y160.242 E6.45890
G1 X145.467 Y159.870 E6.47141
G1 X145.352 Y159.507 E6.48393
