; generated by Slic3r 1.1.7 on 2015-02-10 at 12:33:29

; perimeters extrusion width = 0.38mm
; infill extrusion width = 0.56mm
; solid infill extrusion width = 0.56mm
; top infill extrusion width = 0.38mm

G21 ; set units to millimeters
M107

M301 P34 I4 D113     ; set PID nozzle
M304 P162 I17 D378 ; set PID Bed

;M104 S230                 ; set extruder temp for budaschnozzle
M104 S250                 ; set extruder temp for hex_hot_end
;M140 S100                 ; set bed temp for PET
M140 S110                 ; set bed temp for PEI (reminder ~G1 Z2 ~ M140 S(@-10 degree change) ;if -m is present in file name)

G28                            ; home
G1 Z5 F300                ; move bed down 5mm
M84                            ; disable steppers
G4 S300                     ; wait 5 mins to preheat

G28                            ; home

G90 ; use absolute coordinates
G92 E0
M82 ; use absolute distances for extrusion
M204 S1500
G1 F1500.000 E-1.20000
G92 E0
G1 Z0.350 F9600.000
G1 X150.055 Y74.822 F9600.000
G1 E1.20000 F1500.000
G1 X150.791 Y74.188 E1.23192 F1260.000
G1 X151.578 Y73.619 E1.26384
G1 X152.413 Y73.121 E1.29578
G1 X153.287 Y72.696 E1.32771
G1 X154.194 Y72.349 E1.35964
G1 X155.128 Y72.081 E1.39156
G1 X156.082 Y71.895 E1.42349
G1 X156.504 Y71.840 E1.43747
G1 X157.048 Y71.793 E1.45543
G1 X157.750 Y71.768 E1.47850
G1 X235.749 Y71.768 E4.04148
G1 X237.938 Y72.165 E4.11455
G1 X240.156 Y73.594 E4.20125 F1260.000
G1 X243.950 Y77.724 E4.38555
G1 X245.375 Y80.321 E4.48289
G1 X247.269 Y87.387 E4.72327
G1 X247.481 Y89.000 E4.77672
G1 X247.481 Y121.000 E5.82821
G1 X247.269 Y122.613 E5.88166
G1 X245.375 Y129.679 E6.12205
G1 X243.951 Y132.275 E6.21933
G1 X240.342 Y136.213 E6.39486
G1 X238.570 Y137.557 E6.46793
G1 X235.749 Y138.232 E6.56323
G1 X157.481 Y138.226 E9.13507
G1 X156.511 Y138.161 E9.16700
G1 X155.551 Y138.012 E9.19892
G1 X154.607 Y137.780 E9.23085
G1 X154.202 Y137.654 E9.24481
G1 X153.687 Y137.468 E9.26279
G1 X152.797 Y137.078 E9.29471
G1 X151.945 Y136.612 E9.32664
G1 X151.135 Y136.074 E9.35857
G1 X150.376 Y135.468 E9.39050
G1 X149.671 Y134.799 E9.42243
G1 X149.382 Y134.488 E9.43638
G1 X149.027 Y134.071 E9.45436
G1 X148.449 Y133.291 E9.48629
G1 X147.940 Y132.463 E9.51822
G1 X147.504 Y131.594 E9.55015
G1 X147.145 Y130.691 E9.58207
G1 X146.866 Y129.761 E9.61400
G1 X146.668 Y128.810 E9.64593
G1 X146.607 Y128.387 E9.65995
G1 X146.553 Y127.845 E9.67787
G1 X146.519 Y127.064 E9.70355
G1 X146.529 Y82.587 E11.16500
G1 X146.552 Y82.164 E11.17894
G1 X146.606 Y81.619 E11.19694
G1 X146.767 Y80.661 E11.22887
G1 X146.864 Y80.247 E11.24282
G1 X147.143 Y79.314 E11.27482
G1 X147.501 Y78.412 E11.30670
G1 X147.736 Y77.919 E11.32465
G1 X148.213 Y77.072 E11.35659
G1 X148.761 Y76.270 E11.38851
G1 X149.377 Y75.518 E11.42043
G1 X150.002 Y74.875 E11.44991
G1 X150.468 Y75.279 F9600.000
G1 X151.163 Y74.678 E11.48009 F1260.000
G1 X151.907 Y74.140 E11.51025
G1 X152.695 Y73.668 E11.54044
G1 X153.521 Y73.266 E11.57062
G1 X154.378 Y72.937 E11.60080
G1 X155.261 Y72.683 E11.63097
G1 X156.162 Y72.506 E11.66115
G1 X156.583 Y72.451 E11.67512
G1 X157.075 Y72.408 E11.69133
G1 X157.750 Y72.384 E11.71353
G1 X235.749 Y72.384 E14.27651
G1 X237.822 Y72.781 E14.34585
G1 X239.720 Y74.029 E14.42051 F1260.000
G1 X243.496 Y78.140 E14.60393
G1 X244.781 Y80.481 E14.69165
G1 X246.674 Y87.547 E14.93203
G1 X246.865 Y89.000 E14.98019
G1 X246.865 Y121.000 E16.03168
G1 X246.674 Y122.453 E16.07985
G1 X244.781 Y129.520 E16.32023
G1 X243.497 Y131.859 E16.40790
G1 X239.888 Y135.796 E16.58342
G1 X238.195 Y137.056 E16.65275
G1 X235.749 Y137.616 E16.73518
G1 X157.507 Y137.611 E19.30614
G1 X156.591 Y137.550 E19.33632
G1 X155.683 Y137.410 E19.36650
G1 X154.791 Y137.192 E19.39668
G1 X154.386 Y137.066 E19.41063
G1 X153.921 Y136.898 E19.42686
G1 X153.079 Y136.530 E19.45704
G1 X152.273 Y136.091 E19.48722
G1 X151.508 Y135.583 E19.51739
G1 X150.789 Y135.012 E19.54757
G1 X150.122 Y134.380 E19.57775
G1 X149.833 Y134.069 E19.59170
G1 X149.513 Y133.693 E19.60793
G1 X148.965 Y132.956 E19.63811
G1 X148.483 Y132.174 E19.66829
G1 X148.071 Y131.353 E19.69846
G1 X147.731 Y130.500 E19.72864
G1 X147.466 Y129.621 E19.75882
G1 X147.277 Y128.722 E19.78899
G1 X147.217 Y128.300 E19.80301
G1 X147.168 Y127.810 E19.81918
G1 X147.135 Y127.064 E19.84373
G1 X147.144 Y82.622 E21.30405
G1 X147.167 Y82.198 E21.31799
G1 X147.216 Y81.706 E21.33424
G1 X147.367 Y80.800 E21.36441
G1 X147.464 Y80.387 E21.37836
G1 X147.729 Y79.506 E21.40861
G1 X148.068 Y78.653 E21.43874
G1 X148.280 Y78.208 E21.45495
G1 X148.730 Y77.407 E21.48513
G1 X149.247 Y76.649 E21.51531
G1 X149.828 Y75.937 E21.54548
G1 X150.415 Y75.331 E21.57320
G1 F1500.000 E20.37320
G92 E0
G1 X191.660 Y85.872 F9600.000
G1 E1.20000 F1500.000
G1 X191.400 Y86.071 E1.21075 F1680.000
G1 X191.124 Y86.247 E1.22149
G1 X190.834 Y86.398 E1.23224
G1 X190.532 Y86.523 E1.24299
G1 X190.220 Y86.621 E1.25374
G1 X189.953 Y86.680 E1.26271
G1 X189.577 Y86.735 E1.27522
G1 X189.250 Y86.749 E1.28597
G1 X188.923 Y86.735 E1.29672
G1 X188.599 Y86.692 E1.30746
G1 X188.279 Y86.621 E1.31821
G1 X187.968 Y86.523 E1.32896
G1 X187.665 Y86.398 E1.33971
G1 X187.375 Y86.247 E1.35045
G1 X187.099 Y86.071 E1.36120
G1 X186.840 Y85.872 E1.37195
G1 X186.599 Y85.651 E1.38269
G1 X186.414 Y85.450 E1.39167
G1 X186.179 Y85.150 E1.40418
G1 X186.003 Y84.875 E1.41493
G1 X185.852 Y84.584 E1.42567
G1 X185.727 Y84.282 E1.43642
G1 X185.628 Y83.970 E1.44717
G1 X185.558 Y83.651 E1.45792
G1 X185.515 Y83.327 E1.46866
G1 X185.501 Y83.000 E1.47941
G1 X185.515 Y82.673 E1.49016
G1 X185.558 Y82.349 E1.50090
G1 X185.628 Y82.030 E1.51165
G1 X185.727 Y81.718 E1.52240
G1 X185.852 Y81.416 E1.53314
G1 X186.003 Y81.125 E1.54389
G1 X186.179 Y80.850 E1.55464
G1 X186.378 Y80.590 E1.56539
G1 X186.599 Y80.349 E1.57613
G1 X186.840 Y80.128 E1.58688
G1 X187.099 Y79.929 E1.59763
G1 X187.375 Y79.753 E1.60837
G1 X187.665 Y79.602 E1.61912
G1 X187.968 Y79.477 E1.62987
G1 X188.279 Y79.379 E1.64061
G1 X188.599 Y79.308 E1.65136
G1 X188.923 Y79.265 E1.66211
G1 X189.250 Y79.251 E1.67286
G1 X189.523 Y79.263 E1.68183
G1 X189.901 Y79.308 E1.69434 F1680.000
G1 X190.220 Y79.379 E1.70509
G1 X190.532 Y79.477 E1.71584
G1 X190.834 Y79.602 E1.72659
G1 X191.124 Y79.753 E1.73733
G1 X191.400 Y79.929 E1.74808
G1 X191.660 Y80.128 E1.75883
G1 X191.901 Y80.349 E1.76957
G1 X192.122 Y80.590 E1.78032
G1 X192.288 Y80.807 E1.78930
G1 X192.497 Y81.125 E1.80181
G1 X192.648 Y81.416 E1.81256
G1 X192.773 Y81.718 E1.82330
G1 X192.871 Y82.030 E1.83405
G1 X192.942 Y82.349 E1.84480
G1 X192.985 Y82.673 E1.85554
G1 X192.997 Y82.946 E1.86452
G1 X192.985 Y83.327 E1.87703
G1 X192.942 Y83.651 E1.88778
G1 X192.871 Y83.970 E1.89852
G1 X192.773 Y84.282 E1.90927
G1 X192.648 Y84.584 E1.92002
G1 X192.497 Y84.875 E1.93077
G1 X192.321 Y85.150 E1.94151
G1 X192.122 Y85.410 E1.95226
G1 X191.715 Y85.821 E1.97127
G1 F1500.000 E0.77127
G92 E0
G1 X189.502 Y78.883 F9600.000
G1 X197.757 Y100.898 F9600.000
G1 E1.20000 F1500.000
G1 X198.120 Y100.783 E1.21251 F2100.000
G1 X198.492 Y100.701 E1.22503
G1 X198.869 Y100.651 E1.23755
G1 X199.250 Y100.635 E1.25006
G1 X199.550 Y100.648 E1.25992
G1 X200.008 Y100.701 E1.27508 F2100.000
G1 X200.380 Y100.783 E1.28759
G1 X200.743 Y100.898 E1.30011
G1 X201.095 Y101.044 E1.31262
G1 X201.433 Y101.219 E1.32513
G1 X201.754 Y101.424 E1.33765
G1 X202.056 Y101.656 E1.35016
G1 X202.337 Y101.913 E1.36267
G1 X202.594 Y102.194 E1.37519
G1 X202.826 Y102.496 E1.38770
G1 X203.030 Y102.817 E1.40022
G1 X203.206 Y103.155 E1.41273
G1 X203.352 Y103.507 E1.42524
G1 X203.467 Y103.870 E1.43776
G1 X203.549 Y104.242 E1.45028
G1 X203.599 Y104.620 E1.46279
G1 X203.615 Y105.000 E1.47530
G1 X203.599 Y105.381 E1.48782
G1 X203.549 Y105.758 E1.50033
G1 X203.467 Y106.130 E1.51284
G1 X203.376 Y106.416 E1.52271
G1 X203.206 Y106.845 E1.53786
G1 X203.030 Y107.183 E1.55038
G1 X202.826 Y107.504 E1.56289
G1 X202.594 Y107.806 E1.57541
G1 X202.337 Y108.087 E1.58792
G1 X202.056 Y108.344 E1.60043
G1 X201.754 Y108.576 E1.61295
G1 X201.433 Y108.781 E1.62546
G1 X201.095 Y108.956 E1.63798
G1 X200.743 Y109.102 E1.65049
G1 X200.380 Y109.217 E1.66300
G1 X200.008 Y109.299 E1.67552
G1 X199.630 Y109.349 E1.68803
G1 X199.250 Y109.365 E1.70055
G1 X198.869 Y109.349 E1.71306
G1 X198.492 Y109.299 E1.72557
G1 X198.120 Y109.217 E1.73809
G1 X197.757 Y109.102 E1.75060
G1 X197.405 Y108.956 E1.76312
G1 X197.067 Y108.781 E1.77563
G1 X196.746 Y108.576 E1.78814
G1 X196.444 Y108.344 E1.80066
G1 X196.163 Y108.087 E1.81317
G1 X195.906 Y107.806 E1.82569
G1 X195.674 Y107.504 E1.83820
G1 X195.469 Y107.183 E1.85071
G1 X195.293 Y106.845 E1.86323
G1 X195.148 Y106.493 E1.87574
G1 X195.033 Y106.130 E1.88826
G1 X194.951 Y105.758 E1.90077
G1 X194.901 Y105.380 E1.91329
G1 X194.884 Y105.000 E1.92580
G1 X194.901 Y104.619 E1.93831
G1 X194.951 Y104.242 E1.95082
G1 X195.033 Y103.870 E1.96334
G1 X195.148 Y103.507 E1.97585
G1 X195.293 Y103.155 E1.98837
G1 X195.469 Y102.817 E2.00088
G1 X195.674 Y102.496 E2.01340
G1 X195.906 Y102.194 E2.02591
G1 X196.163 Y101.913 E2.03842
G1 X196.444 Y101.656 E2.05094
G1 X196.746 Y101.424 E2.06345
G1 X197.067 Y101.219 E2.07597
G1 X197.405 Y101.044 E2.08848
G1 X197.687 Y100.926 E2.09853
G1 X197.968 Y101.477 F9600.000
G1 X198.279 Y101.379 E2.10928 F1680.000
G1 X198.599 Y101.308 E2.12002
G1 X198.923 Y101.265 E2.13077
G1 X199.196 Y101.253 E2.13975
G1 X199.577 Y101.265 E2.15226 F1680.000
G1 X199.901 Y101.308 E2.16301
G1 X200.220 Y101.379 E2.17375
G1 X200.532 Y101.477 E2.18450
G1 X200.834 Y101.602 E2.19525
G1 X201.124 Y101.753 E2.20599
G1 X201.400 Y101.929 E2.21674
G1 X201.660 Y102.128 E2.22749
G1 X201.901 Y102.349 E2.23823
G1 X202.122 Y102.590 E2.24898
G1 X202.321 Y102.850 E2.25973
G1 X202.497 Y103.125 E2.27048
G1 X202.623 Y103.368 E2.27945
G1 X202.773 Y103.718 E2.29196
G1 X202.871 Y104.030 E2.30271
G1 X202.942 Y104.349 E2.31346
G1 X202.985 Y104.673 E2.32420
G1 X202.999 Y105.000 E2.33495
G1 X202.985 Y105.327 E2.34570
G1 X202.942 Y105.651 E2.35645
G1 X202.871 Y105.970 E2.36719
G1 X202.789 Y106.231 E2.37617
G1 X202.648 Y106.584 E2.38868
G1 X202.497 Y106.875 E2.39943
G1 X202.321 Y107.150 E2.41017
G1 X202.122 Y107.410 E2.42092
G1 X201.901 Y107.651 E2.43167
G1 X201.660 Y107.872 E2.44242
G1 X201.400 Y108.071 E2.45316
G1 X201.124 Y108.247 E2.46391
G1 X200.834 Y108.398 E2.47466
G1 X200.532 Y108.523 E2.48540
G1 X200.220 Y108.621 E2.49615
G1 X199.901 Y108.692 E2.50690
G1 X199.577 Y108.735 E2.51765
G1 X199.250 Y108.749 E2.52839
G1 X198.923 Y108.735 E2.53914
G1 X198.599 Y108.692 E2.54989
G1 X198.279 Y108.621 E2.56063
G1 X197.968 Y108.523 E2.57138
G1 X197.665 Y108.398 E2.58213
G1 X197.375 Y108.247 E2.59287
G1 X197.099 Y108.071 E2.60362
G1 X196.840 Y107.872 E2.61437
G1 X196.599 Y107.651 E2.62511
G1 X196.378 Y107.410 E2.63586
G1 X196.179 Y107.150 E2.64661
G1 X196.032 Y106.920 E2.65559
G1 X195.852 Y106.584 E2.66810
G1 X195.727 Y106.282 E2.67884
G1 X195.628 Y105.970 E2.68959
G1 X195.558 Y105.651 E2.70034
G1 X195.515 Y105.327 E2.71108
G1 X195.501 Y105.000 E2.72183
G1 X195.515 Y104.673 E2.73258
G1 X195.558 Y104.349 E2.74332
G1 X195.628 Y104.030 E2.75407
G1 X195.727 Y103.718 E2.76482
G1 X195.852 Y103.416 E2.77557
G1 X196.003 Y103.125 E2.78631
G1 X196.179 Y102.850 E2.79706
G1 X196.378 Y102.590 E2.80781
G1 X196.599 Y102.349 E2.81855
G1 X196.840 Y102.128 E2.82930
G1 X197.099 Y101.929 E2.84005
G1 X197.375 Y101.753 E2.85079
G1 X197.898 Y101.506 E2.86981
G1 X199.363 Y100.911 F9600.000
G1 F1500.000 E1.66981
G92 E0
G1 X190.532 Y123.477 F9600.000
G1 E1.20000 F1500.000
G1 X190.834 Y123.602 E1.21075 F1680.000
G1 X191.124 Y123.753 E1.22149
G1 X191.400 Y123.929 E1.23224
G1 X191.660 Y124.128 E1.24299
G1 X191.901 Y124.349 E1.25374
G1 X192.122 Y124.590 E1.26448
G1 X192.321 Y124.850 E1.27523
G1 X192.497 Y125.125 E1.28598
G1 X192.623 Y125.368 E1.29496
G1 X192.773 Y125.718 E1.30746
G1 X192.871 Y126.030 E1.31821
G1 X192.942 Y126.349 E1.32896
G1 X192.985 Y126.673 E1.33971
G1 X192.999 Y127.000 E1.35045
G1 X192.985 Y127.327 E1.36120
G1 X192.942 Y127.651 E1.37195
G1 X192.871 Y127.970 E1.38269
G1 X192.773 Y128.282 E1.39344
G1 X192.648 Y128.584 E1.40419
G1 X192.497 Y128.875 E1.41493
G1 X192.321 Y129.150 E1.42568
G1 X192.122 Y129.410 E1.43643
G1 X191.901 Y129.651 E1.44717
G1 X191.660 Y129.872 E1.45792
G1 X191.400 Y130.071 E1.46867
G1 X191.124 Y130.247 E1.47942
G1 X190.834 Y130.398 E1.49016
G1 X190.532 Y130.523 E1.50091
G1 X190.220 Y130.621 E1.51166
G1 X189.901 Y130.692 E1.52240
G1 X189.577 Y130.735 E1.53315
G1 X189.250 Y130.749 E1.54390
G1 X188.923 Y130.735 E1.55465
G1 X188.599 Y130.692 E1.56539
G1 X188.279 Y130.621 E1.57614
G1 X187.968 Y130.523 E1.58689
G1 X187.665 Y130.398 E1.59763
G1 X187.375 Y130.247 E1.60838
G1 X187.099 Y130.071 E1.61913
G1 X186.840 Y129.872 E1.62987
G1 X186.599 Y129.651 E1.64062
G1 X186.378 Y129.410 E1.65137
G1 X186.179 Y129.150 E1.66211
G1 X186.003 Y128.875 E1.67286
G1 X185.852 Y128.584 E1.68361
G1 X185.727 Y128.282 E1.69436
G1 X185.645 Y128.022 E1.70333
G1 X185.558 Y127.651 E1.71584
G1 X185.515 Y127.327 E1.72659
G1 X185.501 Y127.000 E1.73734
G1 X185.515 Y126.673 E1.74808
G1 X185.558 Y126.349 E1.75883
G1 X185.628 Y126.030 E1.76958
G1 X185.727 Y125.718 E1.78033
G1 X185.852 Y125.416 E1.79107
G1 X186.003 Y125.125 E1.80182
G1 X186.179 Y124.850 E1.81257
G1 X186.378 Y124.590 E1.82331
G1 X186.599 Y124.349 E1.83406
G1 X186.840 Y124.128 E1.84481
G1 X187.099 Y123.929 E1.85555
G1 X187.375 Y123.753 E1.86630
G1 X187.665 Y123.602 E1.87705
G1 X187.968 Y123.477 E1.88780
G1 X188.279 Y123.379 E1.89854
G1 X188.599 Y123.308 E1.90929
G1 X188.923 Y123.265 E1.92004
G1 X189.250 Y123.251 E1.93078
G1 X189.523 Y123.263 E1.93976
G1 X189.901 Y123.308 E1.95227 F1680.000
G1 X190.461 Y123.454 E1.97128
G1 X189.373 Y122.913 F9600.000
G1 X187.636 Y122.936 F9600.000
G1 X187.428 Y122.645 E1.98305 F2100.000
G1 X187.656 Y122.336 E1.99566
G1 X189.035 Y120.099 E2.08202
G1 X190.219 Y117.752 E2.16837
G1 X191.199 Y115.314 E2.25472
G1 X191.969 Y112.801 E2.34108
G1 X192.523 Y110.232 E2.42743
G1 X192.857 Y107.626 E2.51379
G1 X192.969 Y105.000 E2.60014
G1 X192.857 Y102.374 E2.68650
G1 X192.523 Y99.768 E2.77285
G1 X191.969 Y97.199 E2.85921
G1 X191.199 Y94.686 E2.94556
G1 X190.219 Y92.248 E3.03192
G1 X189.035 Y89.901 E3.11828
G1 X187.656 Y87.664 E3.20463
G1 X187.428 Y87.355 E3.21724
G1 X187.636 Y87.064 E3.22901
G1 X188.120 Y87.217 E3.24570
G1 X188.492 Y87.299 E3.25821
G1 X188.869 Y87.349 E3.27072
G1 X189.250 Y87.366 E3.28324
G1 X189.710 Y87.338 E3.29839
G1 X190.008 Y87.299 E3.30825
G1 X190.380 Y87.217 E3.32077
G1 X190.743 Y87.102 E3.33328
G1 X191.095 Y86.956 E3.34580
G1 X191.433 Y86.781 E3.35831
G1 X191.754 Y86.576 E3.37083
G1 X192.056 Y86.344 E3.38334
G1 X192.337 Y86.087 E3.39585
G1 X192.594 Y85.806 E3.40837
G1 X192.826 Y85.504 E3.42088
G1 X193.030 Y85.183 E3.43340
G1 X193.206 Y84.845 E3.44591
G1 X193.352 Y84.493 E3.45842
G1 X193.467 Y84.130 E3.47094
G1 X193.549 Y83.758 E3.48345
G1 X193.599 Y83.381 E3.49596
G1 X193.615 Y83.000 E3.50848
G1 X193.599 Y82.620 E3.52099
G1 X193.549 Y82.242 E3.53351
G1 X193.467 Y81.870 E3.54602
G1 X193.352 Y81.507 E3.55854
G1 X193.206 Y81.155 E3.57105
G1 X193.030 Y80.817 E3.58356
G1 X192.826 Y80.496 E3.59608
G1 X192.594 Y80.194 E3.60859
G1 X192.337 Y79.913 E3.62111
G1 X192.056 Y79.656 E3.63362
G1 X191.754 Y79.424 E3.64614
G1 X191.550 Y79.294 E3.65406
G1 X191.654 Y78.940 E3.66620
G1 X203.836 Y78.940 E4.06652
G1 X207.009 Y82.400 E4.22077
G1 X208.810 Y89.124 E4.44950
G1 X208.810 Y120.876 E5.49286
G1 X207.009 Y127.600 E5.72158
G1 X203.836 Y131.060 E5.87584
G1 X191.654 Y131.060 E6.27615
G1 X191.550 Y130.706 E6.28829
G1 X191.754 Y130.576 E6.29622
G1 X192.056 Y130.344 E6.30873
G1 X192.337 Y130.087 E6.32125
G1 X192.594 Y129.806 E6.33376
G1 X192.826 Y129.504 E6.34627
G1 X193.030 Y129.183 E6.35879
G1 X193.206 Y128.845 E6.37130
G1 X193.352 Y128.493 E6.38382
G1 X193.467 Y128.130 E6.39633
G1 X193.549 Y127.758 E6.40884
G1 X193.599 Y127.381 E6.42136
G1 X193.615 Y127.000 E6.43387
G1 X193.599 Y126.620 E6.44638
G1 X193.549 Y126.242 E6.45890
G1 X193.467 Y125.870 E6.47141
G1 X193.352 Y125.507 E6.48393
G1 X193.206 Y125.155 E6.49644
G1 X193.030 Y124.817 E6.50896
G1 X192.826 Y124.496 E6.52147
G1 X192.594 Y124.194 E6.53398
G1 X192.337 Y123.913 E6.54650
