;Generated by Cura 2 GCodeWriter Version: 2.6.25
;FLAVOR:RepRap
;TIME:5412
;Filament used: 5.10867m
;Layer height: 0.35
;Generated with Cura_SteamEngine 2.6.25
;This G-Code has been generated specifically for the LulzBot Mini with standard extruder
G26                                ; clear potential 'probe fail' condition
G21                                ; set units to Millimetres
M107                               ; disable fans
G90                                ; absolute positioning
M82                                ; set extruder to absolute mode
G92 E0                             ; set extruder position to 0
M140 S109   ; start bed heating up
G28                                ; home all axes
M109 R170  ; wait for extruder to reach wiping temp
G1 Z150 E-30 F75                   ; retract filament
G1 X45 Y174 F11520                 ; move above wiper pad
G1 Z0  F1200                       ; push nozzle into wiper
G1 X45 Y174 Z-.5 F4000             ; wiping
G1 X55 Y172 Z-.5 F4000             ; wiping
G1 X45 Y174 Z0 F4000               ; wiping
G1 X55 Y172 F4000                  ; wiping
G1 X45 Y174 F4000                  ; wiping
G1 X55 Y172 F4000                  ; wiping
G1 X45 Y174 F4000                  ; wiping
G1 X55 Y172 F4000                  ; wiping
G1 X60 Y174 F4000                  ; wiping
G1 X80 Y172 F4000                  ; wiping
G1 X60 Y174 F4000                  ; wiping
G1 X80 Y172 F4000                  ; wiping
G1 X60 Y174 F4000                  ; wiping
G1 X90 Y172 F4000                  ; wiping
G1 X80 Y174 F4000                  ; wiping
G1 X100 Y172 F4000                 ; wiping
G1 X80 Y174 F4000                  ; wiping
G1 X100 Y172 F4000                 ; wiping
G1 X80 Y174 F4000                  ; wiping
G1 X100 Y172 F4000                 ; wiping
G1 X110 Y174 F4000                 ; wiping
G1 X100 Y172 F4000                 ; wiping
G1 X110 Y174 F4000                 ; wiping
G1 X100 Y172 F4000                 ; wiping
G1 X110 Y174 F4000                 ; wiping
G1 X115 Y172 Z-0.5 F1000           ; wiping
G1 Z10                             ; raise extruder
G28 X0 Y0                          ; home X and Y
M109 R170 ; wait for extruder to reach probe temp
M204 S300                          ; set probing acceleration
G29                                ; start auto-leveling sequence
M204 S2000                         ; restore standard acceleration
G1 X5 Y15 Z10 F5000                ; move up off last probe point
G4 S1                              ; pause
M400                               ; wait for moves to finish
M117 Heating...                    ; progress indicator message on LCD
M109 R240 ; wait for extruder to reach printing temp
M190 S109   ; wait for bed to reach printing temp
G1 Z2 E0 F75                       ; prime tiny bit of filment into the nozzle
M117 Mini Printing...              ; progress indicator message on LCD

;LAYER_COUNT:150
;LAYER:0
M107
G0 F1800 X56.807 Y56.972 Z0.425
;TYPE:SKIRT
G1 F900 X57.419 Y56.439 E0.02703
G1 X58.257 Y55.804 E0.06206
G1 X58.961 Y55.342 E0.09011
G1 X59.985 Y54.775 E0.1291
G1 X60.821 Y54.392 E0.15973
G1 X61.854 Y54.005 E0.19647
G1 X62.66 Y53.767 E0.22447
G1 X63.425 Y53.583 E0.25067
G1 X63.881 Y53.511 E0.26605
G1 X65.626 Y53.29 E0.32464
G1 X65.868 Y53.264 E0.33275
G1 X93.156 Y50.675 E1.24581
G1 X93.942 Y50.64 E1.27201
G1 X94.728 Y50.686 E1.29824
G1 X95.366 Y50.782 E1.31973
G1 X113.34 Y54.275 E1.92965
G1 X114.105 Y54.465 E1.95591
G1 X114.845 Y54.73 E1.98209
G1 X115.556 Y55.07 E2.00834
G1 X116.228 Y55.48 E2.03457
G1 X116.855 Y55.955 E2.06077
G1 X117.39 Y56.451 E2.08507
G1 X120.951 Y60.075 E2.25431
G1 X121.473 Y60.664 E2.28053
G1 X121.763 Y61.05 E2.29661
G1 X122.265 Y61.764 E2.32568
G1 X122.761 Y62.569 E2.35718
G1 X123.159 Y63.314 E2.38532
G1 X123.553 Y64.176 E2.41689
G1 X123.864 Y64.982 E2.44566
G1 X124.11 Y65.73 E2.47189
G1 X124.241 Y66.29 E2.49105
G1 X124.538 Y67.814 E2.54277
G1 X124.649 Y68.593 E2.56898
G1 X124.679 Y69.113 E2.58633
G1 X124.699 Y69.96 E2.61455
G1 X124.653 Y71.004 E2.64936
G1 X124.529 Y72.113 E2.68653
G1 X124.402 Y72.89 E2.71276
G1 X124.185 Y73.687 E2.74027
G1 X123.819 Y74.793 E2.77908
G1 X123.534 Y75.527 E2.80531
G1 X123.197 Y76.19 E2.83008
G1 X122.759 Y76.96 E2.85959
G1 X122.336 Y77.623 E2.88579
G1 X121.934 Y78.14 E2.9076
G1 X121.321 Y78.863 E2.93918
G1 X120.782 Y79.437 E2.96541
G1 X120.097 Y80.023 E2.99543
G1 X119.129 Y80.758 E3.03592
G1 X118.679 Y81.075 E3.05426
G1 X114.124 Y84.05 E3.23548
G1 X109.92 Y87.149 E3.40945
G1 X105.866 Y90.506 E3.58478
G1 X104.011 Y92.178 E3.66797
G1 X100.243 Y95.88 E3.84392
G1 X96.733 Y99.742 E4.01776
G1 X93.444 Y103.8 E4.19176
G1 X90.398 Y108.026 E4.36528
G1 X87.174 Y113.108 E4.56576
G1 X86.644 Y113.845 E4.59599
G1 X85.997 Y114.641 E4.63016
G1 X85.442 Y115.254 E4.65771
G1 X78.893 Y121.752 E4.96502
G1 X78.306 Y122.278 E4.99127
G1 X77.744 Y122.692 E5.01453
G1 X76.481 Y123.537 E5.06514
G1 X75.805 Y123.941 E5.09138
G1 X74.976 Y124.321 E5.12175
G1 X73.554 Y124.873 E5.17257
G1 X72.806 Y125.12 E5.19881
G1 X72.254 Y125.25 E5.2177
G1 X71.365 Y125.426 E5.24788
G1 X70.343 Y125.559 E5.28221
G1 X69.431 Y125.616 E5.31265
G1 X68.286 Y125.603 E5.35079
G1 X67.155 Y125.506 E5.38861
G1 X66.011 Y125.321 E5.42721
G1 X65.068 Y125.095 E5.45951
G1 X64.313 Y124.872 E5.48573
G1 X63.793 Y124.669 E5.50433
G1 X62.399 Y124.065 E5.55493
G1 X61.693 Y123.716 E5.58117
G1 X61.179 Y123.401 E5.60125
G1 X60.404 Y122.884 E5.63228
G1 X59.772 Y122.415 E5.6585
G1 X59.438 Y122.122 E5.6733
G1 X58.092 Y120.875 E5.73442
G1 X57.876 Y120.667 E5.74441
G1 X45.104 Y107.881 E6.3464
G1 X44.577 Y107.297 E6.3726
G1 X44.111 Y106.662 E6.39884
G1 X43.713 Y105.983 E6.42505
G1 X43.385 Y105.267 E6.45129
G1 X43.132 Y104.522 E6.4775
G1 X42.956 Y103.755 E6.50371
G1 X42.858 Y102.974 E6.52993
G1 X42.84 Y102.187 E6.55615
G1 X42.902 Y101.402 E6.58238
G1 X43.043 Y100.628 E6.60859
G1 X43.262 Y99.872 E6.63481
G1 X43.503 Y99.26 E6.65672
G1 X45.775 Y94.141 E6.84327
G1 X47.611 Y89.268 E7.01673
G1 X49.173 Y84.286 E7.19065
G1 X50.466 Y79.162 E7.36668
G1 X50.967 Y76.74 E7.44907
G1 X51.827 Y71.489 E7.62631
G1 X52.628 Y64.686 E7.85449
G1 X52.76 Y63.91 E7.88071
G1 X52.936 Y63.253 E7.90336
G1 X53.163 Y62.536 E7.92842
G1 X53.54 Y61.575 E7.9628
G1 X53.885 Y60.842 E7.98979
G1 X54.397 Y59.921 E8.02489
G1 X54.849 Y59.225 E8.05253
G1 X55.502 Y58.36 E8.08863
G1 X56.05 Y57.73 E8.11645
G1 X56.807 Y56.972 E8.15213
G0 F1800 X57.136 Y57.349
G1 F900 X57.748 Y56.816 E8.17917
G1 X58.531 Y56.222 E8.2119
G1 X59.235 Y55.76 E8.23995
G1 X60.193 Y55.23 E8.27642
G1 X61.029 Y54.847 E8.30705
G1 X61.996 Y54.485 E8.34145
G1 X62.802 Y54.247 E8.36944
G1 X63.542 Y54.07 E8.39479
G1 X63.944 Y54.007 E8.40834
G1 X65.689 Y53.786 E8.46693
G1 X65.915 Y53.761 E8.47451
G1 X93.203 Y51.172 E9.38756
G1 X93.964 Y51.14 E9.41293
G1 X94.724 Y51.188 E9.4383
G1 X95.271 Y51.273 E9.45674
G1 X113.245 Y54.766 E10.06666
G1 X113.984 Y54.95 E10.09203
G1 X114.699 Y55.211 E10.11738
G1 X115.383 Y55.545 E10.14274
G1 X116.028 Y55.95 E10.16811
G1 X116.627 Y56.419 E10.19345
G1 X117.033 Y56.802 E10.21204
G1 X120.594 Y60.426 E10.38128
G1 X121.099 Y60.996 E10.40665
G1 X121.354 Y61.337 E10.42083
G1 X121.856 Y62.051 E10.44991
G1 X122.32 Y62.805 E10.4794
G1 X122.718 Y63.55 E10.50753
G1 X123.087 Y64.356 E10.53706
G1 X123.398 Y65.162 E10.56584
G1 X123.634 Y65.886 E10.5912
G1 X123.75 Y66.385 E10.60827
G1 X124.047 Y67.909 E10.65999
G1 X124.153 Y68.663 E10.68535
G1 X124.179 Y69.125 E10.70076
G1 X124.199 Y69.972 E10.72899
G1 X124.156 Y70.949 E10.76156
G1 X124.032 Y72.058 E10.79873
G1 X123.908 Y72.809 E10.82409
G1 X123.71 Y73.53 E10.84899
G1 X123.344 Y74.636 E10.8878
G1 X123.067 Y75.345 E10.91316
G1 X122.763 Y75.943 E10.9355
G1 X122.325 Y76.713 E10.96501
G1 X121.914 Y77.354 E10.99037
G1 X121.553 Y77.817 E11.00993
G1 X120.94 Y78.54 E11.0415
G1 X120.418 Y79.094 E11.06686
G1 X119.794 Y79.625 E11.09415
G1 X118.826 Y80.36 E11.13464
G1 X118.406 Y80.656 E11.15175
G1 X113.831 Y83.644 E11.33377
G1 X109.62 Y86.748 E11.50803
G1 X105.538 Y90.129 E11.68459
G1 X103.667 Y91.816 E11.76851
G1 X99.875 Y95.54 E11.94555
G1 X96.362 Y99.406 E12.11955
G1 X93.046 Y103.498 E12.29499
G1 X89.983 Y107.746 E12.46944
G1 X86.752 Y112.84 E12.67038
G1 X86.256 Y113.53 E12.69869
G1 X85.609 Y114.326 E12.73285
G1 X85.089 Y114.9 E12.75865
G1 X78.54 Y121.398 E13.06597
G1 X77.973 Y121.905 E13.0913
G1 X77.465 Y122.277 E13.11228
G1 X76.202 Y123.122 E13.16289
G1 X75.548 Y123.511 E13.18824
G1 X74.795 Y123.855 E13.21582
G1 X73.373 Y124.407 E13.26663
G1 X72.649 Y124.644 E13.292
G1 X72.157 Y124.76 E13.30884
G1 X71.268 Y124.936 E13.33903
G1 X70.312 Y125.06 E13.37114
G1 X69.4 Y125.117 E13.40158
G1 X68.328 Y125.104 E13.43729
G1 X67.197 Y125.007 E13.4751
G1 X66.127 Y124.834 E13.51121
G1 X65.184 Y124.608 E13.54351
G1 X64.454 Y124.392 E13.56887
G1 X63.992 Y124.21 E13.58541
G1 X62.598 Y123.606 E13.63601
G1 X61.916 Y123.267 E13.66138
G1 X61.457 Y122.985 E13.67933
G1 X60.682 Y122.468 E13.71036
G1 X60.071 Y122.013 E13.73574
G1 X59.778 Y121.755 E13.74874
G1 X58.432 Y120.508 E13.80986
G1 X58.23 Y120.314 E13.81919
G1 X45.458 Y107.528 E14.42118
G1 X44.949 Y106.962 E14.44654
G1 X44.502 Y106.345 E14.47192
G1 X44.122 Y105.685 E14.49729
G1 X43.814 Y104.989 E14.52264
G1 X43.58 Y104.265 E14.54799
G1 X43.423 Y103.52 E14.57335
G1 X43.346 Y102.762 E14.59873
G1 X43.348 Y102.001 E14.62407
G1 X43.43 Y101.244 E14.64944
G1 X43.591 Y100.5 E14.67479
G1 X43.96 Y99.463 E14.71146
G1 X46.24 Y94.326 E14.89867
G1 X48.081 Y89.441 E15.07256
G1 X49.651 Y84.432 E15.24742
G1 X50.954 Y79.27 E15.42476
G1 X51.459 Y76.825 E15.50792
G1 X52.325 Y71.542 E15.68625
G1 X53.125 Y64.744 E15.91426
G1 X53.253 Y63.994 E15.9396
G1 X53.413 Y63.404 E15.95997
G1 X53.64 Y62.687 E15.98502
G1 X53.992 Y61.788 E16.01718
G1 X54.337 Y61.055 E16.04416
G1 X54.817 Y60.193 E16.07703
G1 X55.269 Y59.497 E16.10467
G1 X55.879 Y58.688 E16.13842
G1 X56.427 Y58.058 E16.16624
G1 X57.136 Y57.349 E16.19964
G1 F420 E14.19964
G0 F1800 X61.489 Y62.276
G0 X62.432 Y63.357
G0 X62.488 Y63.413
G0 X62.418 Y63.343
;TYPE:WALL-INNER
G1 F420 E16.19964
G1 F900 X62.973 Y62.861 E16.22412
G1 X63.574 Y62.468 E16.24804
G1 X64.228 Y62.16 E16.27212
G1 X64.92 Y61.944 E16.29627
G1 X65.656 Y61.823 E16.32111
G1 X93.862 Y59.136 E17.26492
G1 X111.496 Y62.565 E17.86332
G1 X114.386 Y65.455 E17.99946
G1 X114.904 Y66.04 E18.02549
G1 X115.331 Y66.664 E18.05067
G1 X115.687 Y67.35 E18.07642
G1 X115.953 Y68.066 E18.10186
G1 X116.132 Y68.821 E18.12771
G1 X116.215 Y69.574 E18.15294
G1 X116.204 Y70.347 E18.17869
G1 X116.103 Y71.085 E18.20351
G1 X115.764 Y72.105 E18.23931
G1 X115.394 Y72.734 E18.26362
G1 X114.901 Y73.311 E18.2889
G1 X114.066 Y73.944 E18.3238
G1 X113.347 Y74.277 E18.3502
G1 X112.743 Y74.444 E18.37107
G1 X110.61 Y74.929 E18.44393
G1 X108.487 Y75.533 E18.51746
G1 X106.399 Y76.252 E18.59102
G1 X104.354 Y77.082 E18.66454
G1 X102.357 Y78.022 E18.73806
G1 X100.413 Y79.069 E18.81161
G1 X98.53 Y80.219 E18.8851
G1 X96.712 Y81.471 E18.95863
G1 X94.963 Y82.817 E19.03215
G1 X93.291 Y84.258 E19.10567
G1 X91.698 Y85.786 E19.1792
G1 X90.19 Y87.398 E19.25273
G1 X88.772 Y89.091 E19.32629
G1 X87.449 Y90.857 E19.39979
G1 X86.222 Y92.692 E19.47332
G1 X85.096 Y94.591 E19.54687
G1 X84.075 Y96.548 E19.62039
G1 X83.163 Y98.559 E19.69395
G1 X82.359 Y100.614 E19.76745
G1 X81.668 Y102.71 E19.84097
G1 X81.092 Y104.841 E19.9145
G1 X80.641 Y106.959 E19.98663
G1 X80.391 Y107.816 E20.01637
G1 X79.993 Y108.572 E20.04483
G1 X79.439 Y109.251 E20.07402
G1 X73.392 Y115.298 E20.35888
G1 X72.765 Y115.848 E20.38666
G1 X72.078 Y116.307 E20.41418
G1 X71.354 Y116.664 E20.44107
G1 X70.575 Y116.929 E20.46848
G1 X69.779 Y117.087 E20.49551
G1 X68.961 Y117.14 E20.52282
G1 X68.143 Y117.087 E20.55012
G1 X67.347 Y116.929 E20.57716
G1 X66.568 Y116.664 E20.60457
G1 X65.844 Y116.307 E20.63146
G1 X65.157 Y115.848 E20.65898
G1 X64.53 Y115.298 E20.68676
G1 X51.638 Y102.406 E21.29408
G1 X53.405 Y100.639 E21.37731
G1 X55.35 Y102.584 E21.46894
G1 X55.526 Y102.76 E21.47723
G1 X55.702 Y102.584 E21.48258
G1 X57.661 Y100.624 E21.57489
G1 X60.904 Y66.579 E22.71407
G1 X61.026 Y65.838 E22.73909
G1 X61.242 Y65.146 E22.76324
G1 X61.547 Y64.498 E22.78709
G1 X61.949 Y63.883 E22.81157
G1 X62.418 Y63.343 E22.83539
G0 F1800 X62.715 Y64.038
G1 F900 X62.073 Y64.983 E22.87345
G1 X61.686 Y66.057 E22.91147
G1 X61.578 Y67.194 E22.94952
G1 X61.757 Y68.322 E22.98756
G1 X62.211 Y69.37 E23.02561
G1 X62.912 Y70.272 E23.06366
G1 X63.813 Y70.973 E23.10169
G1 X64.861 Y71.426 E23.13972
G1 X65.989 Y71.605 E23.17776
G1 X67.126 Y71.497 E23.2158
G1 X68.201 Y71.111 E23.25385
G1 X69.145 Y70.468 E23.2919
G1 X69.9 Y69.612 E23.32992
G1 X70.419 Y68.594 E23.36798
G1 X70.669 Y67.48 E23.40601
G1 X70.633 Y66.338 E23.44407
G1 X70.313 Y65.242 E23.4821
G1 X69.732 Y64.259 E23.52014
G1 X68.926 Y63.451 E23.55816
G1 X67.942 Y62.869 E23.59624
G1 X66.845 Y62.551 E23.63428
G1 X65.703 Y62.515 E23.67234
G1 X64.589 Y62.765 E23.71037
G1 X63.572 Y63.283 E23.74839
G1 X62.715 Y64.038 E23.78644
G0 F1800 X62.64 Y63.972
G0 X62.038 Y64.965
G0 X61.647 Y66.049
G0 X61.539 Y67.195
G0 X61.719 Y68.333
G0 X67.446 Y89.325
G0 X67.546 Y89.325
G1 F900 X74.264 Y96.043 E24.10291
G1 X95.124 Y75.183 E25.08558
G1 X88.406 Y68.465 E25.40205
G1 X67.546 Y89.325 E26.38472
G0 F1800 X67.446 Y89.325
G0 X88.406 Y68.425
G0 X105.965 Y72.249
G0 X106.051 Y72.199
G1 F900 X106.752 Y73.1 E26.42275
G1 X107.654 Y73.801 E26.4608
G1 X108.702 Y74.254 E26.49883
G1 X109.83 Y74.433 E26.53688
G1 X110.967 Y74.326 E26.57492
G1 X112.041 Y73.939 E26.61294
G1 X112.986 Y73.297 E26.651
G1 X113.741 Y72.44 E26.68905
G1 X114.259 Y71.422 E26.72709
G1 X114.509 Y70.309 E26.76509
G1 X114.473 Y69.167 E26.80315
G1 X114.155 Y68.07 E26.8412
G1 X113.573 Y67.086 E26.87928
G1 X112.765 Y66.28 E26.91729
G1 X111.782 Y65.699 E26.95533
G1 X110.686 Y65.379 E26.99336
G1 X109.544 Y65.343 E27.03142
G1 X108.43 Y65.593 E27.06945
G1 X107.412 Y66.111 E27.1075
G1 X106.556 Y66.866 E27.14552
G1 X105.913 Y67.811 E27.18359
G1 X105.527 Y68.885 E27.22161
G1 X105.419 Y70.023 E27.25969
G1 X105.598 Y71.15 E27.2977
G1 X106.051 Y72.199 E27.33576
G0 F1800 X105.965 Y72.249
G0 X91.67 Y85.758
G0 X71.814 Y107.213
G0 X71.753 Y107.292
G1 F900 X70.77 Y106.711 E27.3738
G1 X69.673 Y106.391 E27.41186
G1 X68.531 Y106.355 E27.44992
G1 X67.418 Y106.605 E27.48792
G1 X66.4 Y107.124 E27.52598
G1 X65.544 Y107.878 E27.56398
G1 X64.901 Y108.823 E27.60205
G1 X64.514 Y109.898 E27.64011
G1 X64.407 Y111.035 E27.67815
G1 X64.586 Y112.163 E27.7162
G1 X65.039 Y113.211 E27.75423
G1 X65.74 Y114.112 E27.79225
G1 X66.642 Y114.813 E27.83031
G1 X67.69 Y115.267 E27.86835
G1 X68.818 Y115.446 E27.90639
G1 X69.955 Y115.338 E27.94444
G1 X71.029 Y114.951 E27.98247
G1 X71.974 Y114.309 E28.02052
G1 X72.729 Y113.452 E28.05857
G1 X73.247 Y112.435 E28.09658
G1 X73.497 Y111.321 E28.13461
G1 X73.461 Y110.179 E28.17267
G1 X73.142 Y109.082 E28.21073
G1 X72.561 Y108.099 E28.24876
G1 X71.753 Y107.292 E28.2868
G0 F1800 X71.444 Y107.69
;TYPE:WALL-OUTER
G1 F900 X70.57 Y107.173 E28.32063
G1 X69.594 Y106.889 E28.35449
G1 X68.579 Y106.857 E28.38832
G1 X67.589 Y107.079 E28.42211
G1 X66.683 Y107.541 E28.45599
G1 X65.922 Y108.211 E28.48976
G1 X65.35 Y109.052 E28.52364
G1 X65.006 Y110.008 E28.55749
G1 X64.911 Y111.019 E28.59131
G1 X65.07 Y112.022 E28.62514
G1 X65.473 Y112.954 E28.65896
G1 X66.096 Y113.756 E28.69279
G1 X66.899 Y114.379 E28.72664
G1 X67.831 Y114.783 E28.76048
G1 X68.834 Y114.942 E28.79431
G1 X69.845 Y114.846 E28.82814
G1 X70.8 Y114.502 E28.86195
G1 X71.641 Y113.931 E28.89581
G1 X72.312 Y113.169 E28.92963
G1 X72.773 Y112.264 E28.96346
G1 X72.995 Y111.273 E28.99729
G1 X72.963 Y110.258 E29.03112
G1 X72.679 Y109.282 E29.06498
G1 X72.163 Y108.408 E29.09879
G1 X71.444 Y107.69 E29.13263
G0 F1800 X71.229 Y107.563
G0 X71.534 Y107.047
G0 X72.592 Y108.075
G0 X73.178 Y109.067
G0 X73.5 Y110.173
G0 X73.536 Y111.324
G0 X73.324 Y115.226
G0 X73.738 Y115.66
G1 F900 X73.07 Y116.246 E29.16223
G1 X72.334 Y116.738 E29.19172
G1 X71.545 Y117.127 E29.22102
G1 X70.706 Y117.412 E29.25054
G1 X69.84 Y117.584 E29.27995
G1 X68.961 Y117.641 E29.30929
G1 X68.082 Y117.584 E29.33863
G1 X67.216 Y117.412 E29.36804
G1 X66.377 Y117.127 E29.39756
