; generated by Slic3r 1.1.7 on 2015-07-10 at 11:52:39

; perimeters extrusion width = 0.50mm
; infill extrusion width = 0.60mm
; solid infill extrusion width = 0.60mm
; top infill extrusion width = 0.43mm

G21 ; set units to millimeters
G21                                      ; metric values
G90                                      ; absolute positioning
M82                                      ; set extruder to absolute mode
M107                                    ; start with the fan off
G92 E0                                 ; set extruder position to 0
M140 S110                           ; get bed heating up
G28                                      ; home all
M109 S150                           ; set to cleaning temp and wait
G1 Z150 E-30 F75                ; suck up XXmm of filament
M109 S170                           ; heat up rest of way
G1 X45 Y174 F11520           ; move behind scraper
G1 Z0  F1200                       ; CRITICAL: set Z to height of top of scraper
G1 X45 Y174 Z-.5 F4000      ; wiping ; plunge into wipe pad
G1 X55 Y172 Z-.5 F4000      ; wiping
G1 X45 Y174 Z0 F4000        ; wiping
G1 X55 Y172 F4000             ; wiping
G1 X45 Y174 F4000             ; wiping
G1 X55 Y172 F4000             ; wiping
G1 X45 Y174 F4000             ; wiping
G1 X55 Y172 F4000             ; wiping
G1 X60 Y174 F4000             ; wiping
G1 X80 Y172 F4000             ; wiping
G1 X60 Y174 F4000             ; wiping
G1 X80 Y172 F4000             ; wiping
G1 X60 Y174 F4000             ; wiping
G1 X90 Y172 F4000             ; wiping
G1 X80 Y174 F4000             ; wiping
G1 X100 Y172 F4000           ; wiping
G1 X80 Y174 F4000             ; wiping
G1 X100 Y172 F4000           ; wiping
G1 X80 Y174 F4000             ; wiping
G1 X100 Y172 F4000           ; wiping
G1 X110 Y174 F4000           ; wiping
G1 X100 Y172 F4000           ; wiping
G1 X110 Y174 F4000           ; wiping
G1 X100 Y172 F4000           ; wiping
G1 X110 Y174 F4000           ; wiping
G1 X115 Y172 Z-0.5 F1000  ; wipe slower and bury noz in cleanish area
G1 Z10                                 ; raise z
G28 X0 Y0                            ; home x and y
M109 S170                           ; set to probing temp
M204 S300                           ; set accel for probing
G29                                      ; Probe
M204 S2000                         ; set accel back to normal
G1 X5 Y15 Z10 F5000          ; get out the way
M400                                    ; clear buffer
G4 S1                                   ; pause
M109 S250                           ; set extruder temp and wait
G4 S25                                 ; wait for bed to temp up
G1 Z2 E0 F75                       ; extrude filament back into nozzle
M140 S110                           ; get bed temping up during first layer
G90 ; use absolute coordinates
G92 E0
M82 ; use absolute distances for extrusion
M204 S2000
G1 F600.000 E-1.00000
G92 E0
G1 Z0.350 F10500.000
G1 X17.314 Y37.372 F10500.000
G1 E1.00000 F600.000
G1 X18.259 Y37.004 E1.03341 F1500.000
G1 X19.231 Y36.720 E1.06680
G1 X20.225 Y36.521 E1.10020
G1 X21.232 Y36.410 E1.13361
G1 X22.000 Y36.382 E1.15894
G1 X132.245 Y36.388 E4.79303
G1 X133.256 Y36.453 E4.82644 F1500.000
G1 X134.258 Y36.607 E4.85984
G1 X135.242 Y36.847 E4.89324
G1 X136.202 Y37.172 E4.92664
G1 X137.130 Y37.579 E4.96004
G1 X138.018 Y38.066 E4.99344
G1 X138.861 Y38.628 E5.02685
G1 X139.652 Y39.262 E5.06025
G1 X140.385 Y39.962 E5.09365
G1 X141.053 Y40.723 E5.12705
G1 X141.653 Y41.540 E5.16045
G1 X142.179 Y42.406 E5.19386
G1 X142.628 Y43.314 E5.22725
G1 X142.996 Y44.259 E5.26066
G1 X143.280 Y45.231 E5.29406
G1 X143.479 Y46.225 E5.32746
G1 X143.590 Y47.232 E5.36086
G1 X143.618 Y48.000 E5.38620
G1 X143.612 Y108.245 E7.37210
G1 X143.547 Y109.256 E7.40550
G1 X143.393 Y110.258 E7.43890
G1 X143.153 Y111.242 E7.47230
G1 X142.828 Y112.202 E7.50571
G1 X142.632 Y112.675 E7.52260
G1 X142.421 Y113.130 E7.53912
G1 X141.934 Y114.018 E7.57252
G1 X141.372 Y114.861 E7.60592
G1 X140.738 Y115.652 E7.63932
G1 X140.038 Y116.385 E7.67273
G1 X139.277 Y117.053 E7.70612
G1 X138.460 Y117.653 E7.73953
G1 X137.594 Y118.179 E7.77293
G1 X136.685 Y118.628 E7.80633
G1 X136.212 Y118.824 E7.82322
G1 X135.741 Y118.996 E7.83974
G1 X134.769 Y119.280 E7.87314
G1 X133.775 Y119.479 E7.90654
G1 X132.768 Y119.590 E7.93994
G1 X132.000 Y119.618 E7.96528
G1 X21.755 Y119.612 E11.59937
G1 X20.744 Y119.547 E11.63277
G1 X19.742 Y119.393 E11.66617
G1 X18.758 Y119.153 E11.69958
G1 X17.798 Y118.828 E11.73298
G1 X16.870 Y118.421 E11.76638
G1 X16.416 Y118.184 E11.78327
G1 X15.982 Y117.934 E11.79979
G1 X15.139 Y117.372 E11.83319
G1 X14.348 Y116.738 E11.86659
G1 X13.615 Y116.038 E11.89999
G1 X12.947 Y115.277 E11.93340
G1 X12.347 Y114.460 E11.96679
G1 X11.821 Y113.594 E12.00020
G1 X11.372 Y112.686 E12.03360
G1 X11.176 Y112.212 E12.05051
G1 X11.004 Y111.741 E12.06701
G1 X10.720 Y110.769 E12.10041
G1 X10.521 Y109.775 E12.13381
G1 X10.410 Y108.768 E12.16721
G1 X10.382 Y108.000 E12.19255
G1 X10.388 Y47.755 E14.17845
G1 X10.453 Y46.744 E14.21185
G1 X10.520 Y46.236 E14.22874
G1 X10.607 Y45.742 E14.24526
G1 X10.847 Y44.758 E14.27867
G1 X11.172 Y43.798 E14.31207
G1 X11.579 Y42.870 E14.34547
G1 X12.066 Y41.982 E14.37887
G1 X12.628 Y41.139 E14.41227
G1 X13.262 Y40.348 E14.44567
G1 X13.962 Y39.615 E14.47908
G1 X14.723 Y38.947 E14.51247
G1 X15.540 Y38.347 E14.54588
G1 X16.406 Y37.821 E14.57928
G1 X17.247 Y37.405 E14.61021
G1 F600.000 E13.61021
G92 E0
G1 X58.325 Y113.675 F10500.000
G1 E1.00000 F600.000
G1 X58.325 Y112.325 E1.04450 F1500.000
G1 X68.007 Y112.325 E1.36366
G1 X68.377 Y112.309 E1.37586
G1 X68.751 Y112.260 E1.38830
G1 X69.119 Y112.178 E1.40074
G1 X69.479 Y112.064 E1.41318
G1 X69.828 Y111.920 E1.42562
G1 X70.163 Y111.746 E1.43806
G1 X70.481 Y111.543 E1.45049
G1 X70.780 Y111.313 E1.46293
G1 X71.058 Y111.058 E1.47537
G1 X71.313 Y110.780 E1.48781
G1 X71.543 Y110.481 E1.50025
G1 X71.746 Y110.163 E1.51269
G1 X71.920 Y109.828 E1.52512
G1 X72.064 Y109.479 E1.53756
G1 X72.178 Y109.119 E1.55000
G1 X72.260 Y108.751 E1.56244
G1 X72.309 Y108.377 E1.57488
G1 X72.325 Y107.711 E1.59684
G1 X73.675 Y107.711 E1.64134
G1 X73.653 Y108.495 E1.66717
G1 X73.588 Y108.985 E1.68349
G1 X73.481 Y109.469 E1.69981
G1 X73.332 Y109.941 E1.71613
G1 X73.143 Y110.398 E1.73245
G1 X72.914 Y110.837 E1.74877
G1 X72.648 Y111.255 E1.76509
G1 X72.347 Y111.648 E1.78141
G1 X72.013 Y112.013 E1.79773
G1 X71.648 Y112.347 E1.81404
G1 X71.255 Y112.648 E1.83036
G1 X70.837 Y112.914 E1.84668
G1 X70.398 Y113.143 E1.86300
G1 X69.941 Y113.332 E1.87932
G1 X69.469 Y113.481 E1.89564
G1 X68.985 Y113.588 E1.91196
G1 X68.495 Y113.653 E1.92828
G1 X67.993 Y113.675 E1.94483
G1 X58.400 Y113.675 E2.26105
G1 X58.575 Y113.242 F10500.000
G1 X58.634 Y113.000 F10500.000
G1 X68.014 Y112.999 E2.54181 F1500.000
G1 X68.436 Y112.981 E2.55445
G1 X68.868 Y112.924 E2.56751
G1 X69.294 Y112.829 E2.58057
G1 X69.710 Y112.698 E2.59362
G1 X70.113 Y112.531 E2.60668
G1 X70.500 Y112.330 E2.61973
G1 X70.868 Y112.096 E2.63279
G1 X71.201 Y111.840 E2.64537
G1 X71.546 Y111.524 E2.65938
G1 X71.830 Y111.214 E2.67195
G1 X72.096 Y110.868 E2.68501
G1 X72.330 Y110.500 E2.69807
G1 X72.524 Y110.127 E2.71065
G1 X72.703 Y109.695 E2.72465
G1 X72.829 Y109.294 E2.73723
G1 X72.924 Y108.868 E2.75029
G1 X72.981 Y108.436 E2.76334
G1 X72.999 Y108.020 E2.77580
G1 F600.000 E1.77580
G92 E0
G1 X66.023 Y111.065 F10500.000
G1 E1.00000 F600.000
G1 X34.956 Y47.369 E3.33611 F1500.000
G1 X36.170 Y46.777 E3.38061
G1 X67.237 Y110.474 E5.71672
G1 X66.091 Y111.033 E5.75875
G1 X66.058 Y110.567 F10500.000
G1 X66.494 Y110.492 F10500.000
G1 X35.698 Y47.351 E7.86155 F1500.000
G1 F600.000 E6.86155
G92 E0
G1 X59.866 Y110.474 F10500.000
G1 E1.00000 F600.000
G1 X58.652 Y111.065 E1.04450 F1500.000
G1 X27.585 Y47.369 E3.38061
G1 X28.799 Y46.777 E3.42511
G1 X59.833 Y110.406 E5.75875
G1 X59.367 Y110.439 F10500.000
G1 X59.123 Y110.492 F10500.000
G1 X28.327 Y47.351 E7.86155 F1500.000
G1 F600.000 E6.86155
G92 E0
G1 X51.275 Y107.974 F10500.000
G1 E1.00000 F600.000
G1 X50.062 Y108.565 E1.04450 F1500.000
G1 X21.435 Y49.871 E3.19716
G1 X22.648 Y49.279 E3.24166
G1 X51.242 Y107.906 E5.39185
G1 X50.776 Y107.939 F10500.000
G1 X50.533 Y107.992 F10500.000
G1 X22.177 Y49.853 E7.32806 F1500.000
G1 F600.000 E6.32806
G92 E0
G1 X58.489 Y58.899 F10500.000
G1 E1.00000 F600.000
G1 X57.993 Y58.766 E1.01691 F1500.000
G1 X57.528 Y58.549 E1.03383
G1 X57.108 Y58.255 E1.05074
G1 X56.918 Y58.082 E1.05921
G1 X56.715 Y57.853 E1.06928
G1 X56.451 Y57.472 E1.08459
G1 X56.332 Y57.244 E1.09305
G1 X56.157 Y56.762 E1.10997
G1 X56.068 Y56.257 E1.12688
G1 X56.067 Y55.743 E1.14379
G1 X56.157 Y55.238 E1.16071
G1 X56.332 Y54.756 E1.17762
G1 X56.451 Y54.528 E1.18609
G1 X56.745 Y54.108 E1.20300
G1 X57.108 Y53.745 E1.21992
G1 X57.528 Y53.451 E1.23683
G1 X57.993 Y53.234 E1.25375
G1 X58.489 Y53.101 E1.27066
G1 X58.743 Y53.068 E1.27913
G1 X59.049 Y53.058 E1.28919
G1 X59.511 Y53.101 E1.30450 F1500.000
G1 X59.762 Y53.157 E1.31297
G1 X60.244 Y53.332 E1.32988
G1 X60.472 Y53.451 E1.33835
G1 X60.688 Y53.589 E1.34681
G1 X61.082 Y53.918 E1.36373
G1 X61.255 Y54.108 E1.37219
G1 X61.536 Y54.508 E1.38832
G1 X61.682 Y54.508 E1.39310
G1 X61.899 Y55.489 E1.42622
G1 X61.933 Y55.743 E1.43469
G1 X61.933 Y56.257 E1.45160
G1 X61.843 Y56.762 E1.46851
G1 X61.668 Y57.244 E1.48543
G1 X61.411 Y57.688 E1.50234
G1 X61.222 Y57.928 E1.51241
G1 X60.892 Y58.255 E1.52772
G1 X60.472 Y58.549 E1.54463
G1 X60.244 Y58.668 E1.55310
G1 X59.762 Y58.843 E1.57001
G1 X59.257 Y58.933 E1.58693
G1 X59.000 Y58.944 E1.59539
G1 X58.563 Y58.909 E1.60984
G1 X58.596 Y58.290 F10500.000
G1 X58.205 Y58.185 E1.62320 F1500.000
G1 X57.837 Y58.014 E1.63656
G1 X57.505 Y57.781 E1.64992
G1 X57.205 Y57.477 E1.66400
G1 X56.986 Y57.163 E1.67664
G1 X56.893 Y56.983 E1.68333
G1 X56.754 Y56.602 E1.69669
G1 X56.684 Y56.203 E1.71005
G1 X56.684 Y55.797 E1.72341
G1 X56.754 Y55.398 E1.73677
G1 X56.893 Y55.017 E1.75013
G1 X57.095 Y54.666 E1.76349
G1 X57.356 Y54.356 E1.77685
G1 X57.666 Y54.095 E1.79021
G1 X58.017 Y53.893 E1.80358
G1 X58.398 Y53.754 E1.81694
G1 X58.819 Y53.683 E1.83101
G1 X59.203 Y53.684 E1.84365 F1500.000
G1 X59.404 Y53.710 E1.85034
G1 X59.795 Y53.815 E1.86370
G1 X60.181 Y53.998 E1.87778
G1 X60.495 Y54.219 E1.89042
G1 X60.644 Y54.356 E1.89711
G1 X60.905 Y54.666 E1.91047
G1 X61.164 Y55.126 E1.92785
G1 X61.186 Y55.126 E1.92857
G1 X61.290 Y55.596 E1.94446
G1 X61.325 Y56.000 E1.95782
G1 X61.314 Y56.224 E1.96522
G1 X61.246 Y56.602 E1.97787
G1 X61.107 Y56.983 E1.99123
G1 X60.905 Y57.334 E2.00459
G1 X60.767 Y57.511 E2.01199
G1 X60.495 Y57.781 E2.02463
G1 X60.163 Y58.014 E2.03800
G1 X59.983 Y58.107 E2.04468
G1 X59.602 Y58.246 E2.05804
G1 X59.203 Y58.316 E2.07141
G1 X59.000 Y58.325 E2.07809
G1 X58.671 Y58.300 E2.08898
G1 F600.000 E1.08898
G92 E0
G1 X58.815 Y53.299 F10500.000
G1 X37.244 Y105.332 F10500.000
G1 E1.00000 F600.000
G1 X37.688 Y105.589 E1.01691 F1500.000
G1 X38.082 Y105.919 E1.03383
G1 X38.411 Y106.312 E1.05074
G1 X38.549 Y106.528 E1.05921
G1 X38.687 Y106.801 E1.06928
G1 X38.843 Y107.238 E1.08458
G1 X38.899 Y107.489 E1.09305
G1 X38.944 Y108.000 E1.10996
G1 X38.899 Y108.511 E1.12688
G1 X38.766 Y109.007 E1.14379
G1 X38.549 Y109.472 E1.16071
G1 X38.411 Y109.688 E1.16917
G1 X38.222 Y109.928 E1.17924
G1 X37.892 Y110.255 E1.19455
G1 X37.688 Y110.411 E1.20302
G1 X37.244 Y110.668 E1.21993
G1 X36.762 Y110.843 E1.23684
G1 X36.257 Y110.933 E1.25376
G1 X35.744 Y110.933 E1.27067
G1 X35.238 Y110.843 E1.28759
G1 X34.756 Y110.668 E1.30450
G1 X34.312 Y110.411 E1.32141
G1 X34.108 Y110.255 E1.32988
G1 X33.745 Y109.892 E1.34680
G1 X33.451 Y109.472 E1.36371
G1 X33.234 Y109.007 E1.38062
G1 X33.101 Y108.511 E1.39754
G1 X33.056 Y108.000 E1.41445
G1 X33.101 Y107.489 E1.43137
G1 X33.234 Y106.993 E1.44828
G1 X33.451 Y106.528 E1.46520
G1 X33.745 Y106.108 E1.48211
G1 X34.108 Y105.745 E1.49902
G1 X34.312 Y105.589 E1.50749
G1 X34.756 Y105.332 E1.52441
G1 X35.238 Y105.157 E1.54132
G1 X35.743 Y105.067 E1.55823
G1 X36.257 Y105.067 E1.57515
G1 X36.762 Y105.157 E1.59206 F1500.000
G1 X37.175 Y105.303 E1.60651
G1 X36.983 Y105.893 F10500.000
G1 X37.334 Y106.095 E1.61987 F1500.000
G1 X37.644 Y106.356 E1.63323
G1 X37.905 Y106.666 E1.64659
G1 X38.107 Y107.017 E1.65995
G1 X38.246 Y107.398 E1.67331
G1 X38.316 Y107.797 E1.68668
G1 X38.316 Y108.203 E1.70004
G1 X38.246 Y108.602 E1.71340
G1 X38.107 Y108.983 E1.72676
G1 X37.905 Y109.334 E1.74012
G1 X37.644 Y109.644 E1.75348
G1 X37.334 Y109.905 E1.76684
G1 X36.983 Y110.107 E1.78020
G1 X36.602 Y110.246 E1.79356
G1 X36.404 Y110.290 E1.80025
G1 X36.000 Y110.325 E1.81361
G1 X35.596 Y110.290 E1.82697
G1 X35.205 Y110.185 E1.84033
G1 X34.837 Y110.014 E1.85369
G1 X34.505 Y109.781 E1.86706
G1 X34.219 Y109.495 E1.88042
G1 X33.986 Y109.163 E1.89378
G1 X33.815 Y108.795 E1.90714
G1 X33.710 Y108.404 E1.92050
G1 X33.684 Y108.203 E1.92719
G1 X33.684 Y107.797 E1.94055
G1 X33.754 Y107.398 E1.95391
G1 X33.893 Y107.017 E1.96727
G1 X34.095 Y106.666 E1.98063
G1 X34.356 Y106.356 E1.99399
G1 X34.666 Y106.095 E2.00736
G1 X35.017 Y105.893 E2.02072
G1 X35.398 Y105.754 E2.03408
G1 X35.819 Y105.683 E2.04815
G1 X36.203 Y105.684 E2.06080 F1500.000
G1 X36.404 Y105.710 E2.06748
G1 X36.602 Y105.754 E2.07417
G1 X36.913 Y105.864 E2.08506
G1 X35.638 Y105.344 F10500.000
G1 F600.000 E1.08506
G92 E0
G1 X43.484 Y111.943 F10500.000
G1 E1.00000 F600.000
G1 X54.592 Y111.948 E1.36617 F1500.000
G1 X54.861 Y112.007 E1.37526
G1 X55.028 Y112.085 E1.38133
G1 X55.179 Y112.191 E1.38740
G1 X55.309 Y112.321 E1.39347
G1 X55.415 Y112.472 E1.39954
G1 X55.493 Y112.639 E1.40561
G1 X55.594 Y113.057 E1.41980
G1 X22.021 Y113.057 E2.52649
G1 X21.559 Y113.037 E2.54171
G1 X21.122 Y112.979 E2.55625
G1 X20.691 Y112.884 E2.57079
G1 X20.271 Y112.751 E2.58533
G1 X19.863 Y112.583 E2.59987
G1 X19.472 Y112.379 E2.61441
G1 X19.100 Y112.142 E2.62895
G1 X18.750 Y111.873 E2.64349
G1 X18.425 Y111.575 E2.65803
G1 X18.127 Y111.250 E2.67257
G1 X17.858 Y110.900 E2.68712
G1 X17.621 Y110.528 E2.70166
G1 X17.417 Y110.137 E2.71620
G1 X17.249 Y109.729 E2.73074
G1 X17.116 Y109.309 E2.74528
G1 X17.021 Y108.878 E2.75982
G1 X16.963 Y108.441 E2.77436
G1 X16.943 Y107.979 E2.78958
G1 X16.943 Y48.021 E4.76605
G1 X16.963 Y47.559 E4.78127
G1 X17.021 Y47.122 E4.79581
G1 X17.116 Y46.691 E4.81035
G1 X17.249 Y46.271 E4.82489
G1 X17.417 Y45.863 E4.83943
G1 X17.621 Y45.472 E4.85397
G1 X17.858 Y45.100 E4.86851
G1 X18.127 Y44.750 E4.88305
G1 X18.425 Y44.425 E4.89759
G1 X18.750 Y44.127 E4.91213
G1 X19.100 Y43.858 E4.92667
G1 X19.472 Y43.621 E4.94121
G1 X19.863 Y43.417 E4.95575
G1 X20.271 Y43.249 E4.97029
G1 X20.691 Y43.116 E4.98483
G1 X21.122 Y43.021 E4.99938
G1 X21.559 Y42.963 E5.01392
G1 X22.021 Y42.943 E5.02913
G1 X67.979 Y42.943 E6.54411
G1 X68.441 Y42.963 E6.55933
G1 X68.878 Y43.021 E6.57387
G1 X69.309 Y43.116 E6.58841
G1 X69.729 Y43.249 E6.60295
G1 X70.137 Y43.417 E6.61749
G1 X70.528 Y43.621 E6.63203
G1 X70.900 Y43.858 E6.64657
G1 X71.250 Y44.127 E6.66112
G1 X71.575 Y44.425 E6.67566
G1 X71.873 Y44.750 E6.69020
G1 X72.142 Y45.100 E6.70474
G1 X72.379 Y45.472 E6.71928
G1 X72.583 Y45.863 E6.73382
G1 X72.751 Y46.271 E6.74836
G1 X72.884 Y46.691 E6.76290
G1 X72.979 Y47.122 E6.77744
G1 X73.037 Y47.559 E6.79198
G1 X73.057 Y48.021 E6.80720
G1 X73.057 Y104.366 E8.66455
G1 X73.040 Y104.568 E8.67125
G1 X72.993 Y104.745 E8.67728
G1 X72.917 Y104.911 E8.68331
G1 X72.751 Y105.129 E8.69234
G1 X72.611 Y105.248 E8.69837
G1 X72.369 Y105.376 E8.70740
G1 X72.193 Y105.425 E8.71344
G1 X72.011 Y105.442 E8.71946
G1 X71.739 Y105.410 E8.72850
G1 X71.566 Y105.349 E8.73453
G1 X71.406 Y105.260 E8.74056
G1 X71.202 Y105.078 E8.74959
G1 X71.041 Y104.831 E8.75929
G1 X41.399 Y44.057 E10.98821
G1 X21.979 Y44.057 E11.62837
G1 X21.656 Y44.071 E11.63904
G1 X21.315 Y44.116 E11.65038
G1 X21.027 Y44.180 E11.66011
G1 X20.651 Y44.294 E11.67305
G1 X20.333 Y44.426 E11.68439
G1 X20.028 Y44.585 E11.69573
G1 X19.738 Y44.770 E11.70707
G1 X19.465 Y44.979 E11.71841
G1 X19.211 Y45.211 E11.72976
G1 X18.979 Y45.465 E11.74109
G1 X18.770 Y45.738 E11.75243
G1 X18.585 Y46.028 E11.76378
G1 X18.426 Y46.333 E11.77512
G1 X18.294 Y46.651 E11.78646
G1 X18.191 Y46.979 E11.79780
G1 X18.116 Y47.315 E11.80914
