; generated by Slic3r 1.1.4 on 2014-11-19 at 11:27:23

; perimeters extrusion width = 0.50mm
; infill extrusion width = 0.65mm
; solid infill extrusion width = 0.55mm
; top infill extrusion width = 0.43mm

G21 ; set units to millimeters
M107

M301 P34 I4 D113     ; set PID nozzle
M304 P162 I17 D378 ; set PID Bed

;M104 S230                 ; set extruder temp for budaschnozzle
M104 S250                 ; set extruder temp for hex_hot_end
M140 S110                 ; set bed temp for PEI (reminder ~G1 Z2 ~ M140 S(@-10 degree change) ;if -m is present in file name)

G28                            ; home
G1 Z5 F300                ; move bed down 5mm
M84                            ; disable steppers
G4 S300                     ; wait 5 mins to preheat

G28                            ; home

G90 ; use absolute coordinates
G92 E0
M82 ; use absolute distances for extrusion
M204 S1800
G1 F1500.000 E-1.80000
G92 E0
G1 Z0.350 F9600.000
G1 X111.058 Y87.484 F9600.000
G1 E1.80000 F1500.000
G1 X112.789 Y86.133 E1.86319 F1800.000
G1 X115.601 Y85.443 E1.94650
G1 X182.399 Y85.443 E3.86849
G1 X184.559 Y85.840 E3.93168
G1 X186.437 Y86.978 E3.99486
G1 X187.788 Y88.710 E4.05805
G1 X188.477 Y91.522 E4.14136
G1 X188.477 Y186.478 E6.87358
G1 X188.081 Y188.638 E6.93676
G1 X186.942 Y190.516 E6.99995
G1 X185.211 Y191.867 E7.06314
G1 X182.399 Y192.557 E7.14645
G1 X115.601 Y192.557 E9.06844
G1 X113.441 Y192.160 E9.13163
G1 X111.563 Y191.022 E9.19482
G1 X110.212 Y189.290 E9.25801
G1 X109.523 Y186.478 E9.34132
G1 X109.523 Y91.522 E12.07353
G1 X109.919 Y89.362 E12.13672
G1 X111.019 Y87.548 E12.19775
G1 X111.591 Y87.701 F9600.000
G1 X113.297 Y86.484 E12.25804 F1800.000
G1 X115.601 Y85.982 E12.32589
G1 X182.399 Y85.982 E14.24788
G1 X184.457 Y86.379 E14.30818
G1 X186.220 Y87.511 E14.36847
G1 X187.436 Y89.218 E14.42877
G1 X187.938 Y91.522 E14.49662
G1 X187.938 Y186.478 E17.22883
G1 X187.542 Y188.536 E17.28913
G1 X186.409 Y190.299 E17.34943
G1 X184.703 Y191.516 E17.40972
G1 X182.399 Y192.018 E17.47757
G1 X115.601 Y192.018 E19.39956
G1 X113.543 Y191.621 E19.45985
G1 X111.780 Y190.489 E19.52015
G1 X110.564 Y188.782 E19.58045
G1 X110.062 Y186.478 E19.64830
G1 X110.062 Y91.522 E22.38051
G1 X110.458 Y89.464 E22.44081
G1 X111.550 Y87.764 E22.49894
G1 F1500.000 E20.69894
G92 E0
G1 X163.375 Y173.740 F9600.000
G1 E1.80000 F1500.000
G1 X164.794 Y170.743 E1.89543 F1950.000
G1 X166.411 Y166.469 E2.02690
G1 X167.679 Y162.079 E2.15838
G1 X168.591 Y157.602 E2.28985
G1 X169.141 Y153.066 E2.42132
G1 X169.324 Y148.506 E2.55264
G1 X169.324 Y116.494 E3.47370
G1 X169.274 Y115.265 E3.50910
G1 X169.124 Y114.038 E3.54467
G1 X168.876 Y112.828 E3.58023
G1 X168.530 Y111.641 E3.61579
G1 X168.090 Y110.486 E3.65135
G1 X167.557 Y109.371 E3.68692
G1 X166.936 Y108.302 E3.72248
G1 X166.231 Y107.287 E3.75804
G1 X165.446 Y106.333 E3.79360
G1 X164.064 Y104.904 E3.85080
G1 X163.590 Y104.320 E3.87243
G1 X163.166 Y103.699 E3.89407
G1 X162.796 Y103.044 E3.91570
G1 X162.483 Y102.361 E3.93733
G1 X162.229 Y101.653 E3.95897
G1 X162.035 Y100.927 E3.98060
G1 X161.904 Y100.187 E4.00223
G1 X161.835 Y99.438 E4.02387
G1 X161.834 Y98.627 E4.04721
G1 X161.888 Y97.936 E4.06713
G1 X162.009 Y97.194 E4.08877
G1 X162.193 Y96.465 E4.11040
G1 X162.437 Y95.754 E4.13203
G1 X162.741 Y95.066 E4.15367
G1 X163.101 Y94.407 E4.17530
G1 X163.430 Y93.909 E4.19247
G1 X163.982 Y93.190 E4.21855
G1 X164.497 Y92.641 E4.24019
G1 X165.056 Y92.138 E4.26184
G1 X165.502 Y91.797 E4.27798
G1 X182.124 Y91.797 E4.75626
G1 X182.124 Y186.203 E7.47265
G1 X165.502 Y186.203 E7.95092
G1 X165.039 Y185.848 E7.96770
G1 X164.478 Y185.340 E7.98948
G1 X163.962 Y184.787 E8.01124
G1 X163.495 Y184.192 E8.03300
G1 X163.081 Y183.559 E8.05477
G1 X162.721 Y182.894 E8.07653
G1 X162.419 Y182.200 E8.09829
G1 X162.178 Y181.484 E8.12005
G1 X161.998 Y180.749 E8.14181
G1 X161.881 Y180.002 E8.16358
G1 X161.828 Y179.247 E8.18534
G1 X161.835 Y178.739 E8.19998
G1 X161.839 Y178.491 E8.20710
G1 X161.914 Y177.739 E8.22886
G1 X162.053 Y176.995 E8.25063
G1 X162.254 Y176.266 E8.27239
G1 X162.517 Y175.557 E8.29415
G1 X163.343 Y173.808 E8.34980
G1 X163.873 Y173.699 F9600.000
G1 F1500.000 E6.54980
G92 E0
G1 X162.367 Y179.222 F9600.000
G1 E1.80000 F1500.000
G1 X162.378 Y178.522 E1.82013 F2700.000
G1 X162.448 Y177.815 E1.84058
G1 X162.579 Y177.117 E1.86102
G1 X162.768 Y176.432 E1.88146
G1 X163.015 Y175.766 E1.90190
G1 X165.290 Y170.954 E2.05507
G1 X166.923 Y166.639 E2.18779
G1 X168.203 Y162.208 E2.32051
G1 X169.124 Y157.688 E2.45323
G1 X169.678 Y153.109 E2.58595
G1 X169.863 Y148.516 E2.71820
G1 X169.863 Y116.484 E3.63989
G1 X169.812 Y115.221 E3.67624
G1 X169.657 Y113.951 E3.71305
G1 X169.400 Y112.698 E3.74987
G1 X169.042 Y111.469 E3.78669
G1 X168.586 Y110.273 E3.82351
G1 X168.035 Y109.119 E3.86033
G1 X167.392 Y108.012 E3.89715
G1 X166.661 Y106.961 E3.93397
G1 X165.848 Y105.973 E3.97079
G1 X164.468 Y104.546 E4.02793
G1 X164.022 Y103.998 E4.04825
G1 X163.624 Y103.414 E4.06858
G1 X163.277 Y102.799 E4.08890
G1 X162.983 Y102.157 E4.10922
G1 X162.744 Y101.492 E4.12955
G1 X162.562 Y100.810 E4.14986
G1 X162.439 Y100.115 E4.17018
G1 X162.391 Y99.600 E4.18505
G1 X162.374 Y99.411 E4.19051
G1 X162.369 Y98.705 E4.21083
G1 X162.424 Y98.001 E4.23115
G1 X162.538 Y97.304 E4.25147
G1 X162.710 Y96.619 E4.27179
G1 X162.940 Y95.951 E4.29211
G1 X163.225 Y95.305 E4.31244
G1 X163.563 Y94.685 E4.33276
G1 X163.953 Y94.096 E4.35308
G1 X164.391 Y93.542 E4.37340
G1 X164.875 Y93.027 E4.39372
G1 X165.401 Y92.553 E4.41411
G1 X165.685 Y92.336 E4.42438
G1 X181.585 Y92.336 E4.88188
G1 X181.585 Y185.664 E7.56723
G1 X165.685 Y185.664 E8.02471
G1 X165.385 Y185.433 E8.03560
G1 X164.857 Y184.956 E8.05609
G1 X164.372 Y184.436 E8.07654
G1 X163.934 Y183.877 E8.09698
G1 X163.652 Y183.448 E8.11174
G1 X163.544 Y183.283 E8.11742
G1 X163.207 Y182.658 E8.13786
G1 X162.923 Y182.006 E8.15831
G1 X162.696 Y181.333 E8.17875
G1 X162.527 Y180.643 E8.19919
G1 X162.417 Y179.941 E8.21963
G1 X162.372 Y179.296 E8.23825
G1 X162.999 Y181.013 F9600.000
G1 X167.280 Y185.293 E8.41243 F3300.000
G1 X168.046 Y185.293 E8.43448
G1 X162.811 Y180.058 E8.64751
G1 X162.738 Y179.219 E8.67173
G1 X168.812 Y185.293 E8.91889
G1 X169.578 Y185.293 E8.94093
G1 X162.756 Y178.471 E9.21856
G1 X162.832 Y177.781 E9.23852
G1 X170.344 Y185.293 E9.54420
G1 X171.110 Y185.293 E9.56624
G1 X162.957 Y177.140 E9.89800
G1 X163.123 Y176.540 E9.91591
G1 X171.876 Y185.293 E10.27207
G1 X172.642 Y185.293 E10.29411
G1 X163.331 Y175.981 E10.67302
G1 X163.572 Y175.456 E10.68965
G1 X173.408 Y185.293 E11.08992
G1 X174.174 Y185.293 E11.11196
G1 X163.817 Y174.936 E11.53340
G1 X164.063 Y174.416 E11.54996
G1 X174.940 Y185.293 E11.99256
G1 X175.706 Y185.293 E12.01460
G1 X164.309 Y173.896 E12.47837
G1 X164.555 Y173.376 E12.49492
G1 X176.473 Y185.293 E12.97985
G1 X177.239 Y185.293 E13.00189
G1 X164.801 Y172.856 E13.50798
G1 X165.047 Y172.336 E13.52454
G1 X178.005 Y185.293 E14.05179
G1 X178.771 Y185.293 E14.07383
G1 X165.293 Y171.816 E14.62225
G1 X165.539 Y171.296 E14.63881
G1 X179.537 Y185.293 E15.20839
G1 X180.303 Y185.293 E15.23043
G1 X165.763 Y170.753 E15.82208
G1 X165.973 Y170.198 E15.83918
G1 X181.069 Y185.293 E16.45344
G1 X181.214 Y184.672 E16.47180
G1 X166.183 Y169.642 E17.08340
G1 X166.394 Y169.086 E17.10050
G1 X181.214 Y183.906 E17.70355
G1 X181.214 Y183.140 E17.72559
G1 X166.604 Y168.530 E18.32008
G1 X166.814 Y167.974 E18.33718
G1 X181.214 Y182.374 E18.92312
G1 X181.214 Y181.608 E18.94516
G1 X167.024 Y167.419 E19.52254
G1 X167.235 Y166.863 E19.53964
G1 X181.214 Y180.842 E20.10846
G1 X181.214 Y180.076 E20.13050
G1 X167.414 Y166.276 E20.69204
G1 X167.586 Y165.682 E20.70984
G1 X181.214 Y179.310 E21.26439
G1 X181.214 Y178.544 E21.28643
G1 X167.757 Y165.087 E21.83399
G1 X167.929 Y164.493 E21.85179
G1 X181.214 Y177.778 E22.39237
G1 X181.214 Y177.012 E22.41441
G1 X168.101 Y163.899 E22.94799
G1 X168.272 Y163.304 E22.96579
G1 X181.214 Y176.246 E23.49239
G1 X181.214 Y175.479 E23.51443
G1 X168.444 Y162.710 E24.03404
G1 X168.603 Y162.103 E24.05210
G1 X181.214 Y174.713 E24.56524
G1 X181.214 Y173.947 E24.58728
G1 X168.733 Y161.466 E25.09515
G1 X168.862 Y160.830 E25.11383
G1 X181.214 Y173.181 E25.61643
G1 X181.214 Y172.415 E25.63847
G1 X168.992 Y160.194 E26.13579
G1 X169.122 Y159.557 E26.15448
G1 X181.214 Y171.649 E26.64652
G1 X181.214 Y170.883 E26.66856
G1 X169.251 Y158.921 E27.15533
G1 X169.381 Y158.284 E27.17402
G1 X181.214 Y170.117 E27.65551
G1 X181.214 Y169.351 E27.67755
G1 X169.503 Y157.641 E28.15407
G1 X169.586 Y156.957 E28.17387
G1 X181.214 Y168.585 E28.64702
G1 X181.214 Y167.819 E28.66907
G1 X169.669 Y156.274 E29.13885
G1 X169.751 Y155.591 E29.15865
G1 X181.214 Y167.053 E29.62506
G1 X181.214 Y166.287 E29.64711
G1 X169.834 Y154.908 E30.11015
G1 X169.917 Y154.224 E30.12995
G1 X181.214 Y165.521 E30.58963
G1 X181.214 Y164.755 E30.61167
G1 X170.000 Y153.541 E31.06798
G1 X170.061 Y152.836 E31.08835
G1 X181.214 Y163.989 E31.54218
G1 X181.214 Y163.223 E31.56422
G1 X170.090 Y152.099 E32.01684
G1 X170.120 Y151.363 E32.03805
G1 X181.214 Y162.457 E32.48947
G1 X181.214 Y161.691 E32.51151
G1 X170.150 Y150.627 E32.96173
G1 X170.179 Y149.890 E32.98293
G1 X181.214 Y160.925 E33.43194
G1 X181.214 Y160.159 E33.45399
G1 X170.209 Y149.154 E33.90179
G1 X170.234 Y148.413 E33.92312
G1 X181.214 Y159.393 E34.36989
G1 X181.214 Y158.627 E34.39193
G1 X170.234 Y147.647 E34.83871
G1 X170.234 Y146.881 E34.86075
G1 X181.214 Y157.861 E35.30753
G1 X181.214 Y157.094 E35.32957
G1 X170.234 Y146.115 E35.77634
G1 X170.234 Y145.349 E35.79838
G1 X181.214 Y156.328 E36.24516
G1 X181.214 Y155.562 E36.26720
G1 X170.234 Y144.583 E36.71398
G1 X170.234 Y143.817 E36.73602
G1 X181.214 Y154.796 E37.18279
G1 X181.214 Y154.030 E37.20484
G1 X170.234 Y143.051 E37.65161
G1 X170.234 Y142.285 E37.67365
G1 X181.214 Y153.264 E38.12043
G1 X181.214 Y152.498 E38.14247
G1 X170.234 Y141.519 E38.58924
G1 X170.234 Y140.753 E38.61129
G1 X181.214 Y151.732 E39.05806
G1 X181.214 Y150.966 E39.08010
G1 X170.234 Y139.987 E39.52688
G1 X170.234 Y139.220 E39.54892
G1 X181.214 Y150.200 E39.99570
G1 X181.214 Y149.434 E40.01774
G1 X170.234 Y138.454 E40.46451
G1 X170.234 Y137.688 E40.48655
G1 X181.214 Y148.668 E40.93333
G1 X181.214 Y147.902 E40.95537
G1 X170.234 Y136.922 E41.40215
G1 X170.234 Y136.156 E41.42419
G1 X181.214 Y147.136 E41.87096
G1 X181.214 Y146.370 E41.89300
G1 X170.234 Y135.390 E42.33978
G1 X170.234 Y134.624 E42.36182
G1 X181.214 Y145.604 E42.80860
G1 X181.214 Y144.838 E42.83064
G1 X170.234 Y133.858 E43.27741
G1 X170.234 Y133.092 E43.29946
G1 X181.214 Y144.072 E43.74623
G1 X181.214 Y143.306 E43.76827
G1 X170.234 Y132.326 E44.21505
G1 X170.234 Y131.560 E44.23709
G1 X181.214 Y142.540 E44.68387
G1 X181.214 Y141.774 E44.70591
G1 X170.234 Y130.794 E45.15268
G1 X170.234 Y130.028 E45.17472
G1 X181.214 Y141.008 E45.62150
G1 X181.214 Y140.242 E45.64354
G1 X170.234 Y129.262 E46.09032
G1 X170.234 Y128.496 E46.11236
G1 X181.214 Y139.475 E46.55913
G1 X181.214 Y138.709 E46.58117
G1 X170.234 Y127.730 E47.02795
G1 X170.234 Y126.964 E47.04999
G1 X181.214 Y137.943 E47.49677
G1 X181.214 Y137.177 E47.51881
G1 X170.234 Y126.198 E47.96558
G1 X170.234 Y125.432 E47.98763
G1 X181.214 Y136.411 E48.43440
G1 X181.214 Y135.645 E48.45644
G1 X170.234 Y124.666 E48.90322
G1 X170.234 Y123.900 E48.92526
G1 X181.214 Y134.879 E49.37203
G1 X181.214 Y134.113 E49.39408
G1 X170.234 Y123.134 E49.84085
G1 X170.234 Y122.368 E49.86289
G1 X181.214 Y133.347 E50.30967
G1 X181.214 Y132.581 E50.33171
G1 X170.234 Y121.602 E50.77849
G1 X170.234 Y120.835 E50.80053
G1 X181.214 Y131.815 E51.24730
G1 X181.214 Y131.049 E51.26934
G1 X170.234 Y120.069 E51.71612
G1 X170.234 Y119.303 E51.73816
G1 X181.214 Y130.283 E52.18494
G1 X181.214 Y129.517 E52.20698
G1 X170.234 Y118.537 E52.65375
G1 X170.234 Y117.771 E52.67579
G1 X181.214 Y128.751 E53.12257
G1 X181.214 Y127.985 E53.14461
G1 X170.234 Y117.005 E53.59139
G1 X170.224 Y116.229 E53.61372
G1 X181.214 Y127.219 E54.06090
G1 X181.214 Y126.453 E54.08294
G1 X170.192 Y115.431 E54.53144
G1 X170.107 Y114.581 E54.55603
G1 X181.214 Y125.687 E55.00795
G1 X181.214 Y124.921 E55.02999
G1 X169.982 Y113.689 E55.48704
G1 X169.784 Y112.725 E55.51535
G1 X181.214 Y124.155 E55.98044
G1 X181.214 Y123.389 E56.00248
G1 X169.483 Y111.658 E56.47981
G1 X169.056 Y110.465 F9600.000
G1 X181.214 Y122.623 E56.97454 F3300.000
G1 X181.214 Y121.856 E56.99658
G1 X168.418 Y109.061 E57.51726
G1 F1500.000 E55.71726
G92 E0
G1 X167.178 Y107.055 F9600.000
G1 E1.80000 F1500.000
G1 X181.214 Y121.090 E2.37114 F3300.000
G1 X181.214 Y120.324 E2.39318
G1 X163.722 Y102.833 E3.10495
G1 X163.133 Y101.478 F9600.000
G1 X181.214 Y119.558 E3.84068 F3300.000
G1 X181.214 Y118.792 E3.86272
G1 X162.876 Y100.454 E4.60892
G1 X162.761 Y99.574 E4.63446
G1 X181.214 Y118.026 E5.38531
G1 X181.214 Y117.260 E5.40735
G1 X162.741 Y98.787 E6.15905
G1 X162.790 Y98.071 E6.17971
G1 X181.214 Y116.494 E6.92938
G1 X181.214 Y115.728 E6.95142
G1 X162.896 Y97.411 E7.69678
G1 X163.048 Y96.796 E7.71499
G1 X181.214 Y114.962 E8.45418
G1 X181.214 Y114.196 E8.47622
G1 X163.239 Y96.221 E9.20764
G1 X163.464 Y95.681 E9.22449
G1 X181.214 Y113.430 E9.94673
G1 X181.214 Y112.664 E9.96877
G1 X163.721 Y95.171 E10.68059
G1 X164.005 Y94.690 E10.69668
G1 X181.214 Y111.898 E11.39691
G1 X181.214 Y111.132 E11.41896
G1 X164.317 Y94.235 E12.10652
G1 X164.655 Y93.807 E12.12222
G1 X181.214 Y110.366 E12.79602
G1 X181.214 Y109.600 E12.81806
G1 X165.034 Y93.421 E13.47642
G1 X165.418 Y93.038 E13.49200
G1 X181.214 Y108.834 E14.13477
G1 X181.214 Y108.068 E14.15681
G1 X165.853 Y92.707 E14.78187
G1 X166.619 Y92.707 E14.80391
G1 X181.214 Y107.302 E15.39780
G1 X181.214 Y106.536 E15.41984
G1 X167.385 Y92.707 E15.98255
G1 X168.151 Y92.707 E16.00459
G1 X181.214 Y105.770 E16.53614
G1 X181.214 Y105.004 E16.55818
G1 X168.917 Y92.707 E17.05855
G1 X169.683 Y92.707 E17.08059
G1 X181.214 Y104.237 E17.54979
G1 X181.214 Y103.471 E17.57183
G1 X170.449 Y92.707 E18.00986
G1 X171.215 Y92.707 E18.03190
G1 X181.214 Y102.705 E18.43876
G1 X181.214 Y101.939 E18.46080
G1 X171.981 Y92.707 E18.83648
G1 X172.747 Y92.707 E18.85852
G1 X181.214 Y101.173 E19.20304
G1 X181.214 Y100.407 E19.22508
G1 X173.513 Y92.707 E19.53842
G1 X174.279 Y92.707 E19.56046
G1 X181.214 Y99.641 E19.84263
G1 X181.214 Y98.875 E19.86467
G1 X175.045 Y92.707 E20.11567
G1 X175.811 Y92.707 E20.13772
G1 X181.214 Y98.109 E20.35754
G1 X181.214 Y97.343 E20.37958
G1 X176.577 Y92.707 E20.56824
G1 X177.343 Y92.707 E20.59028
G1 X181.214 Y96.577 E20.74777
G1 X181.214 Y95.811 E20.76981
G1 X178.109 Y92.707 E20.89612
G1 X178.876 Y92.707 E20.91816
G1 X181.214 Y95.045 E21.01331
G1 X181.214 Y94.279 E21.03535
G1 X179.642 Y92.707 E21.09932
G1 X180.408 Y92.707 E21.12136
G1 X181.214 Y93.513 E21.15416
G1 X181.214 Y92.747 E21.17620
G1 X181.174 Y92.707 E21.17783
G1 F1500.000 E19.37783
G92 E0
G1 X181.399 Y112.982 F9600.000
G1 X163.405 Y182.184 F9600.000
G1 E1.80000 F1500.000
G1 X166.514 Y185.293 E1.92650 F3300.000
G1 X165.414 Y184.960 E1.95956
G1 X164.728 Y184.273 E1.98752
M204 S1800
G1 F1500.000 E0.18752
G92 E0
G1 X136.139 Y179.724 F9600.000
G1 E1.80000 F1500.000
G1 X136.112 Y180.064 E1.80981 F1950.000
G1 X135.991 Y180.806 E1.83145
G1 X135.807 Y181.535 E1.85308
G1 X135.563 Y182.246 E1.87472
G1 X135.328 Y182.779 E1.89147
G1 X134.899 Y183.594 E1.91797
G1 X134.484 Y184.221 E1.93960
G1 X134.018 Y184.810 E1.96124
G1 X133.503 Y185.359 E1.98287
G1 X132.944 Y185.862 E2.00453
G1 X132.498 Y186.203 E2.02067
G1 X115.876 Y186.203 E2.49894
G1 X115.876 Y91.797 E5.21533
G1 X132.498 Y91.797 E5.69360
G1 X132.961 Y92.152 E5.71038
G1 X133.522 Y92.660 E5.73216
G1 X134.038 Y93.213 E5.75393
G1 X134.505 Y93.808 E5.77569
G1 X134.919 Y94.441 E5.79745
G1 X135.279 Y95.106 E5.81921
G1 X135.580 Y95.799 E5.84097
G1 X135.822 Y96.516 E5.86274
G1 X136.002 Y97.251 E5.88450
G1 X136.119 Y97.998 E5.90626
G1 X136.172 Y98.752 E5.92802
G1 X136.165 Y99.261 E5.94266
G1 X136.161 Y99.509 E5.94978
G1 X136.086 Y100.261 E5.97155
G1 X135.947 Y101.005 E5.99331
G1 X135.746 Y101.734 E6.01507
G1 X135.483 Y102.443 E6.03683
G1 X133.206 Y107.257 E6.19007
G1 X131.589 Y111.531 E6.32154
G1 X130.321 Y115.921 E6.45301
G1 X130.003 Y117.482 E6.49886
G1 X129.409 Y120.398 E6.58449
