; generated by Slic3r 1.1.4 on 2014-11-19 at 11:27:23

; perimeters extrusion width = 0.50mm
; infill extrusion width = 0.65mm
; solid infill extrusion width = 0.55mm
; top infill extrusion width = 0.43mm

G21 ; set units to millimeters
M107

M301 P34 I4 D113     ; set PID nozzle
M304 P162 I17 D378 ; set PID Bed

;M104 S230                 ; set extruder temp for budaschnozzle
M104 S250                 ; set extruder temp for hex_hot_end
M140 S110                 ; set bed temp for PEI (reminder ~G1 Z2 ~ M140 S(@-10 degree change) ;if -m is present in file name)

G28                            ; home
G1 Z5 F300                ; move bed down 5mm
M84                            ; disable steppers
G4 S300                     ; wait 5 mins to preheat

G28                            ; home

G90 ; use absolute coordinates
G92 E0
M82 ; use absolute distances for extrusion
M204 S1800
G1 F1500.000 E-1.80000
G92 E0
G1 Z0.350 F9600.000
G1 X159.058 Y121.484 F9600.000
G1 E1.80000 F1500.000
G1 X160.789 Y120.133 E1.86319 F1800.000
G1 X163.601 Y119.443 E1.94650
G1 X230.399 Y119.443 E3.86849
G1 X232.559 Y119.840 E3.93168
G1 X234.437 Y120.978 E3.99486
G1 X235.788 Y122.710 E4.05805
G1 X236.477 Y125.522 E4.14136
G1 X236.477 Y220.478 E6.87358
G1 X236.081 Y222.638 E6.93676
G1 X234.942 Y224.516 E6.99995
G1 X233.211 Y225.867 E7.06314
G1 X230.399 Y226.557 E7.14645
G1 X163.601 Y226.557 E9.06844
G1 X161.441 Y226.160 E9.13163
G1 X159.563 Y225.022 E9.19482
G1 X158.212 Y223.290 E9.25801
G1 X157.523 Y220.478 E9.34132
G1 X157.523 Y125.522 E12.07353
G1 X157.919 Y123.362 E12.13672
G1 X159.019 Y121.548 E12.19775
G1 X159.591 Y121.701 F9600.000
G1 X161.297 Y120.484 E12.25804 F1800.000
G1 X163.601 Y119.982 E12.32589
G1 X230.399 Y119.982 E14.24788
G1 X232.457 Y120.379 E14.30818
G1 X234.220 Y121.511 E14.36847
G1 X235.436 Y123.218 E14.42877
G1 X235.938 Y125.522 E14.49662
G1 X235.938 Y220.478 E17.22883
G1 X235.542 Y222.536 E17.28913
G1 X234.409 Y224.299 E17.34943
G1 X232.703 Y225.516 E17.40972
G1 X230.399 Y226.018 E17.47757
G1 X163.601 Y226.018 E19.39956
G1 X161.543 Y225.621 E19.45985
G1 X159.780 Y224.489 E19.52015
G1 X158.564 Y222.782 E19.58045
G1 X158.062 Y220.478 E19.64830
G1 X158.062 Y125.522 E22.38051
G1 X158.458 Y123.464 E22.44081
G1 X159.550 Y121.764 E22.49894
G1 F1500.000 E20.69894
G92 E0
G1 X211.375 Y207.740 F9600.000
G1 E1.80000 F1500.000
G1 X212.794 Y204.743 E1.89543 F1950.000
G1 X214.411 Y200.469 E2.02690
G1 X215.679 Y196.079 E2.15838
G1 X216.591 Y191.602 E2.28985
G1 X217.141 Y187.066 E2.42132
G1 X217.324 Y182.506 E2.55264
G1 X217.324 Y150.494 E3.47370
G1 X217.274 Y149.265 E3.50910
G1 X217.124 Y148.038 E3.54467
G1 X216.876 Y146.828 E3.58023
G1 X216.530 Y145.641 E3.61579
G1 X216.090 Y144.486 E3.65135
G1 X215.557 Y143.371 E3.68692
G1 X214.936 Y142.302 E3.72248
G1 X214.231 Y141.287 E3.75804
G1 X213.446 Y140.333 E3.79360
G1 X212.064 Y138.904 E3.85080
G1 X211.590 Y138.320 E3.87243
G1 X211.166 Y137.699 E3.89407
G1 X210.796 Y137.044 E3.91570
G1 X210.483 Y136.361 E3.93733
G1 X210.229 Y135.653 E3.95897
G1 X210.035 Y134.927 E3.98060
G1 X209.904 Y134.187 E4.00223
G1 X209.835 Y133.438 E4.02387
G1 X209.834 Y132.627 E4.04721
G1 X209.888 Y131.936 E4.06713
G1 X210.009 Y131.194 E4.08877
G1 X210.193 Y130.465 E4.11040
G1 X210.437 Y129.754 E4.13203
G1 X210.741 Y129.066 E4.15367
G1 X211.101 Y128.407 E4.17530
G1 X211.430 Y127.909 E4.19247
G1 X211.982 Y127.190 E4.21855
G1 X212.497 Y126.641 E4.24019
G1 X213.056 Y126.138 E4.26184
G1 X213.502 Y125.797 E4.27798
G1 X230.124 Y125.797 E4.75626
G1 X230.124 Y220.203 E7.47265
G1 X213.502 Y220.203 E7.95092
G1 X213.039 Y219.848 E7.96770
G1 X212.478 Y219.340 E7.98948
G1 X211.962 Y218.787 E8.01124
G1 X211.495 Y218.192 E8.03300
G1 X211.081 Y217.559 E8.05477
G1 X210.721 Y216.894 E8.07653
G1 X210.419 Y216.200 E8.09829
G1 X210.178 Y215.484 E8.12005
G1 X209.998 Y214.749 E8.14181
G1 X209.881 Y214.002 E8.16358
G1 X209.828 Y213.247 E8.18534
G1 X209.835 Y212.739 E8.19998
G1 X209.839 Y212.491 E8.20710
G1 X209.914 Y211.739 E8.22886
G1 X210.053 Y210.995 E8.25063
G1 X210.254 Y210.266 E8.27239
G1 X210.517 Y209.557 E8.29415
G1 X211.343 Y207.808 E8.34980
G1 X211.873 Y207.699 F9600.000
G1 F1500.000 E6.54980
G92 E0
G1 X210.367 Y213.222 F9600.000
G1 E1.80000 F1500.000
G1 X210.378 Y212.522 E1.82013 F2700.000
G1 X210.448 Y211.815 E1.84058
G1 X210.579 Y211.117 E1.86102
G1 X210.768 Y210.432 E1.88146
G1 X211.015 Y209.766 E1.90190
G1 X213.290 Y204.954 E2.05507
G1 X214.923 Y200.639 E2.18779
G1 X216.203 Y196.208 E2.32051
G1 X217.124 Y191.688 E2.45323
G1 X217.678 Y187.109 E2.58595
G1 X217.863 Y182.516 E2.71820
G1 X217.863 Y150.484 E3.63989
G1 X217.812 Y149.221 E3.67624
G1 X217.657 Y147.951 E3.71305
G1 X217.400 Y146.698 E3.74987
G1 X217.042 Y145.469 E3.78669
G1 X216.586 Y144.273 E3.82351
G1 X216.035 Y143.119 E3.86033
G1 X215.392 Y142.012 E3.89715
G1 X214.661 Y140.961 E3.93397
G1 X213.848 Y139.973 E3.97079
G1 X212.468 Y138.546 E4.02793
G1 X212.022 Y137.998 E4.04825
G1 X211.624 Y137.414 E4.06858
G1 X211.277 Y136.799 E4.08890
G1 X210.983 Y136.157 E4.10922
G1 X210.744 Y135.492 E4.12955
G1 X210.562 Y134.810 E4.14986
G1 X210.439 Y134.115 E4.17018
G1 X210.391 Y133.600 E4.18505
G1 X210.374 Y133.411 E4.19051
G1 X210.369 Y132.705 E4.21083
G1 X210.424 Y132.001 E4.23115
G1 X210.538 Y131.304 E4.25147
G1 X210.710 Y130.619 E4.27179
G1 X210.940 Y129.951 E4.29211
G1 X211.225 Y129.305 E4.31244
G1 X211.563 Y128.685 E4.33276
G1 X211.953 Y128.096 E4.35308
G1 X212.391 Y127.542 E4.37340
G1 X212.875 Y127.027 E4.39372
G1 X213.401 Y126.553 E4.41411
G1 X213.685 Y126.336 E4.42438
G1 X229.585 Y126.336 E4.88188
G1 X229.585 Y219.664 E7.56723
G1 X213.685 Y219.664 E8.02471
G1 X213.385 Y219.433 E8.03560
G1 X212.857 Y218.956 E8.05609
G1 X212.372 Y218.436 E8.07654
G1 X211.934 Y217.877 E8.09698
G1 X211.652 Y217.448 E8.11174
G1 X211.544 Y217.283 E8.11742
G1 X211.207 Y216.658 E8.13786
G1 X210.923 Y216.006 E8.15831
G1 X210.696 Y215.333 E8.17875
G1 X210.527 Y214.643 E8.19919
G1 X210.417 Y213.941 E8.21963
G1 X210.372 Y213.296 E8.23825
G1 X210.999 Y215.013 F9600.000
G1 X215.280 Y219.293 E8.41243 F3300.000
G1 X216.046 Y219.293 E8.43448
G1 X210.811 Y214.058 E8.64751
G1 X210.738 Y213.219 E8.67173
G1 X216.812 Y219.293 E8.91889
G1 X217.578 Y219.293 E8.94093
G1 X210.756 Y212.471 E9.21856
G1 X210.832 Y211.781 E9.23852
G1 X218.344 Y219.293 E9.54420
G1 X219.110 Y219.293 E9.56624
G1 X210.957 Y211.140 E9.89800
G1 X211.123 Y210.540 E9.91591
G1 X219.876 Y219.293 E10.27207
G1 X220.642 Y219.293 E10.29411
G1 X211.331 Y209.981 E10.67302
G1 X211.572 Y209.456 E10.68965
G1 X221.408 Y219.293 E11.08992
G1 X222.174 Y219.293 E11.11196
G1 X211.817 Y208.936 E11.53340
G1 X212.063 Y208.416 E11.54996
G1 X222.940 Y219.293 E11.99256
G1 X223.706 Y219.293 E12.01460
G1 X212.309 Y207.896 E12.47837
G1 X212.555 Y207.376 E12.49492
G1 X224.473 Y219.293 E12.97985
G1 X225.239 Y219.293 E13.00189
G1 X212.801 Y206.856 E13.50798
G1 X213.047 Y206.336 E13.52454
G1 X226.005 Y219.293 E14.05179
G1 X226.771 Y219.293 E14.07383
G1 X213.293 Y205.816 E14.62225
G1 X213.539 Y205.296 E14.63881
G1 X227.537 Y219.293 E15.20839
G1 X228.303 Y219.293 E15.23043
G1 X213.763 Y204.753 E15.82208
G1 X213.973 Y204.198 E15.83918
G1 X229.069 Y219.293 E16.45344
G1 X229.214 Y218.672 E16.47180
G1 X214.183 Y203.642 E17.08340
G1 X214.394 Y203.086 E17.10050
G1 X229.214 Y217.906 E17.70355
G1 X229.214 Y217.140 E17.72559
G1 X214.604 Y202.530 E18.32008
G1 X214.814 Y201.974 E18.33718
G1 X229.214 Y216.374 E18.92312
G1 X229.214 Y215.608 E18.94516
G1 X215.024 Y201.419 E19.52254
G1 X215.235 Y200.863 E19.53964
G1 X229.214 Y214.842 E20.10846
G1 X229.214 Y214.076 E20.13050
G1 X215.414 Y200.276 E20.69204
G1 X215.586 Y199.682 E20.70984
G1 X229.214 Y213.310 E21.26439
G1 X229.214 Y212.544 E21.28643
G1 X215.757 Y199.087 E21.83399
G1 X215.929 Y198.493 E21.85179
G1 X229.214 Y211.778 E22.39237
G1 X229.214 Y211.012 E22.41441
G1 X216.101 Y197.899 E22.94799
G1 X216.272 Y197.304 E22.96579
G1 X229.214 Y210.246 E23.49239
G1 X229.214 Y209.479 E23.51443
G1 X216.444 Y196.710 E24.03404
G1 X216.603 Y196.103 E24.05210
G1 X229.214 Y208.713 E24.56524
G1 X229.214 Y207.947 E24.58728
G1 X216.733 Y195.466 E25.09515
G1 X216.862 Y194.830 E25.11383
G1 X229.214 Y207.181 E25.61643
G1 X229.214 Y206.415 E25.63847
G1 X216.992 Y194.194 E26.13579
G1 X217.122 Y193.557 E26.15448
G1 X229.214 Y205.649 E26.64652
G1 X229.214 Y204.883 E26.66856
G1 X217.251 Y192.921 E27.15533
G1 X217.381 Y192.284 E27.17402
G1 X229.214 Y204.117 E27.65551
G1 X229.214 Y203.351 E27.67755
G1 X217.503 Y191.641 E28.15407
G1 X217.586 Y190.957 E28.17387
G1 X229.214 Y202.585 E28.64702
G1 X229.214 Y201.819 E28.66907
G1 X217.669 Y190.274 E29.13885
G1 X217.751 Y189.591 E29.15865
G1 X229.214 Y201.053 E29.62506
G1 X229.214 Y200.287 E29.64711
G1 X217.834 Y188.908 E30.11015
G1 X217.917 Y188.224 E30.12995
G1 X229.214 Y199.521 E30.58963
G1 X229.214 Y198.755 E30.61167
G1 X218.000 Y187.541 E31.06798
G1 X218.061 Y186.836 E31.08835
G1 X229.214 Y197.989 E31.54218
G1 X229.214 Y197.223 E31.56422
G1 X218.090 Y186.099 E32.01684
G1 X218.120 Y185.363 E32.03805
G1 X229.214 Y196.457 E32.48947
G1 X229.214 Y195.691 E32.51151
G1 X218.150 Y184.627 E32.96173
G1 X218.179 Y183.890 E32.98293
G1 X229.214 Y194.925 E33.43194
G1 X229.214 Y194.159 E33.45399
G1 X218.209 Y183.154 E33.90179
G1 X218.234 Y182.413 E33.92312
G1 X229.214 Y193.393 E34.36989
G1 X229.214 Y192.627 E34.39193
G1 X218.234 Y181.647 E34.83871
G1 X218.234 Y180.881 E34.86075
G1 X229.214 Y191.861 E35.30753
G1 X229.214 Y191.094 E35.32957
G1 X218.234 Y180.115 E35.77634
G1 X218.234 Y179.349 E35.79838
G1 X229.214 Y190.328 E36.24516
G1 X229.214 Y189.562 E36.26720
G1 X218.234 Y178.583 E36.71398
G1 X218.234 Y177.817 E36.73602
G1 X229.214 Y188.796 E37.18279
G1 X229.214 Y188.030 E37.20484
G1 X218.234 Y177.051 E37.65161
G1 X218.234 Y176.285 E37.67365
G1 X229.214 Y187.264 E38.12043
G1 X229.214 Y186.498 E38.14247
G1 X218.234 Y175.519 E38.58924
G1 X218.234 Y174.753 E38.61129
G1 X229.214 Y185.732 E39.05806
G1 X229.214 Y184.966 E39.08010
G1 X218.234 Y173.987 E39.52688
G1 X218.234 Y173.220 E39.54892
G1 X229.214 Y184.200 E39.99570
G1 X229.214 Y183.434 E40.01774
G1 X218.234 Y172.454 E40.46451
G1 X218.234 Y171.688 E40.48655
G1 X229.214 Y182.668 E40.93333
G1 X229.214 Y181.902 E40.95537
G1 X218.234 Y170.922 E41.40215
G1 X218.234 Y170.156 E41.42419
G1 X229.214 Y181.136 E41.87096
G1 X229.214 Y180.370 E41.89300
G1 X218.234 Y169.390 E42.33978
G1 X218.234 Y168.624 E42.36182
G1 X229.214 Y179.604 E42.80860
G1 X229.214 Y178.838 E42.83064
G1 X218.234 Y167.858 E43.27741
G1 X218.234 Y167.092 E43.29946
G1 X229.214 Y178.072 E43.74623
G1 X229.214 Y177.306 E43.76827
G1 X218.234 Y166.326 E44.21505
G1 X218.234 Y165.560 E44.23709
G1 X229.214 Y176.540 E44.68387
G1 X229.214 Y175.774 E44.70591
G1 X218.234 Y164.794 E45.15268
G1 X218.234 Y164.028 E45.17472
G1 X229.214 Y175.008 E45.62150
G1 X229.214 Y174.242 E45.64354
G1 X218.234 Y163.262 E46.09032
G1 X218.234 Y162.496 E46.11236
G1 X229.214 Y173.475 E46.55913
G1 X229.214 Y172.709 E46.58117
G1 X218.234 Y161.730 E47.02795
G1 X218.234 Y160.964 E47.04999
G1 X229.214 Y171.943 E47.49677
G1 X229.214 Y171.177 E47.51881
G1 X218.234 Y160.198 E47.96558
G1 X218.234 Y159.432 E47.98763
G1 X229.214 Y170.411 E48.43440
G1 X229.214 Y169.645 E48.45644
G1 X218.234 Y158.666 E48.90322
G1 X218.234 Y157.900 E48.92526
G1 X229.214 Y168.879 E49.37203
G1 X229.214 Y168.113 E49.39408
G1 X218.234 Y157.134 E49.84085
G1 X218.234 Y156.368 E49.86289
G1 X229.214 Y167.347 E50.30967
G1 X229.214 Y166.581 E50.33171
G1 X218.234 Y155.602 E50.77849
G1 X218.234 Y154.835 E50.80053
G1 X229.214 Y165.815 E51.24730
G1 X229.214 Y165.049 E51.26934
G1 X218.234 Y154.069 E51.71612
G1 X218.234 Y153.303 E51.73816
G1 X229.214 Y164.283 E52.18494
G1 X229.214 Y163.517 E52.20698
G1 X218.234 Y152.537 E52.65375
G1 X218.234 Y151.771 E52.67579
G1 X229.214 Y162.751 E53.12257
G1 X229.214 Y161.985 E53.14461
G1 X218.234 Y151.005 E53.59139
G1 X218.224 Y150.229 E53.61372
G1 X229.214 Y161.219 E54.06090
G1 X229.214 Y160.453 E54.08294
G1 X218.192 Y149.431 E54.53144
G1 X218.107 Y148.581 E54.55603
G1 X229.214 Y159.687 E55.00795
G1 X229.214 Y158.921 E55.02999
G1 X217.982 Y147.689 E55.48704
G1 X217.784 Y146.725 E55.51535
G1 X229.214 Y158.155 E55.98044
G1 X229.214 Y157.389 E56.00248
G1 X217.483 Y145.658 E56.47981
G1 X217.056 Y144.465 F9600.000
G1 X229.214 Y156.623 E56.97454 F3300.000
G1 X229.214 Y155.856 E56.99658
G1 X216.418 Y143.061 E57.51726
G1 F1500.000 E55.71726
G92 E0
G1 X215.178 Y141.055 F9600.000
G1 E1.80000 F1500.000
G1 X229.214 Y155.090 E2.37114 F3300.000
G1 X229.214 Y154.324 E2.39318
G1 X211.722 Y136.833 E3.10495
G1 X211.133 Y135.478 F9600.000
G1 X229.214 Y153.558 E3.84068 F3300.000
G1 X229.214 Y152.792 E3.86272
G1 X210.876 Y134.454 E4.60892
G1 X210.761 Y133.574 E4.63446
G1 X229.214 Y152.026 E5.38531
G1 X229.214 Y151.260 E5.40735
G1 X210.741 Y132.787 E6.15905
G1 X210.790 Y132.071 E6.17971
G1 X229.214 Y150.494 E6.92938
G1 X229.214 Y149.728 E6.95142
G1 X210.896 Y131.411 E7.69678
G1 X211.048 Y130.796 E7.71499
G1 X229.214 Y148.962 E8.45418
G1 X229.214 Y148.196 E8.47622
G1 X211.239 Y130.221 E9.20764
G1 X211.464 Y129.681 E9.22449
G1 X229.214 Y147.430 E9.94673
G1 X229.214 Y146.664 E9.96877
G1 X211.721 Y129.171 E10.68059
G1 X212.005 Y128.690 E10.69668
G1 X229.214 Y145.898 E11.39691
G1 X229.214 Y145.132 E11.41896
G1 X212.317 Y128.235 E12.10652
G1 X212.655 Y127.807 E12.12222
G1 X229.214 Y144.366 E12.79602
G1 X229.214 Y143.600 E12.81806
G1 X213.034 Y127.421 E13.47642
G1 X213.418 Y127.038 E13.49200
G1 X229.214 Y142.834 E14.13477
G1 X229.214 Y142.068 E14.15681
G1 X213.853 Y126.707 E14.78187
G1 X214.619 Y126.707 E14.80391
G1 X229.214 Y141.302 E15.39780
G1 X229.214 Y140.536 E15.41984
G1 X215.385 Y126.707 E15.98255
G1 X216.151 Y126.707 E16.00459
G1 X229.214 Y139.770 E16.53614
G1 X229.214 Y139.004 E16.55818
G1 X216.917 Y126.707 E17.05855
G1 X217.683 Y126.707 E17.08059
G1 X229.214 Y138.237 E17.54979
G1 X229.214 Y137.471 E17.57183
G1 X218.449 Y126.707 E18.00986
G1 X219.215 Y126.707 E18.03190
G1 X229.214 Y136.705 E18.43876
G1 X229.214 Y135.939 E18.46080
G1 X219.981 Y126.707 E18.83648
G1 X220.747 Y126.707 E18.85852
G1 X229.214 Y135.173 E19.20304
G1 X229.214 Y134.407 E19.22508
G1 X221.513 Y126.707 E19.53842
G1 X222.279 Y126.707 E19.56046
G1 X229.214 Y133.641 E19.84263
G1 X229.214 Y132.875 E19.86467
G1 X223.045 Y126.707 E20.11567
G1 X223.811 Y126.707 E20.13772
G1 X229.214 Y132.109 E20.35754
G1 X229.214 Y131.343 E20.37958
G1 X224.577 Y126.707 E20.56824
G1 X225.343 Y126.707 E20.59028
G1 X229.214 Y130.577 E20.74777
G1 X229.214 Y129.811 E20.76981
G1 X226.109 Y126.707 E20.89612
G1 X226.876 Y126.707 E20.91816
G1 X229.214 Y129.045 E21.01331
G1 X229.214 Y128.279 E21.03535
G1 X227.642 Y126.707 E21.09932
G1 X228.408 Y126.707 E21.12136
G1 X229.214 Y127.513 E21.15416
G1 X229.214 Y126.747 E21.17620
G1 X229.174 Y126.707 E21.17783
G1 F1500.000 E19.37783
G92 E0
G1 X229.399 Y146.982 F9600.000
G1 X211.405 Y216.184 F9600.000
G1 E1.80000 F1500.000
G1 X214.514 Y219.293 E1.92650 F3300.000
G1 X213.414 Y218.960 E1.95956
G1 X212.728 Y218.273 E1.98752
M204 S1800
G1 F1500.000 E0.18752
G92 E0
G1 X184.139 Y213.724 F9600.000
G1 E1.80000 F1500.000
G1 X184.112 Y214.064 E1.80981 F1950.000
G1 X183.991 Y214.806 E1.83145
G1 X183.807 Y215.535 E1.85308
G1 X183.563 Y216.246 E1.87472
G1 X183.328 Y216.779 E1.89147
G1 X182.899 Y217.594 E1.91797
G1 X182.484 Y218.221 E1.93960
G1 X182.018 Y218.810 E1.96124
G1 X181.503 Y219.359 E1.98287
G1 X180.944 Y219.862 E2.00453
G1 X180.498 Y220.203 E2.02067
G1 X163.876 Y220.203 E2.49894
G1 X163.876 Y125.797 E5.21533
G1 X180.498 Y125.797 E5.69360
G1 X180.961 Y126.152 E5.71038
G1 X181.522 Y126.660 E5.73216
G1 X182.038 Y127.213 E5.75393
G1 X182.505 Y127.808 E5.77569
G1 X182.919 Y128.441 E5.79745
G1 X183.279 Y129.106 E5.81921
G1 X183.580 Y129.799 E5.84097
G1 X183.822 Y130.516 E5.86274
G1 X184.002 Y131.251 E5.88450
G1 X184.119 Y131.998 E5.90626
G1 X184.172 Y132.752 E5.92802
G1 X184.165 Y133.261 E5.94266
G1 X184.161 Y133.509 E5.94978
G1 X184.086 Y134.261 E5.97155
G1 X183.947 Y135.005 E5.99331
G1 X183.746 Y135.734 E6.01507
G1 X183.483 Y136.443 E6.03683
G1 X181.206 Y141.257 E6.19007
