; generated by Slic3r 1.1.4 on 2014-11-19 at 11:27:23

; perimeters extrusion width = 0.50mm
; infill extrusion width = 0.65mm
; solid infill extrusion width = 0.55mm
; top infill extrusion width = 0.43mm

G21 ; set units to millimeters
M107

M301 P34 I4 D113     ; set PID nozzle
M304 P162 I17 D378 ; set PID Bed

;M104 S230                 ; set extruder temp for budaschnozzle
M104 S250                 ; set extruder temp for hex_hot_end
M140 S110                 ; set bed temp for PEI (reminder ~G1 Z2 ~ M140 S(@-10 degree change) ;if -m is present in file name)

G28                            ; home
G1 Z5 F300                ; move bed down 5mm
M84                            ; disable steppers
G4 S300                     ; wait 5 mins to preheat

G28                            ; home

G90 ; use absolute coordinates
G92 E0
M82 ; use absolute distances for extrusion
M204 S1800
G1 F1500.000 E-1.80000
G92 E0
G1 Z0.350 F9600.000
G1 X159.058 Y53.484 F9600.000
G1 E1.80000 F1500.000
G1 X160.789 Y52.133 E1.86319 F1800.000
G1 X163.601 Y51.443 E1.94650
G1 X230.399 Y51.443 E3.86849
G1 X232.559 Y51.840 E3.93168
G1 X234.437 Y52.978 E3.99486
G1 X235.788 Y54.710 E4.05805
G1 X236.477 Y57.522 E4.14136
G1 X236.477 Y152.478 E6.87358
G1 X236.081 Y154.638 E6.93676
G1 X234.942 Y156.516 E6.99995
G1 X233.211 Y157.867 E7.06314
G1 X230.399 Y158.557 E7.14645
G1 X163.601 Y158.557 E9.06844
G1 X161.441 Y158.160 E9.13163
G1 X159.563 Y157.022 E9.19482
G1 X158.212 Y155.290 E9.25801
G1 X157.523 Y152.478 E9.34132
G1 X157.523 Y57.522 E12.07353
G1 X157.919 Y55.362 E12.13672
G1 X159.019 Y53.548 E12.19775
G1 X159.591 Y53.701 F9600.000
G1 X161.297 Y52.484 E12.25804 F1800.000
G1 X163.601 Y51.982 E12.32589
G1 X230.399 Y51.982 E14.24788
G1 X232.457 Y52.379 E14.30818
G1 X234.220 Y53.511 E14.36847
G1 X235.436 Y55.218 E14.42877
G1 X235.938 Y57.522 E14.49662
G1 X235.938 Y152.478 E17.22883
G1 X235.542 Y154.536 E17.28913
G1 X234.409 Y156.299 E17.34943
G1 X232.703 Y157.516 E17.40972
G1 X230.399 Y158.018 E17.47757
G1 X163.601 Y158.018 E19.39956
G1 X161.543 Y157.621 E19.45985
G1 X159.780 Y156.489 E19.52015
G1 X158.564 Y154.782 E19.58045
G1 X158.062 Y152.478 E19.64830
G1 X158.062 Y57.522 E22.38051
G1 X158.458 Y55.464 E22.44081
G1 X159.550 Y53.764 E22.49894
G1 F1500.000 E20.69894
G92 E0
G1 X211.375 Y139.740 F9600.000
G1 E1.80000 F1500.000
G1 X212.794 Y136.743 E1.89543 F1950.000
G1 X214.411 Y132.469 E2.02690
G1 X215.679 Y128.079 E2.15838
G1 X216.591 Y123.602 E2.28985
G1 X217.141 Y119.066 E2.42132
G1 X217.324 Y114.506 E2.55264
G1 X217.324 Y82.494 E3.47370
G1 X217.274 Y81.265 E3.50910
G1 X217.124 Y80.038 E3.54467
G1 X216.876 Y78.828 E3.58023
G1 X216.530 Y77.641 E3.61579
G1 X216.090 Y76.486 E3.65135
G1 X215.557 Y75.371 E3.68692
G1 X214.936 Y74.302 E3.72248
G1 X214.231 Y73.287 E3.75804
G1 X213.446 Y72.333 E3.79360
G1 X212.064 Y70.904 E3.85080
G1 X211.590 Y70.320 E3.87243
G1 X211.166 Y69.699 E3.89407
G1 X210.796 Y69.044 E3.91570
G1 X210.483 Y68.361 E3.93733
G1 X210.229 Y67.653 E3.95897
G1 X210.035 Y66.927 E3.98060
G1 X209.904 Y66.187 E4.00223
G1 X209.835 Y65.438 E4.02387
G1 X209.834 Y64.627 E4.04721
G1 X209.888 Y63.936 E4.06713
G1 X210.009 Y63.194 E4.08877
G1 X210.193 Y62.465 E4.11040
G1 X210.437 Y61.754 E4.13203
G1 X210.741 Y61.066 E4.15367
G1 X211.101 Y60.407 E4.17530
G1 X211.430 Y59.909 E4.19247
G1 X211.982 Y59.190 E4.21855
G1 X212.497 Y58.641 E4.24019
G1 X213.056 Y58.138 E4.26184
G1 X213.502 Y57.797 E4.27798
G1 X230.124 Y57.797 E4.75626
G1 X230.124 Y152.203 E7.47265
G1 X213.502 Y152.203 E7.95092
G1 X213.039 Y151.848 E7.96770
G1 X212.478 Y151.340 E7.98948
G1 X211.962 Y150.787 E8.01124
G1 X211.495 Y150.192 E8.03300
G1 X211.081 Y149.559 E8.05477
G1 X210.721 Y148.894 E8.07653
G1 X210.419 Y148.200 E8.09829
G1 X210.178 Y147.484 E8.12005
G1 X209.998 Y146.749 E8.14181
G1 X209.881 Y146.002 E8.16358
G1 X209.828 Y145.247 E8.18534
G1 X209.835 Y144.739 E8.19998
G1 X209.839 Y144.491 E8.20710
G1 X209.914 Y143.739 E8.22886
G1 X210.053 Y142.995 E8.25063
G1 X210.254 Y142.266 E8.27239
G1 X210.517 Y141.557 E8.29415
G1 X211.343 Y139.808 E8.34980
G1 X211.873 Y139.699 F9600.000
G1 F1500.000 E6.54980
G92 E0
G1 X210.367 Y145.222 F9600.000
G1 E1.80000 F1500.000
G1 X210.378 Y144.522 E1.82013 F2700.000
G1 X210.448 Y143.815 E1.84058
G1 X210.579 Y143.117 E1.86102
G1 X210.768 Y142.432 E1.88146
G1 X211.015 Y141.766 E1.90190
G1 X213.290 Y136.954 E2.05507
G1 X214.923 Y132.639 E2.18779
G1 X216.203 Y128.208 E2.32051
G1 X217.124 Y123.688 E2.45323
G1 X217.678 Y119.109 E2.58595
G1 X217.863 Y114.516 E2.71820
G1 X217.863 Y82.484 E3.63989
G1 X217.812 Y81.221 E3.67624
G1 X217.657 Y79.951 E3.71305
G1 X217.400 Y78.698 E3.74987
G1 X217.042 Y77.469 E3.78669
G1 X216.586 Y76.273 E3.82351
G1 X216.035 Y75.119 E3.86033
G1 X215.392 Y74.012 E3.89715
G1 X214.661 Y72.961 E3.93397
G1 X213.848 Y71.973 E3.97079
G1 X212.468 Y70.546 E4.02793
G1 X212.022 Y69.998 E4.04825
G1 X211.624 Y69.414 E4.06858
G1 X211.277 Y68.799 E4.08890
G1 X210.983 Y68.157 E4.10922
G1 X210.744 Y67.492 E4.12955
G1 X210.562 Y66.810 E4.14986
G1 X210.439 Y66.115 E4.17018
G1 X210.391 Y65.600 E4.18505
G1 X210.374 Y65.411 E4.19051
G1 X210.369 Y64.705 E4.21083
G1 X210.424 Y64.001 E4.23115
G1 X210.538 Y63.304 E4.25147
G1 X210.710 Y62.619 E4.27179
G1 X210.940 Y61.951 E4.29211
G1 X211.225 Y61.305 E4.31244
G1 X211.563 Y60.685 E4.33276
G1 X211.953 Y60.096 E4.35308
G1 X212.391 Y59.542 E4.37340
G1 X212.875 Y59.027 E4.39372
G1 X213.401 Y58.553 E4.41411
G1 X213.685 Y58.336 E4.42438
G1 X229.585 Y58.336 E4.88188
G1 X229.585 Y151.664 E7.56723
G1 X213.685 Y151.664 E8.02471
G1 X213.385 Y151.433 E8.03560
G1 X212.857 Y150.956 E8.05609
G1 X212.372 Y150.436 E8.07654
G1 X211.934 Y149.877 E8.09698
G1 X211.652 Y149.448 E8.11174
G1 X211.544 Y149.283 E8.11742
G1 X211.207 Y148.658 E8.13786
G1 X210.923 Y148.006 E8.15831
G1 X210.696 Y147.333 E8.17875
G1 X210.527 Y146.643 E8.19919
G1 X210.417 Y145.941 E8.21963
G1 X210.372 Y145.296 E8.23825
G1 X210.999 Y147.013 F9600.000
G1 X215.280 Y151.293 E8.41243 F3300.000
G1 X216.046 Y151.293 E8.43448
G1 X210.811 Y146.058 E8.64751
G1 X210.738 Y145.219 E8.67173
G1 X216.812 Y151.293 E8.91889
G1 X217.578 Y151.293 E8.94093
G1 X210.756 Y144.471 E9.21856
G1 X210.832 Y143.781 E9.23852
G1 X218.344 Y151.293 E9.54420
G1 X219.110 Y151.293 E9.56624
G1 X210.957 Y143.140 E9.89800
G1 X211.123 Y142.540 E9.91591
G1 X219.876 Y151.293 E10.27207
G1 X220.642 Y151.293 E10.29411
G1 X211.331 Y141.981 E10.67302
G1 X211.572 Y141.456 E10.68965
G1 X221.408 Y151.293 E11.08992
G1 X222.174 Y151.293 E11.11196
G1 X211.817 Y140.936 E11.53340
G1 X212.063 Y140.416 E11.54996
G1 X222.940 Y151.293 E11.99256
G1 X223.706 Y151.293 E12.01460
G1 X212.309 Y139.896 E12.47837
G1 X212.555 Y139.376 E12.49492
G1 X224.473 Y151.293 E12.97985
G1 X225.239 Y151.293 E13.00189
G1 X212.801 Y138.856 E13.50798
G1 X213.047 Y138.336 E13.52454
G1 X226.005 Y151.293 E14.05179
G1 X226.771 Y151.293 E14.07383
G1 X213.293 Y137.816 E14.62225
G1 X213.539 Y137.296 E14.63881
G1 X227.537 Y151.293 E15.20839
G1 X228.303 Y151.293 E15.23043
G1 X213.763 Y136.753 E15.82208
G1 X213.973 Y136.198 E15.83918
G1 X229.069 Y151.293 E16.45344
G1 X229.214 Y150.672 E16.47180
G1 X214.183 Y135.642 E17.08340
G1 X214.394 Y135.086 E17.10050
G1 X229.214 Y149.906 E17.70355
G1 X229.214 Y149.140 E17.72559
G1 X214.604 Y134.530 E18.32008
G1 X214.814 Y133.974 E18.33718
G1 X229.214 Y148.374 E18.92312
G1 X229.214 Y147.608 E18.94516
G1 X215.024 Y133.419 E19.52254
G1 X215.235 Y132.863 E19.53964
G1 X229.214 Y146.842 E20.10846
G1 X229.214 Y146.076 E20.13050
G1 X215.414 Y132.276 E20.69204
G1 X215.586 Y131.682 E20.70984
G1 X229.214 Y145.310 E21.26439
G1 X229.214 Y144.544 E21.28643
G1 X215.757 Y131.087 E21.83399
G1 X215.929 Y130.493 E21.85179
G1 X229.214 Y143.778 E22.39237
G1 X229.214 Y143.012 E22.41441
G1 X216.101 Y129.899 E22.94799
G1 X216.272 Y129.304 E22.96579
G1 X229.214 Y142.246 E23.49239
G1 X229.214 Y141.479 E23.51443
G1 X216.444 Y128.710 E24.03404
G1 X216.603 Y128.103 E24.05210
G1 X229.214 Y140.713 E24.56524
G1 X229.214 Y139.947 E24.58728
G1 X216.733 Y127.466 E25.09515
G1 X216.862 Y126.830 E25.11383
G1 X229.214 Y139.181 E25.61643
G1 X229.214 Y138.415 E25.63847
G1 X216.992 Y126.194 E26.13579
G1 X217.122 Y125.557 E26.15448
G1 X229.214 Y137.649 E26.64652
G1 X229.214 Y136.883 E26.66856
G1 X217.251 Y124.921 E27.15533
G1 X217.381 Y124.284 E27.17402
G1 X229.214 Y136.117 E27.65551
G1 X229.214 Y135.351 E27.67755
G1 X217.503 Y123.641 E28.15407
G1 X217.586 Y122.957 E28.17387
G1 X229.214 Y134.585 E28.64702
G1 X229.214 Y133.819 E28.66907
G1 X217.669 Y122.274 E29.13885
G1 X217.751 Y121.591 E29.15865
G1 X229.214 Y133.053 E29.62506
G1 X229.214 Y132.287 E29.64711
G1 X217.834 Y120.908 E30.11015
G1 X217.917 Y120.224 E30.12995
G1 X229.214 Y131.521 E30.58963
G1 X229.214 Y130.755 E30.61167
G1 X218.000 Y119.541 E31.06798
G1 X218.061 Y118.836 E31.08835
G1 X229.214 Y129.989 E31.54218
G1 X229.214 Y129.223 E31.56422
G1 X218.090 Y118.099 E32.01684
G1 X218.120 Y117.363 E32.03805
G1 X229.214 Y128.457 E32.48947
G1 X229.214 Y127.691 E32.51151
G1 X218.150 Y116.627 E32.96173
G1 X218.179 Y115.890 E32.98293
G1 X229.214 Y126.925 E33.43194
G1 X229.214 Y126.159 E33.45399
G1 X218.209 Y115.154 E33.90179
G1 X218.234 Y114.413 E33.92312
G1 X229.214 Y125.393 E34.36989
G1 X229.214 Y124.627 E34.39193
G1 X218.234 Y113.647 E34.83871
G1 X218.234 Y112.881 E34.86075
G1 X229.214 Y123.861 E35.30753
G1 X229.214 Y123.094 E35.32957
G1 X218.234 Y112.115 E35.77634
G1 X218.234 Y111.349 E35.79838
G1 X229.214 Y122.328 E36.24516
G1 X229.214 Y121.562 E36.26720
G1 X218.234 Y110.583 E36.71398
G1 X218.234 Y109.817 E36.73602
G1 X229.214 Y120.796 E37.18279
G1 X229.214 Y120.030 E37.20484
G1 X218.234 Y109.051 E37.65161
G1 X218.234 Y108.285 E37.67365
G1 X229.214 Y119.264 E38.12043
G1 X229.214 Y118.498 E38.14247
G1 X218.234 Y107.519 E38.58924
G1 X218.234 Y106.753 E38.61129
G1 X229.214 Y117.732 E39.05806
G1 X229.214 Y116.966 E39.08010
G1 X218.234 Y105.987 E39.52688
G1 X218.234 Y105.220 E39.54892
G1 X229.214 Y116.200 E39.99570
G1 X229.214 Y115.434 E40.01774
G1 X218.234 Y104.454 E40.46451
G1 X218.234 Y103.688 E40.48655
G1 X229.214 Y114.668 E40.93333
G1 X229.214 Y113.902 E40.95537
G1 X218.234 Y102.922 E41.40215
G1 X218.234 Y102.156 E41.42419
G1 X229.214 Y113.136 E41.87096
G1 X229.214 Y112.370 E41.89300
G1 X218.234 Y101.390 E42.33978
G1 X218.234 Y100.624 E42.36182
G1 X229.214 Y111.604 E42.80860
G1 X229.214 Y110.838 E42.83064
G1 X218.234 Y99.858 E43.27741
G1 X218.234 Y99.092 E43.29946
G1 X229.214 Y110.072 E43.74623
G1 X229.214 Y109.306 E43.76827
G1 X218.234 Y98.326 E44.21505
G1 X218.234 Y97.560 E44.23709
G1 X229.214 Y108.540 E44.68387
G1 X229.214 Y107.774 E44.70591
G1 X218.234 Y96.794 E45.15268
G1 X218.234 Y96.028 E45.17472
G1 X229.214 Y107.008 E45.62150
G1 X229.214 Y106.242 E45.64354
G1 X218.234 Y95.262 E46.09032
G1 X218.234 Y94.496 E46.11236
G1 X229.214 Y105.475 E46.55913
G1 X229.214 Y104.709 E46.58117
G1 X218.234 Y93.730 E47.02795
G1 X218.234 Y92.964 E47.04999
G1 X229.214 Y103.943 E47.49677
G1 X229.214 Y103.177 E47.51881
G1 X218.234 Y92.198 E47.96558
G1 X218.234 Y91.432 E47.98763
G1 X229.214 Y102.411 E48.43440
G1 X229.214 Y101.645 E48.45644
G1 X218.234 Y90.666 E48.90322
G1 X218.234 Y89.900 E48.92526
G1 X229.214 Y100.879 E49.37203
G1 X229.214 Y100.113 E49.39408
G1 X218.234 Y89.134 E49.84085
G1 X218.234 Y88.368 E49.86289
G1 X229.214 Y99.347 E50.30967
G1 X229.214 Y98.581 E50.33171
G1 X218.234 Y87.602 E50.77849
G1 X218.234 Y86.835 E50.80053
G1 X229.214 Y97.815 E51.24730
G1 X229.214 Y97.049 E51.26934
G1 X218.234 Y86.069 E51.71612
G1 X218.234 Y85.303 E51.73816
G1 X229.214 Y96.283 E52.18494
G1 X229.214 Y95.517 E52.20698
G1 X218.234 Y84.537 E52.65375
G1 X218.234 Y83.771 E52.67579
G1 X229.214 Y94.751 E53.12257
G1 X229.214 Y93.985 E53.14461
G1 X218.234 Y83.005 E53.59139
G1 X218.224 Y82.229 E53.61372
G1 X229.214 Y93.219 E54.06090
G1 X229.214 Y92.453 E54.08294
G1 X218.192 Y81.431 E54.53144
G1 X218.107 Y80.581 E54.55603
G1 X229.214 Y91.687 E55.00795
G1 X229.214 Y90.921 E55.02999
G1 X217.982 Y79.689 E55.48704
G1 X217.784 Y78.725 E55.51535
G1 X229.214 Y90.155 E55.98044
G1 X229.214 Y89.389 E56.00248
G1 X217.483 Y77.658 E56.47981
G1 X217.056 Y76.465 F9600.000
G1 X229.214 Y88.623 E56.97454 F3300.000
G1 X229.214 Y87.856 E56.99658
G1 X216.418 Y75.061 E57.51726
G1 F1500.000 E55.71726
G92 E0
G1 X215.178 Y73.055 F9600.000
G1 E1.80000 F1500.000
G1 X229.214 Y87.090 E2.37114 F3300.000
G1 X229.214 Y86.324 E2.39318
G1 X211.722 Y68.833 E3.10495
G1 X211.133 Y67.478 F9600.000
G1 X229.214 Y85.558 E3.84068 F3300.000
G1 X229.214 Y84.792 E3.86272
G1 X210.876 Y66.454 E4.60892
G1 X210.761 Y65.574 E4.63446
G1 X229.214 Y84.026 E5.38531
G1 X229.214 Y83.260 E5.40735
G1 X210.741 Y64.787 E6.15905
G1 X210.790 Y64.071 E6.17971
G1 X229.214 Y82.494 E6.92938
G1 X229.214 Y81.728 E6.95142
G1 X210.896 Y63.411 E7.69678
G1 X211.048 Y62.796 E7.71499
G1 X229.214 Y80.962 E8.45418
G1 X229.214 Y80.196 E8.47622
G1 X211.239 Y62.221 E9.20764
G1 X211.464 Y61.681 E9.22449
G1 X229.214 Y79.430 E9.94673
G1 X229.214 Y78.664 E9.96877
G1 X211.721 Y61.171 E10.68059
G1 X212.005 Y60.690 E10.69668
G1 X229.214 Y77.898 E11.39691
G1 X229.214 Y77.132 E11.41896
G1 X212.317 Y60.235 E12.10652
G1 X212.655 Y59.807 E12.12222
G1 X229.214 Y76.366 E12.79602
G1 X229.214 Y75.600 E12.81806
G1 X213.034 Y59.421 E13.47642
G1 X213.418 Y59.038 E13.49200
G1 X229.214 Y74.834 E14.13477
G1 X229.214 Y74.068 E14.15681
G1 X213.853 Y58.707 E14.78187
G1 X214.619 Y58.707 E14.80391
G1 X229.214 Y73.302 E15.39780
G1 X229.214 Y72.536 E15.41984
G1 X215.385 Y58.707 E15.98255
G1 X216.151 Y58.707 E16.00459
G1 X229.214 Y71.770 E16.53614
G1 X229.214 Y71.004 E16.55818
G1 X216.917 Y58.707 E17.05855
G1 X217.683 Y58.707 E17.08059
G1 X229.214 Y70.237 E17.54979
G1 X229.214 Y69.471 E17.57183
G1 X218.449 Y58.707 E18.00986
G1 X219.215 Y58.707 E18.03190
G1 X229.214 Y68.705 E18.43876
G1 X229.214 Y67.939 E18.46080
G1 X219.981 Y58.707 E18.83648
G1 X220.747 Y58.707 E18.85852
G1 X229.214 Y67.173 E19.20304
G1 X229.214 Y66.407 E19.22508
G1 X221.513 Y58.707 E19.53842
G1 X222.279 Y58.707 E19.56046
G1 X229.214 Y65.641 E19.84263
G1 X229.214 Y64.875 E19.86467
G1 X223.045 Y58.707 E20.11567
G1 X223.811 Y58.707 E20.13772
G1 X229.214 Y64.109 E20.35754
G1 X229.214 Y63.343 E20.37958
G1 X224.577 Y58.707 E20.56824
G1 X225.343 Y58.707 E20.59028
G1 X229.214 Y62.577 E20.74777
G1 X229.214 Y61.811 E20.76981
G1 X226.109 Y58.707 E20.89612
G1 X226.876 Y58.707 E20.91816
G1 X229.214 Y61.045 E21.01331
G1 X229.214 Y60.279 E21.03535
G1 X227.642 Y58.707 E21.09932
G1 X228.408 Y58.707 E21.12136
G1 X229.214 Y59.513 E21.15416
G1 X229.214 Y58.747 E21.17620
G1 X229.174 Y58.707 E21.17783
G1 F1500.000 E19.37783
G92 E0
G1 X229.399 Y78.982 F9600.000
G1 X211.405 Y148.184 F9600.000
G1 E1.80000 F1500.000
G1 X214.514 Y151.293 E1.92650 F3300.000
G1 X213.414 Y150.960 E1.95956
G1 X212.728 Y150.273 E1.98752
M204 S1800
G1 F1500.000 E0.18752
G92 E0
G1 X184.139 Y145.724 F9600.000
G1 E1.80000 F1500.000
G1 X184.112 Y146.064 E1.80981 F1950.000
G1 X183.991 Y146.806 E1.83145
G1 X183.807 Y147.535 E1.85308
G1 X183.563 Y148.246 E1.87472
G1 X183.328 Y148.779 E1.89147
G1 X182.899 Y149.594 E1.91797
G1 X182.484 Y150.221 E1.93960
G1 X182.018 Y150.810 E1.96124
G1 X181.503 Y151.359 E1.98287
G1 X180.944 Y151.862 E2.00453
G1 X180.498 Y152.203 E2.02067
G1 X163.876 Y152.203 E2.49894
G1 X163.876 Y57.797 E5.21533
G1 X180.498 Y57.797 E5.69360
G1 X180.961 Y58.152 E5.71038
G1 X181.522 Y58.660 E5.73216
G1 X182.038 Y59.213 E5.75393
G1 X182.505 Y59.808 E5.77569
G1 X182.919 Y60.441 E5.79745
G1 X183.279 Y61.106 E5.81921
G1 X183.580 Y61.799 E5.84097
G1 X183.822 Y62.516 E5.86274
G1 X184.002 Y63.251 E5.88450
G1 X184.119 Y63.998 E5.90626
G1 X184.172 Y64.752 E5.92802
G1 X184.165 Y65.261 E5.94266
G1 X184.161 Y65.509 E5.94978
G1 X184.086 Y66.261 E5.97155
G1 X183.947 Y67.005 E5.99331
G1 X183.746 Y67.734 E6.01507
G1 X183.483 Y68.443 E6.03683
G1 X181.206 Y73.257 E6.19007
G1 X179.589 Y77.531 E6.32154
G1 X178.321 Y81.921 E6.45301
G1 X178.003 Y83.482 E6.49886
G1 X177.409 Y86.398 E6.58449
G1 X176.859 Y90.934 E6.71596
G1 X176.676 Y95.494 E6.84728
G1 X176.676 Y127.506 E7.76834
G1 X176.726 Y128.735 E7.80374
