; generated by Slic3r 1.1.7 on 2015-08-17 at 10:33:22

; perimeters extrusion width = 0.43mm
; infill extrusion width = 0.49mm
; solid infill extrusion width = 0.43mm
; top infill extrusion width = 0.42mm

G21 ; set units to millimeters

M301 P34 I4 D113     ; set PID nozzle
M304 P162 I17 D378 ; set PID Bed

;M104 S230                 ; set extruder temp for budaschnozzle
M104 S250                 ; set extruder temp for hex_hot_end
;M140 S100                 ; set bed temp for PET
M140 S110                 ; set bed temp for PEI (reminder ~G1 Z2 ~ M140 S(@-10 degree change) ;if -m is present in file name)

G28                            ; home
G1 Z5 F300                ; move bed down 5mm
M84                            ; disable steppers
G4 S300                     ; wait 5 mins to preheat

G28                            ; home

G90 ; use absolute coordinates
G92 E0
M82 ; use absolute distances for extrusion
M204 S2000
G1 F1200.000 E-1.20000
G92 E0
G1 Z0.350 F9600.000
G1 X129.477 Y38.467 F9600.000
G1 E1.20000 F1200.000
G1 X129.646 Y37.974 E1.21717 F1080.000
G1 X130.003 Y37.117 E1.24777
G1 X130.430 Y36.293 E1.27838
G1 X130.923 Y35.506 E1.30898
G1 X131.480 Y34.763 E1.33959
G1 X132.096 Y34.069 E1.37019
G1 X132.386 Y33.778 E1.38374
G1 X132.767 Y33.427 E1.40081
G1 X133.489 Y32.844 E1.43141
G1 X134.257 Y32.322 E1.46201
G1 X135.065 Y31.865 E1.49261
G1 X135.909 Y31.476 E1.52322
G1 X136.781 Y31.159 E1.55383
G1 X137.677 Y30.914 E1.58443
G1 X138.589 Y30.745 E1.61503
G1 X139.513 Y30.651 E1.64564
G1 X140.184 Y30.629 E1.66776
G1 X166.456 Y30.635 E2.53378
G1 X167.433 Y30.701 E2.56608
G1 X168.402 Y30.853 E2.59838
G1 X169.353 Y31.088 E2.63069
G1 X170.280 Y31.405 E2.66299
G1 X171.176 Y31.802 E2.69529
G1 X172.034 Y32.275 E2.72760
G1 X172.848 Y32.822 E2.75990
G1 X173.610 Y33.437 E2.79220
G1 X174.317 Y34.116 E2.82450
G1 X174.961 Y34.854 E2.85681
G1 X175.539 Y35.646 E2.88911
G1 X176.045 Y36.485 E2.92141
G1 X176.476 Y37.365 E2.95372
G1 X176.829 Y38.279 E2.98602
G1 X177.101 Y39.221 E3.01832
G1 X177.290 Y40.182 E3.05063
G1 X177.394 Y41.157 E3.08293
G1 X177.419 Y41.864 E3.10627
G1 X177.419 Y53.896 E3.50289
G1 X177.152 Y103.518 E5.13865
G1 X168.987 Y237.320 E9.55746
G1 X168.851 Y238.238 E9.58806
G1 X168.640 Y239.142 E9.61866
G1 X168.354 Y240.026 E9.64927
G1 X168.206 Y240.406 E9.66271
G1 X167.997 Y240.883 E9.67988
G1 X167.570 Y241.707 E9.71048
G1 X167.077 Y242.494 E9.74109
G1 X166.520 Y243.237 E9.77170
G1 X165.904 Y243.931 E9.80230
G1 X165.233 Y244.573 E9.83290
G1 X164.511 Y245.156 E9.86351
G1 X163.743 Y245.678 E9.89411
G1 X163.393 Y245.887 E9.90754
G1 X162.935 Y246.135 E9.92472
G1 X162.091 Y246.524 E9.95533
G1 X161.219 Y246.841 E9.98593
G1 X160.323 Y247.086 E10.01653
G1 X159.411 Y247.255 E10.04714
G1 X159.006 Y247.306 E10.06056
G1 X158.487 Y247.349 E10.07775
G1 X157.816 Y247.371 E10.09987
G1 X131.544 Y247.365 E10.96589
G1 X130.567 Y247.299 E10.99819
G1 X129.598 Y247.147 E11.03050
G1 X128.647 Y246.912 E11.06280
G1 X127.720 Y246.595 E11.09510
G1 X126.824 Y246.198 E11.12741
G1 X125.966 Y245.725 E11.15971
G1 X125.152 Y245.178 E11.19201
G1 X124.390 Y244.563 E11.22431
G1 X123.683 Y243.884 E11.25662
G1 X123.039 Y243.146 E11.28891
G1 X122.461 Y242.354 E11.32122
G1 X121.955 Y241.515 E11.35353
G1 X121.524 Y240.635 E11.38584
G1 X121.171 Y239.721 E11.41812
G1 X121.040 Y239.307 E11.43245
G1 X120.805 Y238.358 E11.46465
G1 X120.654 Y237.389 E11.49698
G1 X120.606 Y236.843 E11.51505
G1 X120.581 Y236.136 E11.53839
G1 X120.581 Y224.104 E11.93501
G1 X120.848 Y174.482 E13.57077
G1 X129.013 Y40.680 E17.98958
G1 X129.149 Y39.762 E18.02018
G1 X129.233 Y39.362 E18.03366
G1 X129.455 Y38.539 E18.06176
G1 X130.069 Y38.643 F9600.000
G1 X130.221 Y38.199 E18.07725 F1080.000
G1 X130.558 Y37.389 E18.10617
G1 X130.960 Y36.609 E18.13509
G1 X131.426 Y35.865 E18.16401
G1 X131.951 Y35.162 E18.19294
G1 X132.533 Y34.506 E18.22185
G1 X132.823 Y34.215 E18.23538
G1 X133.167 Y33.899 E18.25079
G1 X133.848 Y33.347 E18.27970
G1 X134.573 Y32.853 E18.30863
G1 X135.337 Y32.420 E18.33755
G1 X136.133 Y32.052 E18.36647
G1 X136.957 Y31.751 E18.39539
G1 X137.803 Y31.519 E18.42431
G1 X138.666 Y31.358 E18.45323
G1 X139.539 Y31.268 E18.48216
G1 X140.184 Y31.247 E18.50343
G1 X166.429 Y31.252 E19.36856
G1 X167.353 Y31.314 E19.39909
G1 X168.268 Y31.456 E19.42962
G1 X169.167 Y31.677 E19.46015
G1 X170.044 Y31.976 E19.49067
G1 X170.891 Y32.350 E19.52120
G1 X171.702 Y32.796 E19.55173
G1 X172.472 Y33.312 E19.58225
G1 X173.193 Y33.892 E19.61278
G1 X173.861 Y34.533 E19.64330
G1 X174.471 Y35.231 E19.67383
G1 X175.018 Y35.978 E19.70436
G1 X175.497 Y36.770 E19.73488
G1 X175.905 Y37.601 E19.76541
G1 X176.240 Y38.465 E19.79594
G1 X176.498 Y39.354 E19.82646
G1 X176.678 Y40.263 E19.85700
G1 X176.777 Y41.183 E19.88752
G1 X176.802 Y41.864 E19.90998
G1 X176.802 Y53.893 E20.30649
G1 X176.535 Y103.481 E21.94111
G1 X168.374 Y237.243 E26.35863
G1 X168.246 Y238.111 E26.38755
G1 X168.047 Y238.966 E26.41647
G1 X167.779 Y239.801 E26.44539
G1 X167.631 Y240.181 E26.45883
G1 X167.442 Y240.611 E26.47433
G1 X167.040 Y241.391 E26.50324
G1 X166.574 Y242.135 E26.53217
G1 X166.049 Y242.838 E26.56109
G1 X165.467 Y243.494 E26.59001
G1 X164.833 Y244.101 E26.61893
G1 X164.152 Y244.653 E26.64785
G1 X163.427 Y245.147 E26.67677
G1 X163.077 Y245.356 E26.69020
G1 X162.663 Y245.580 E26.70570
G1 X161.867 Y245.948 E26.73462
G1 X161.043 Y246.249 E26.76355
G1 X160.197 Y246.481 E26.79247
G1 X159.334 Y246.642 E26.82139
G1 X158.930 Y246.692 E26.83481
G1 X158.461 Y246.732 E26.85032
G1 X157.816 Y246.753 E26.87159
G1 X131.571 Y246.748 E27.73673
G1 X130.647 Y246.686 E27.76725
G1 X129.732 Y246.544 E27.79778
G1 X128.833 Y246.323 E27.82831
G1 X127.956 Y246.024 E27.85883
G1 X127.109 Y245.650 E27.88937
G1 X126.298 Y245.204 E27.91989
G1 X125.528 Y244.688 E27.95042
G1 X124.807 Y244.108 E27.98094
G1 X124.139 Y243.466 E28.01147
G1 X123.529 Y242.770 E28.04199
G1 X122.982 Y242.022 E28.07252
G1 X122.503 Y241.230 E28.10305
G1 X122.094 Y240.398 E28.13358
G1 X121.760 Y239.535 E28.16409
G1 X121.502 Y238.646 E28.19463
G1 X121.409 Y238.225 E28.20883
G1 X121.266 Y237.309 E28.23939
G1 X121.223 Y236.816 E28.25569
G1 X121.198 Y236.136 E28.27815
G1 X121.198 Y224.107 E28.67466
G1 X121.465 Y174.519 E30.30928
G1 X129.626 Y40.757 E34.72680
G1 X129.754 Y39.889 E34.75572
G1 X129.838 Y39.489 E34.76920
G1 X130.047 Y38.715 E34.79561
G1 F1200.000 E33.59561
G92 E0
G1 X166.599 Y48.836 F9600.000
G1 E1.20000 F1200.000
G1 X166.414 Y49.127 E1.21135 F1710.000
G1 X166.205 Y49.399 E1.22268
G1 X165.973 Y49.653 E1.23401
G1 X165.683 Y49.913 E1.24685
G1 X165.446 Y50.095 E1.25668
G1 X165.155 Y50.280 E1.26804
G1 X164.850 Y50.439 E1.27938
G1 X164.533 Y50.570 E1.29072
G1 X164.205 Y50.674 E1.30205
G1 X163.869 Y50.748 E1.31339
G1 X163.527 Y50.793 E1.32474
G1 X163.184 Y50.808 E1.33608
G1 X162.840 Y50.793 E1.34743
G1 X162.499 Y50.748 E1.35876
G1 X162.163 Y50.674 E1.37010
G1 X161.835 Y50.570 E1.38144
G1 X161.517 Y50.439 E1.39277
G1 X161.212 Y50.280 E1.40413
G1 X160.921 Y50.095 E1.41548
G1 X160.649 Y49.885 E1.42681
G1 X160.364 Y49.619 E1.43965
G1 X160.163 Y49.400 E1.44947
G1 X159.953 Y49.127 E1.46082
G1 X159.768 Y48.836 E1.47218
G1 X159.610 Y48.531 E1.48351
G1 X159.478 Y48.213 E1.49486
G1 X159.374 Y47.885 E1.50619
G1 X159.300 Y47.549 E1.51753
G1 X159.255 Y47.208 E1.52887
G1 X159.240 Y46.864 E1.54022
G1 X159.255 Y46.520 E1.55156
G1 X159.300 Y46.179 E1.56290
G1 X159.374 Y45.844 E1.57423
G1 X159.478 Y45.516 E1.58557
G1 X159.631 Y45.157 E1.59841
G1 X159.769 Y44.892 E1.60826
G1 X159.953 Y44.602 E1.61961
G1 X160.163 Y44.329 E1.63094
G1 X160.395 Y44.076 E1.64227
G1 X160.649 Y43.844 E1.65361
G1 X160.922 Y43.634 E1.66495
G1 X161.212 Y43.449 E1.67631
G1 X161.517 Y43.290 E1.68764
G1 X161.835 Y43.158 E1.69899
G1 X162.163 Y43.055 E1.71032
G1 X162.499 Y42.981 E1.72166
G1 X162.840 Y42.936 E1.73301
G1 X163.184 Y42.921 E1.74435
G1 X163.528 Y42.936 E1.75570
G1 X163.869 Y42.981 E1.76703
G1 X164.248 Y43.069 E1.77987
G1 X164.533 Y43.158 E1.78970
G1 X164.850 Y43.290 E1.80103
G1 X165.156 Y43.449 E1.81239
G1 X165.446 Y43.634 E1.82374
G1 X165.719 Y43.843 E1.83508
G1 X166.003 Y44.109 E1.84791
G1 X166.205 Y44.329 E1.85773
G1 X166.414 Y44.602 E1.86908
G1 X166.599 Y44.893 E1.88044
G1 X166.758 Y45.198 E1.89177
G1 X166.890 Y45.516 E1.90311
G1 X167.003 Y45.888 E1.91595
G1 X167.068 Y46.179 E1.92578
G1 X167.112 Y46.521 E1.93713
G1 X167.127 Y46.864 E1.94847
G1 X167.112 Y47.208 E1.95981
G1 X167.068 Y47.549 E1.97115
G1 X166.993 Y47.885 E1.98248
G1 X166.890 Y48.213 E1.99383
G1 X166.758 Y48.531 E2.00517
G1 X166.634 Y48.770 E2.01405
G1 X166.064 Y48.527 F9600.000
G1 X165.908 Y48.772 E2.02361 F1170.000
G1 X165.731 Y49.002 E2.03318
G1 X165.535 Y49.216 E2.04273
G1 X165.306 Y49.423 E2.05291
G1 X164.846 Y49.744 E2.07141
G1 X164.589 Y49.878 E2.08097
G1 X164.321 Y49.989 E2.09053
G1 X164.044 Y50.076 E2.10009
G1 X163.761 Y50.139 E2.10965
G1 X163.474 Y50.177 E2.11922
G1 X163.184 Y50.190 E2.12878
G1 X162.894 Y50.177 E2.13834
G1 X162.606 Y50.139 E2.14790
G1 X162.305 Y50.071 E2.15808
G1 X161.779 Y49.878 E2.17657
G1 X161.521 Y49.744 E2.18614
G1 X161.276 Y49.588 E2.19570
G1 X161.046 Y49.412 E2.20526
G1 X160.820 Y49.202 E2.21544
G1 X160.460 Y48.772 E2.23393
G1 X160.304 Y48.527 E2.24350
G1 X160.170 Y48.270 E2.25306
G1 X160.059 Y48.002 E2.26262
G1 X159.972 Y47.725 E2.27218
G1 X159.909 Y47.442 E2.28174
G1 X159.871 Y47.154 E2.29131
G1 X159.858 Y46.864 E2.30087
G1 X159.871 Y46.575 E2.31043
G1 X159.909 Y46.287 E2.31999
G1 X159.972 Y46.004 E2.32955
G1 X160.059 Y45.727 E2.33912
G1 X160.179 Y45.443 E2.34929
G1 X160.460 Y44.957 E2.36779
G1 X160.636 Y44.727 E2.37735
G1 X160.832 Y44.513 E2.38691
G1 X161.046 Y44.317 E2.39647
G1 X161.276 Y44.140 E2.40604
G1 X161.521 Y43.984 E2.41560
G1 X161.778 Y43.851 E2.42516
G1 X162.046 Y43.740 E2.43473
G1 X162.323 Y43.652 E2.44429
G1 X162.606 Y43.590 E2.45385
G1 X162.894 Y43.552 E2.46341
G1 X163.184 Y43.539 E2.47298
G1 X163.474 Y43.552 E2.48254
G1 X163.761 Y43.590 E2.49210
G1 X164.062 Y43.658 E2.50228
G1 X164.589 Y43.851 E2.52077
G1 X164.846 Y43.985 E2.53033
G1 X165.091 Y44.141 E2.53990
G1 X165.321 Y44.317 E2.54946
G1 X165.548 Y44.527 E2.55964
G1 X165.908 Y44.957 E2.57812
G1 X166.064 Y45.202 E2.58769
G1 X166.198 Y45.459 E2.59725
G1 X166.309 Y45.727 E2.60682
G1 X166.400 Y46.022 E2.61699
G1 X166.496 Y46.575 E2.63548
G1 X166.509 Y46.864 E2.64505
G1 X166.496 Y47.154 E2.65461
G1 X166.459 Y47.442 E2.66417
G1 X166.396 Y47.725 E2.67373
G1 X166.309 Y48.002 E2.68329
G1 X166.098 Y48.461 E2.69994
G1 X166.209 Y48.778 F9600.000
G1 F1200.000 E1.49994
G92 E0
G1 X149.112 Y47.208 F9600.000
G1 E1.20000 F1200.000
G1 X149.068 Y47.549 E1.21134 F1710.000
G1 X148.993 Y47.885 E1.22267
G1 X148.890 Y48.213 E1.23402
G1 X148.737 Y48.571 E1.24685
G1 X148.599 Y48.836 E1.25670
G1 X148.414 Y49.127 E1.26805
G1 X148.205 Y49.400 E1.27939
G1 X147.973 Y49.653 E1.29071
G1 X147.719 Y49.885 E1.30205
G1 X147.446 Y50.095 E1.31339
G1 X147.155 Y50.280 E1.32475
G1 X146.850 Y50.439 E1.33609
G1 X146.533 Y50.570 E1.34743
G1 X146.160 Y50.684 E1.36027
G1 X145.869 Y50.748 E1.37010
G1 X145.528 Y50.793 E1.38144
G1 X145.184 Y50.808 E1.39279
G1 X144.840 Y50.793 E1.40413
G1 X144.499 Y50.748 E1.41547
G1 X144.163 Y50.674 E1.42680
G1 X143.835 Y50.570 E1.43815
G1 X143.477 Y50.418 E1.45098
G1 X143.212 Y50.280 E1.46083
G1 X142.921 Y50.095 E1.47218
G1 X142.649 Y49.885 E1.48351
G1 X142.395 Y49.653 E1.49484
G1 X142.163 Y49.400 E1.50618
G1 X141.953 Y49.127 E1.51752
G1 X141.768 Y48.836 E1.52888
G1 X141.610 Y48.531 E1.54022
G1 X141.478 Y48.213 E1.55156
G1 X141.374 Y47.885 E1.56289
G1 X141.300 Y47.549 E1.57423
G1 X141.255 Y47.208 E1.58558
G1 X141.240 Y46.864 E1.59692
G1 X141.255 Y46.520 E1.60826
G1 X141.300 Y46.179 E1.61960
G1 X141.374 Y45.844 E1.63094
G1 X141.478 Y45.516 E1.64228
G1 X141.609 Y45.198 E1.65361
G1 X141.768 Y44.892 E1.66497
G1 X141.954 Y44.602 E1.67632
G1 X142.163 Y44.329 E1.68765
G1 X142.395 Y44.076 E1.69898
G1 X142.649 Y43.844 E1.71031
G1 X142.922 Y43.634 E1.72166
G1 X143.212 Y43.449 E1.73302
G1 X143.517 Y43.290 E1.74435
G1 X143.835 Y43.158 E1.75570
G1 X144.163 Y43.055 E1.76703
G1 X144.499 Y42.981 E1.77837
G1 X144.840 Y42.936 E1.78972
G1 X145.184 Y42.921 E1.80106
G1 X145.528 Y42.936 E1.81241
G1 X145.869 Y42.981 E1.82374
G1 X146.204 Y43.055 E1.83508
G1 X146.533 Y43.158 E1.84642
G1 X146.891 Y43.311 E1.85925
G1 X147.156 Y43.449 E1.86910
G1 X147.446 Y43.634 E1.88045
G1 X147.719 Y43.843 E1.89178
G1 X147.972 Y44.076 E1.90311
G1 X148.205 Y44.329 E1.91445
G1 X148.414 Y44.602 E1.92579
G1 X148.599 Y44.893 E1.93715
G1 X148.758 Y45.198 E1.94848
G1 X148.890 Y45.516 E1.95983
G1 X148.993 Y45.844 E1.97116
G1 X149.068 Y46.179 E1.98250
G1 X149.112 Y46.521 E1.99385
G1 X149.127 Y46.864 E2.00519
G1 X149.116 Y47.133 E2.01406
G1 X148.496 Y47.154 F9600.000
G1 X148.459 Y47.442 E2.02362 F1170.000
G1 X148.390 Y47.743 E2.03380
G1 X148.198 Y48.270 E2.05229
G1 X148.064 Y48.527 E2.06185
G1 X147.908 Y48.772 E2.07142
G1 X147.731 Y49.002 E2.08098
G1 X147.535 Y49.216 E2.09054
G1 X147.321 Y49.412 E2.10010
G1 X147.091 Y49.588 E2.10966
G1 X146.846 Y49.744 E2.11923
G1 X146.589 Y49.878 E2.12879
G1 X146.321 Y49.989 E2.13835
G1 X146.044 Y50.076 E2.14791
G1 X145.761 Y50.139 E2.15748
G1 X145.474 Y50.177 E2.16704
G1 X145.184 Y50.190 E2.17660
G1 X144.894 Y50.177 E2.18617
G1 X144.606 Y50.139 E2.19573
G1 X144.323 Y50.076 E2.20529
G1 X144.046 Y49.989 E2.21486
G1 X143.762 Y49.870 E2.22503
G1 X143.276 Y49.588 E2.24353
G1 X143.046 Y49.412 E2.25309
G1 X142.832 Y49.216 E2.26265
G1 X142.637 Y49.002 E2.27221
G1 X142.460 Y48.772 E2.28177
G1 X142.304 Y48.527 E2.29134
G1 X142.170 Y48.270 E2.30090
G1 X142.059 Y48.002 E2.31046
G1 X141.968 Y47.707 E2.32064
G1 X141.871 Y47.154 E2.33913
G1 X141.858 Y46.864 E2.34869
G1 X141.871 Y46.575 E2.35826
G1 X141.909 Y46.287 E2.36782
G1 X141.977 Y45.986 E2.37800
G1 X142.170 Y45.459 E2.39648
G1 X142.304 Y45.202 E2.40605
G1 X142.460 Y44.957 E2.41562
G1 X142.636 Y44.727 E2.42518
G1 X142.832 Y44.513 E2.43473
G1 X143.046 Y44.317 E2.44430
G1 X143.276 Y44.140 E2.45386
G1 X143.521 Y43.984 E2.46343
G1 X143.778 Y43.851 E2.47299
G1 X144.046 Y43.740 E2.48255
G1 X144.341 Y43.648 E2.49273
G1 X144.894 Y43.552 E2.51122
G1 X145.184 Y43.539 E2.52078
G1 X145.474 Y43.552 E2.53035
G1 X145.761 Y43.590 E2.53991
G1 X146.044 Y43.652 E2.54947
G1 X146.321 Y43.740 E2.55903
G1 X146.589 Y43.851 E2.56859
G1 X146.847 Y43.985 E2.57816
G1 X147.091 Y44.141 E2.58773
G1 X147.321 Y44.317 E2.59728
G1 X147.535 Y44.513 E2.60684
G1 X147.731 Y44.727 E2.61640
G1 X147.908 Y44.957 E2.62597
G1 X148.064 Y45.202 E2.63554
G1 X148.198 Y45.459 E2.64510
G1 X148.309 Y45.727 E2.65466
G1 X148.396 Y46.004 E2.66422
G1 X148.459 Y46.287 E2.67378
G1 X148.496 Y46.575 E2.68335
G1 X148.500 Y47.079 E2.69999
G1 X148.734 Y47.321 F9600.000
G1 F1200.000 E1.49999
G92 E0
G1 X140.180 Y58.269 F9600.000
G1 E1.20000 F1200.000
G1 X137.130 Y58.055 E1.30081 F1710.000
G1 X136.852 Y58.002 E1.31014
G1 X136.690 Y57.933 E1.31594
G1 X136.541 Y57.838 E1.32175
G1 X136.411 Y57.720 E1.32754
G1 X136.302 Y57.582 E1.33335
G1 X136.218 Y57.427 E1.33915
G1 X136.160 Y57.261 E1.34494
G1 X136.127 Y56.980 E1.35429
G1 X136.127 Y41.884 E1.85190
G1 X136.141 Y41.529 E1.86359
G1 X136.183 Y41.197 E1.87464
G1 X136.252 Y40.869 E1.88569
G1 X136.347 Y40.547 E1.89675
G1 X136.469 Y40.235 E1.90780
G1 X136.616 Y39.934 E1.91885
G1 X136.788 Y39.646 E1.92990
G1 X136.983 Y39.373 E1.94095
G1 X137.199 Y39.117 E1.95200
G1 X137.436 Y38.880 E1.96305
G1 X137.692 Y38.663 E1.97411
G1 X137.965 Y38.469 E1.98516
G1 X138.253 Y38.297 E1.99621
G1 X138.554 Y38.150 E2.00726
G1 X138.867 Y38.028 E2.01831
G1 X139.188 Y37.932 E2.02936
G1 X139.516 Y37.863 E2.04042
G1 X139.849 Y37.822 E2.05147
G1 X140.203 Y37.807 E2.06316
G1 X166.163 Y37.807 E2.91890
G1 X166.537 Y37.824 E2.93124
G1 X166.888 Y37.870 E2.94291
G1 X167.234 Y37.946 E2.95457
G1 X167.571 Y38.053 E2.96624
G1 X167.898 Y38.188 E2.97790
G1 X168.212 Y38.352 E2.98957
G1 X168.510 Y38.542 E3.00123
G1 X168.791 Y38.757 E3.01290
G1 X169.052 Y38.996 E3.02456
G1 X169.291 Y39.257 E3.03623
G1 X169.507 Y39.538 E3.04789
G1 X169.697 Y39.836 E3.05955
G1 X169.860 Y40.150 E3.07122
G1 X169.995 Y40.477 E3.08288
G1 X170.102 Y40.815 E3.09455
G1 X170.178 Y41.160 E3.10622
