; generated by Slic3r 1.1.7 on 2015-07-15 at 07:27:54

; perimeters extrusion width = 0.42mm
; infill extrusion width = 0.58mm
; solid infill extrusion width = 0.60mm
; top infill extrusion width = 0.45mm

G21 ; set units to millimeters
M107

M301 P34 I4 D113     ; set PID nozzle
M304 P162 I17 D378 ; set PID Bed

;M104 S230                 ; set extruder temp for budaschnozzle
M104 S250                 ; set extruder temp for hex_hot_end
;M140 S100                 ; set bed temp for PET
M140 S110                 ; set bed temp for PEI (reminder ~G1 Z2 ~ M140 S(@-10 degree change) ;if -m is present in file name)

G28                            ; home
G1 Z5 F300                ; move bed down 5mm
M84                            ; disable steppers
G4 S300                     ; wait 5 mins to preheat

G28                            ; home

G90 ; use absolute coordinates
G92 E0
M82 ; use absolute distances for extrusion
G1 F1200.000 E-1.20000
G92 E0
G1 Z0.350 F9000.000
G1 X107.516 Y132.751 F9000.000
G1 E1.20000 F1200.000
G1 X140.770 Y111.404 E2.50258 F1500.000
G1 X141.678 Y110.929 E2.53639
G1 X142.624 Y110.531 E2.57019
G1 X143.599 Y110.215 E2.60399
G1 X144.078 Y110.092 E2.62029
G1 X144.597 Y109.981 E2.63781
G1 X145.612 Y109.831 E2.67161
G1 X146.635 Y109.767 E2.70541
G1 X147.661 Y109.789 E2.73922
G1 X148.680 Y109.897 E2.77302 F1500.000
G1 X149.167 Y109.979 E2.78930
G1 X149.688 Y110.089 E2.80683
G1 X150.675 Y110.366 E2.84064
G1 X151.636 Y110.724 E2.87444
G1 X152.564 Y111.161 E2.90824
G1 X153.452 Y111.675 E2.94206
G1 X154.293 Y112.261 E2.97585
G1 X154.874 Y112.729 E3.00045
G1 X181.119 Y135.280 E4.14108
G1 X187.066 Y140.420 E4.40018
G1 X188.462 Y142.151 E4.47351
G1 X189.224 Y145.137 E4.57509
G1 X189.223 Y149.882 E4.73150
G1 X189.117 Y156.269 E4.94208
G1 X189.046 Y157.334 E4.97726
G1 X188.884 Y158.389 E5.01243
G1 X188.629 Y159.425 E5.04761
G1 X188.286 Y160.436 E5.08279
G1 X188.089 Y160.911 E5.09976
G1 X187.856 Y161.412 E5.11797
G1 X187.342 Y162.348 E5.15315
G1 X186.749 Y163.235 E5.18833
G1 X186.081 Y164.067 E5.22350
G1 X185.342 Y164.837 E5.25869
G1 X184.540 Y165.541 E5.29386
G1 X184.132 Y165.854 E5.31081
G1 X183.679 Y166.171 E5.32905
G1 X182.766 Y166.725 E5.36423
G1 X181.809 Y167.196 E5.39940
G1 X180.814 Y167.583 E5.43458
G1 X179.790 Y167.881 E5.46976
G1 X178.743 Y168.088 E5.50493
G1 X177.682 Y168.204 E5.54012
G1 X176.887 Y168.233 E5.56634
G1 X116.615 Y168.227 E7.55313
G1 X115.550 Y168.157 E7.58831
G1 X114.495 Y167.994 E7.62349
G1 X113.459 Y167.740 E7.65866
G1 X112.448 Y167.396 E7.69384
G1 X111.472 Y166.966 E7.72902
G1 X110.537 Y166.453 E7.76419
G1 X109.649 Y165.859 E7.79938
G1 X108.818 Y165.191 E7.83455
G1 X108.047 Y164.453 E7.86973
G1 X107.344 Y163.650 E7.90491
G1 X106.713 Y162.789 E7.94009
G1 X106.160 Y161.877 E7.97526
G1 X105.688 Y160.919 E8.01044
G1 X105.302 Y159.925 E8.04562
G1 X105.004 Y158.900 E8.08080
G1 X104.796 Y157.853 E8.11598
G1 X104.729 Y157.344 E8.13290
G1 X104.680 Y156.792 E8.15116
G1 X104.651 Y155.997 E8.17738
G1 X104.651 Y137.997 E8.77073
G1 X105.048 Y135.809 E8.84406
G1 X106.188 Y133.898 E8.91739
G1 X107.460 Y132.800 E8.97277
G1 X107.850 Y133.271 F9000.000
G1 X141.067 Y111.945 E10.27397 F1500.000
G1 X141.930 Y111.493 E10.30607
G1 X142.827 Y111.115 E10.33816
G1 X143.753 Y110.813 E10.37026
G1 X144.231 Y110.690 E10.38655
G1 X144.701 Y110.590 E10.40237
G1 X145.664 Y110.447 E10.43446
G1 X146.635 Y110.385 E10.46656
G1 X147.609 Y110.405 E10.49866
G1 X148.577 Y110.506 E10.53075 F1500.000
G1 X149.064 Y110.588 E10.54703
G1 X149.534 Y110.688 E10.56286
G1 X150.472 Y110.949 E10.59496
G1 X151.385 Y111.288 E10.62705
G1 X152.266 Y111.703 E10.65915
G1 X153.109 Y112.189 E10.69125
G1 X153.909 Y112.745 E10.72334
G1 X154.472 Y113.197 E10.74715
G1 X180.715 Y135.747 E11.88772
G1 X186.662 Y140.887 E12.14682
G1 X187.971 Y142.543 E12.21639
G1 X188.606 Y145.137 E12.30444
G1 X188.605 Y149.872 E12.46052
G1 X188.499 Y156.242 E12.67054
G1 X188.434 Y157.254 E12.70394
G1 X188.280 Y158.255 E12.73734
G1 X188.040 Y159.240 E12.77074
G1 X187.715 Y160.199 E12.80415
G1 X187.518 Y160.675 E12.82112
G1 X187.308 Y161.127 E12.83756
G1 X186.821 Y162.016 E12.87096
G1 X186.259 Y162.859 E12.90436
G1 X185.625 Y163.649 E12.93776
G1 X184.925 Y164.382 E12.97116
G1 X184.164 Y165.051 E13.00456
G1 X183.756 Y165.364 E13.02151
G1 X183.347 Y165.650 E13.03798
G1 X182.481 Y166.177 E13.07138
G1 X181.573 Y166.625 E13.10477
G1 X180.628 Y166.993 E13.13818
G1 X179.656 Y167.278 E13.17158
G1 X178.662 Y167.476 E13.20498
G1 X177.655 Y167.587 E13.23839
G1 X176.887 Y167.615 E13.26372
G1 X116.642 Y167.610 E15.24962
G1 X115.631 Y167.544 E15.28303
G1 X114.629 Y167.391 E15.31643
G1 X113.645 Y167.151 E15.34982
G1 X112.685 Y166.826 E15.38323
G1 X111.757 Y166.418 E15.41663
G1 X110.869 Y165.932 E15.45003
G1 X110.025 Y165.369 E15.48344
G1 X109.235 Y164.736 E15.51683
G1 X108.502 Y164.035 E15.55024
G1 X107.834 Y163.274 E15.58364
G1 X107.234 Y162.457 E15.61704
G1 X106.708 Y161.592 E15.65044
G1 X106.259 Y160.683 E15.68384
G1 X105.891 Y159.739 E15.71724
G1 X105.607 Y158.766 E15.75065
G1 X105.408 Y157.773 E15.78405
G1 X105.341 Y157.264 E15.80097
G1 X105.297 Y156.765 E15.81746
G1 X105.269 Y155.997 E15.84279
G1 X105.269 Y137.997 E16.43614
G1 X105.666 Y135.924 E16.50571
G1 X106.799 Y134.144 E16.57528
G1 X107.793 Y133.319 E16.61786
G1 F1200.000 E15.41786
G92 E0
G1 X178.603 Y158.234 F9000.000
G1 E1.20000 F1200.000
M204 S800
G1 X178.310 Y158.459 E1.21215 F1500.000
G1 X178.000 Y158.657 E1.22430
G1 X177.673 Y158.827 E1.23645
G1 X177.332 Y158.968 E1.24860
G1 X176.981 Y159.079 E1.26075
G1 X176.621 Y159.158 E1.27290
G1 X176.255 Y159.207 E1.28505
G1 X175.866 Y159.222 E1.29789
G1 X175.519 Y159.207 E1.30935
G1 X175.153 Y159.158 E1.32150
G1 X174.793 Y159.079 E1.33366
G1 X174.423 Y158.960 E1.34649
G1 X174.101 Y158.827 E1.35795
G1 X173.774 Y158.657 E1.37010
G1 X173.447 Y158.446 E1.38294
G1 X173.171 Y158.234 E1.39440
G1 X172.899 Y157.985 E1.40655
G1 X172.650 Y157.713 E1.41871
G1 X172.426 Y157.421 E1.43086
G1 X172.228 Y157.110 E1.44301
G1 X172.057 Y156.783 E1.45516
G1 X171.916 Y156.443 E1.46731
G1 X171.806 Y156.091 E1.47946
G1 X171.726 Y155.731 E1.49161
G1 X171.678 Y155.366 E1.50376
G1 X171.663 Y154.977 E1.51660
G1 X171.678 Y154.629 E1.52806
G1 X171.726 Y154.264 E1.54021
G1 X171.806 Y153.904 E1.55236
G1 X171.916 Y153.552 E1.56451
G1 X172.057 Y153.212 E1.57666
G1 X172.228 Y152.884 E1.58883
G1 X172.426 Y152.573 E1.60100
G1 X172.650 Y152.281 E1.61312
G1 X172.888 Y152.022 E1.62470
G1 X173.171 Y151.761 E1.63742
G1 X173.463 Y151.536 E1.64956
G1 X173.774 Y151.338 E1.66171
G1 X174.101 Y151.168 E1.67387
G1 X174.441 Y151.027 E1.68600
G1 X174.793 Y150.916 E1.69816
G1 X175.153 Y150.836 E1.71032
G1 X175.519 Y150.788 E1.72247
G1 X175.907 Y150.773 E1.73528
M204 S800
M204 S800
G1 X176.255 Y150.788 E1.74677 F1500.000
G1 X176.621 Y150.836 E1.75892
G1 X176.981 Y150.916 E1.77108
G1 X177.332 Y151.027 E1.78322
G1 X177.673 Y151.168 E1.79538
G1 X178.000 Y151.338 E1.80754
G1 X178.310 Y151.536 E1.81967
G1 X178.603 Y151.761 E1.83183
G1 X178.874 Y152.009 E1.84397
G1 X179.135 Y152.296 E1.85671
G1 X179.348 Y152.574 E1.86829
G1 X179.546 Y152.884 E1.88039
G1 X179.716 Y153.212 E1.89258
G1 X179.857 Y153.552 E1.90473
G1 X179.968 Y153.904 E1.91688
G1 X180.048 Y154.264 E1.92903
G1 X180.096 Y154.629 E1.94118
G1 X180.112 Y154.997 E1.95333
G1 X180.096 Y155.366 E1.96548
G1 X180.048 Y155.731 E1.97763
G1 X179.968 Y156.091 E1.98979
G1 X179.849 Y156.462 E2.00262
G1 X179.716 Y156.783 E2.01408
G1 X179.546 Y157.110 E2.02623
G1 X179.348 Y157.421 E2.03838
G1 X179.124 Y157.713 E2.05054
G1 X178.875 Y157.985 E2.06269
G1 X178.658 Y158.183 E2.07237
M204 S800
G1 F1200.000 E0.87237
G92 E0
G1 X175.872 Y150.426 F9000.000
G1 X162.830 Y148.565 F9000.000
G1 E1.20000 F1200.000
M204 S800
G1 X130.944 Y148.565 E2.25107 F1500.000
G1 X130.944 Y137.430 E2.61814
G1 X162.830 Y137.430 E3.66921
G1 X162.830 Y148.490 E4.03381
M204 S800
G1 X162.212 Y147.947 F9000.000
M204 S800
G1 X131.562 Y147.947 E5.04415 F1500.000
G1 X131.562 Y138.047 E5.37050
G1 X162.212 Y138.047 E6.38084
G1 X162.212 Y147.872 E6.70470
M204 S800
G1 X162.212 Y148.447 F9000.000
G1 F1200.000 E5.50470
G92 E0
G1 X149.000 Y125.657 F9000.000
G1 E1.20000 F1200.000
M204 S800
G1 X148.673 Y125.827 E1.21215 F1500.000
G1 X148.312 Y125.974 E1.22498
G1 X147.980 Y126.079 E1.23645
G1 X147.621 Y126.158 E1.24860
G1 X147.255 Y126.207 E1.26075
G1 X146.887 Y126.223 E1.27290
G1 X146.519 Y126.207 E1.28505
G1 X146.153 Y126.158 E1.29720
G1 X145.793 Y126.079 E1.30936
G1 X145.423 Y125.960 E1.32218
G1 X145.101 Y125.827 E1.33365
G1 X144.774 Y125.657 E1.34580
G1 X144.463 Y125.459 E1.35795
G1 X144.171 Y125.234 E1.37011
G1 X143.899 Y124.985 E1.38226
G1 X143.650 Y124.713 E1.39441
G1 X143.426 Y124.421 E1.40656
G1 X143.228 Y124.110 E1.41871
G1 X143.057 Y123.783 E1.43086
G1 X142.916 Y123.443 E1.44301
G1 X142.806 Y123.091 E1.45516
G1 X142.726 Y122.731 E1.46731
G1 X142.678 Y122.366 E1.47946
G1 X142.662 Y121.997 E1.49161
G1 X142.678 Y121.629 E1.50377
G1 X142.726 Y121.264 E1.51592
G1 X142.806 Y120.904 E1.52807
G1 X142.916 Y120.552 E1.54021
G1 X143.057 Y120.212 E1.55237
G1 X143.239 Y119.867 E1.56520
G1 X143.426 Y119.574 E1.57667
G1 X143.650 Y119.281 E1.58882
G1 X143.899 Y119.010 E1.60097
G1 X144.171 Y118.761 E1.61312
G1 X144.463 Y118.536 E1.62527
G1 X144.774 Y118.338 E1.63742
G1 X145.101 Y118.168 E1.64957
G1 X145.442 Y118.027 E1.66173
G1 X145.793 Y117.916 E1.67388
G1 X146.153 Y117.836 E1.68602
G1 X146.519 Y117.788 E1.69818
G1 X146.908 Y117.773 E1.71101
M204 S800
M204 S800
G1 X147.255 Y117.788 E1.72248 F1500.000
G1 X147.620 Y117.836 E1.73462
G1 X147.980 Y117.916 E1.74677
G1 X148.332 Y118.027 E1.75892
G1 X148.673 Y118.168 E1.77108
G1 X149.000 Y118.338 E1.78323
G1 X149.311 Y118.536 E1.79538
G1 X149.603 Y118.761 E1.80753
G1 X149.889 Y119.025 E1.82036
G1 X150.124 Y119.281 E1.83183
G1 X150.348 Y119.574 E1.84398
G1 X150.546 Y119.885 E1.85613
G1 X150.716 Y120.212 E1.86828
G1 X150.857 Y120.552 E1.88043
G1 X150.968 Y120.904 E1.89258
G1 X151.048 Y121.264 E1.90473
G1 X151.096 Y121.629 E1.91688
G1 X151.111 Y122.018 E1.92972
G1 X151.096 Y122.366 E1.94118
G1 X151.048 Y122.731 E1.95333
G1 X150.968 Y123.091 E1.96549
G1 X150.857 Y123.442 E1.97763
G1 X150.716 Y123.783 E1.98979
G1 X150.546 Y124.110 E2.00194
G1 X150.348 Y124.421 E2.01409
G1 X150.124 Y124.713 E2.02624
G1 X149.875 Y124.985 E2.03839
G1 X149.603 Y125.234 E2.05054
G1 X149.310 Y125.459 E2.06269
G1 X149.063 Y125.616 E2.07237
M204 S800
G1 F1200.000 E0.87237
G92 E0
G1 X146.883 Y117.426 F9000.000
G1 X121.311 Y151.571 F9000.000
G1 E1.20000 F1200.000
M204 S800
G1 X121.597 Y151.883 E1.21395 F1500.000
G1 X121.855 Y152.220 E1.22793
G1 X122.080 Y152.573 E1.24175
G1 X122.277 Y152.951 E1.25578
G1 X122.439 Y153.341 E1.26971
G1 X122.565 Y153.743 E1.28361
G1 X122.657 Y154.156 E1.29756
G1 X122.712 Y154.575 E1.31149
G1 X122.731 Y154.997 E1.32541
G1 X122.712 Y155.419 E1.33934
G1 X122.657 Y155.839 E1.35329
G1 X122.566 Y156.251 E1.36719
G1 X122.439 Y156.654 E1.38112
G1 X122.277 Y157.044 E1.39506
G1 X122.082 Y157.419 E1.40899
G1 X121.854 Y157.776 E1.42293
G1 X121.598 Y158.111 E1.43683
G1 X121.312 Y158.422 E1.45077
G1 X121.000 Y158.708 E1.46471
G1 X120.665 Y158.965 E1.47864
G1 X120.309 Y159.192 E1.49256
G1 X119.934 Y159.387 E1.50650
G1 X119.544 Y159.549 E1.52041
G1 X119.140 Y159.676 E1.53435
G1 X118.728 Y159.767 E1.54828
G1 X118.309 Y159.823 E1.56221
G1 X117.887 Y159.841 E1.57613
G1 X117.465 Y159.823 E1.59007
G1 X117.046 Y159.767 E1.60399
G1 X116.633 Y159.676 E1.61794
G1 X116.231 Y159.549 E1.63185
G1 X115.840 Y159.387 E1.64578
G1 X115.465 Y159.192 E1.65970
G1 X115.109 Y158.965 E1.67364
G1 X114.773 Y158.708 E1.68757
G1 X114.462 Y158.422 E1.70151
G1 X114.177 Y158.111 E1.71542
G1 X113.919 Y157.776 E1.72936
G1 X113.692 Y157.419 E1.74329
G1 X113.497 Y157.044 E1.75723
G1 X113.335 Y156.654 E1.77116
G1 X113.208 Y156.251 E1.78509
G1 X113.117 Y155.838 E1.79901
G1 X113.062 Y155.419 E1.81293
G1 X113.043 Y154.997 E1.82686
G1 X113.062 Y154.575 E1.84079
G1 X113.117 Y154.157 E1.85470
G1 X113.208 Y153.744 E1.86864
G1 X113.335 Y153.341 E1.88257
G1 X113.497 Y152.950 E1.89651
G1 X113.692 Y152.575 E1.91045
G1 X113.922 Y152.216 E1.92450
G1 X114.177 Y151.883 E1.93831
G1 X114.462 Y151.572 E1.95224
G1 X114.774 Y151.287 E1.96616
G1 X115.108 Y151.030 E1.98007
G1 X115.465 Y150.803 E1.99402
G1 X115.840 Y150.608 E2.00793
G1 X116.230 Y150.446 E2.02186
G1 X116.633 Y150.319 E2.03578
G1 X117.046 Y150.227 E2.04974
G1 X117.465 Y150.172 E2.06366
G1 X117.934 Y150.156 E2.07913
M204 S800
M204 S800
G1 X118.309 Y150.172 E2.09150 F1500.000
G1 X118.728 Y150.227 E2.10545
G1 X119.141 Y150.319 E2.11939
G1 X119.543 Y150.446 E2.13327
G1 X119.934 Y150.608 E2.14724
G1 X120.309 Y150.802 E2.16115
G1 X120.665 Y151.029 E2.17507
G1 X121.000 Y151.287 E2.18902
G1 X121.256 Y151.521 E2.20042
M204 S800
G1 X120.874 Y152.009 F9000.000
M204 S800
G1 X121.134 Y152.295 E2.21317 F1500.000
G1 X121.348 Y152.574 E2.22475
G1 X121.546 Y152.884 E2.23685
G1 X121.716 Y153.212 E2.24904
G1 X121.857 Y153.552 E2.26120
G1 X121.968 Y153.904 E2.27334
G1 X122.048 Y154.264 E2.28549
G1 X122.096 Y154.629 E2.29764
G1 X122.112 Y154.997 E2.30979
G1 X122.096 Y155.366 E2.32195
G1 X122.048 Y155.731 E2.33410
G1 X121.968 Y156.091 E2.34624
G1 X121.857 Y156.442 E2.35840
G1 X121.716 Y156.783 E2.37055
G1 X121.546 Y157.110 E2.38270
G1 X121.348 Y157.421 E2.39485
G1 X121.124 Y157.713 E2.40700
G1 X120.875 Y157.985 E2.41915
G1 X120.603 Y158.234 E2.43131
G1 X120.310 Y158.459 E2.44346
G1 X120.000 Y158.657 E2.45561
G1 X119.673 Y158.827 E2.46776
G1 X119.332 Y158.968 E2.47990
G1 X118.980 Y159.079 E2.49206
G1 X118.621 Y159.158 E2.50421
G1 X118.255 Y159.207 E2.51636
G1 X117.887 Y159.223 E2.52851
G1 X117.519 Y159.207 E2.54066
G1 X117.153 Y159.158 E2.55281
G1 X116.793 Y159.079 E2.56497
G1 X116.442 Y158.968 E2.57711
G1 X116.101 Y158.827 E2.58926
G1 X115.774 Y158.657 E2.60141
G1 X115.463 Y158.459 E2.61356
G1 X115.171 Y158.234 E2.62572
G1 X114.899 Y157.985 E2.63787
G1 X114.650 Y157.713 E2.65002
G1 X114.426 Y157.421 E2.66217
G1 X114.228 Y157.110 E2.67432
G1 X114.057 Y156.783 E2.68647
G1 X113.916 Y156.442 E2.69863
G1 X113.806 Y156.091 E2.71078
G1 X113.726 Y155.731 E2.72292
G1 X113.678 Y155.366 E2.73507
G1 X113.662 Y154.997 E2.74722
G1 X113.678 Y154.629 E2.75938
G1 X113.726 Y154.264 E2.77152
G1 X113.806 Y153.904 E2.78367
G1 X113.916 Y153.552 E2.79583
G1 X114.057 Y153.212 E2.80798
G1 X114.228 Y152.884 E2.82014
G1 X114.427 Y152.573 E2.83233
G1 X114.650 Y152.281 E2.84444
G1 X114.899 Y152.009 E2.85659
G1 X115.171 Y151.761 E2.86874
G1 X115.463 Y151.536 E2.88088
G1 X115.774 Y151.338 E2.89304
G1 X116.101 Y151.168 E2.90518
G1 X116.442 Y151.027 E2.91733
G1 X116.793 Y150.916 E2.92948
G1 X117.153 Y150.836 E2.94164
G1 X117.538 Y150.787 E2.95442
M204 S800
M204 S800
G1 X117.887 Y150.772 E2.96593 F1500.000
G1 X118.255 Y150.788 E2.97808
G1 X118.621 Y150.836 E2.99024
G1 X118.981 Y150.916 E3.00240
G1 X119.332 Y151.027 E3.01453
G1 X119.673 Y151.168 E3.02669
G1 X120.000 Y151.338 E3.03884
G1 X120.310 Y151.536 E3.05099
G1 X120.603 Y151.761 E3.06314
G1 X120.819 Y151.959 E3.07280
M204 S800
G1 F1200.000 E1.87280
G92 E0
G1 X117.386 Y150.473 F9000.000
G1 X111.830 Y138.940 F9000.000
G1 E1.20000 F1200.000
M204 S800
G1 X113.285 Y138.940 E1.24798 F1500.000
G1 X113.619 Y139.439 E1.26777
G1 X113.823 Y139.679 E1.27816
G1 X114.035 Y139.888 E1.28796
G1 X114.322 Y140.131 E1.30037
G1 X114.588 Y140.317 E1.31108
G1 X114.866 Y140.480 E1.32169
G1 X115.436 Y140.727 E1.34217
G1 X115.754 Y140.822 E1.35310
G1 X116.071 Y140.888 E1.36379
G1 X116.419 Y140.929 E1.37533
G1 X117.240 Y140.940 E1.40240
G1 X142.480 Y119.122 E2.50216
G1 X142.803 Y119.401 E2.51624
G1 X142.497 Y119.950 E2.53696
G1 X142.335 Y120.341 E2.55090
G1 X142.208 Y120.744 E2.56482
G1 X142.117 Y121.156 E2.57875
G1 X142.062 Y121.575 E2.59268
G1 X142.043 Y121.997 E2.60661
G1 X142.062 Y122.419 E2.62054
G1 X142.117 Y122.838 E2.63446
G1 X142.208 Y123.251 E2.64840
G1 X142.335 Y123.654 E2.66233
G1 X142.497 Y124.044 E2.67624
G1 X142.692 Y124.419 E2.69018
G1 X142.919 Y124.776 E2.70411
G1 X143.176 Y125.111 E2.71803
G1 X143.462 Y125.422 E2.73197
G1 X143.773 Y125.708 E2.74590
G1 X144.109 Y125.965 E2.75983
