;Generated by Cura LulzBot Edition GCodeWriter Version: 2.6.48
;FLAVOR:RepRap
;TIME:3512
;Filament used: 0.822555m
;Layer height: 0.2592
;Generated with Cura_SteamEngine 2.6.49
G26                          ; clear potential 'probe fail' condition
G21                          ; metric values
G90                          ; absolute positioning
M82                          ; set extruder to absolute mode
M107                         ; start with the fan off
G92 E0                       ; set extruder position to 0
M140 S40; get bed heating up
G28                          ; home all
M907 X675                    ; reduce extruder torque for safety
M109 R180                    ; set to cleaning temp and wait
G1 Z150 E-30 F45             ; suck up XXmm of filament
G1 X45 Y174 F11520           ; move behind scraper
G1 Z0  F1200                 ; CRITICAL: set Z to height of top of scraper
G1 X45 Y174 Z-.5 F4000       ; wiping ; plunge into wipe pad
G1 X55 Y172 Z-.5 F4000       ; wiping
G1 X45 Y174 Z0 F4000         ; wiping
G1 X55 Y172 F4000            ; wiping
G1 X45 Y174 F4000            ; wiping
G1 X55 Y172 F4000            ; wiping
G1 X45 Y174 F4000            ; wiping
G1 X55 Y172 F4000            ; wiping
G1 X60 Y174 F4000            ; wiping
G1 X80 Y172 F4000            ; wiping
G1 X60 Y174 F4000            ; wiping
G1 X80 Y172 F4000            ; wiping
G1 X60 Y174 F4000            ; wiping
G1 X90 Y172 F4000            ; wiping
G1 X80 Y174 F4000            ; wiping
G1 X100 Y172 F4000           ; wiping
G1 X80 Y174 F4000            ; wiping
G1 X100 Y172 F4000           ; wiping
G1 X80 Y174 F4000            ; wiping
G1 X100 Y172 F4000           ; wiping
G1 X110 Y174 F4000           ; wiping
G1 X100 Y172 F4000           ; wiping
G1 X110 Y174 F4000           ; wiping
G1 X100 Y172 F4000           ; wiping
G1 X110 Y174 F4000           ; wiping
G1 X115 Y172 Z-0.5 F1000     ; wipe slower and bury noz in cleanish area
G1 Z10                       ; raise z
G28 X0 Y0                    ; home x and y
M109 R180                    ; set to probing temp
M204 S300                    ; Set probing acceleration
G29                          ; Probe
M204 S2000                   ; Restore standard acceleration
G1 X5 Y15 Z10 F5000          ; get out the way
G4 S1                        ; pause
M400                         ; clear buffer
M109 R235    ; set extruder temp and wait
G4 S15                       ; wait for bed to temp up
G1 Z2 E0 F45                 ; extrude filament back into nozzle
M140 S40; get bed temping up during first layer
;LAYER_COUNT:26
;LAYER:0
M107
M204 S800
M205 X2
G0 F2800 X5.546 Y123.182
G0 F2800 Z0.42
;TYPE:SKIRT
G1 F480 X24.577 Y123.207 E0.72607
G1 X25.364 Y123.277 E0.75621
G1 X26.314 Y123.447 E0.79303
G1 X26.896 Y123.592 E0.81591
G1 X27.485 Y123.828 E0.84012
G1 X28.091 Y124.122 E0.86582
G1 X28.612 Y124.419 E0.8887
G1 X29.009 Y124.715 E0.90759
G1 X29.605 Y125.212 E0.9372
G1 X30.039 Y125.626 E0.96008
G1 X30.312 Y125.954 E0.97636
G1 X30.678 Y126.438 E0.99951
G1 X31.007 Y126.939 E1.02238
G1 X31.179 Y127.276 E1.03682
G1 X31.451 Y127.869 E1.06171
G1 X31.664 Y128.429 E1.08456
G1 X31.78 Y128.895 E1.10289
G1 X31.931 Y129.68 E1.13338
G1 X32.012 Y130.54 E1.16634
G1 X31.981 Y144.645 E1.70447
G1 X31.893 Y145.522 E1.7381
G1 X31.64 Y146.78 E1.78705
G1 X31.411 Y147.552 E1.81778
G1 X31.152 Y148.205 E1.84458
G1 X30.819 Y148.875 E1.87312
G1 X30.257 Y149.804 E1.91455
G1 X29.913 Y150.295 E1.93742
G1 X29.658 Y150.587 E1.95221
G1 X28.738 Y151.548 E2.00297
G1 X28.144 Y152.068 E2.03308
G1 X27.637 Y152.439 E2.05705
G1 X27.003 Y152.826 E2.08539
G1 X25.974 Y153.344 E2.12934
G1 X25.422 Y153.578 E2.15222
G1 X25.05 Y153.689 E2.16703
G1 X23.891 Y153.981 E2.21263
G1 X23.036 Y154.11 E2.24562
G1 X21.655 Y154.185 E2.29838
G1 X21.4 Y154.192 E2.30811
G1 X8.292 Y154.159 E2.80821
G1 X7.693 Y154.118 E2.83112
G1 X7.265 Y154.038 E2.84773
G1 X6.307 Y153.811 E2.88529
G1 X5.734 Y153.634 E2.90817
G1 X5.025 Y153.288 E2.93827
G1 X4.297 Y152.85 E2.97068
G1 X3.805 Y152.507 E2.99356
G1 X3.399 Y152.14 E3.01444
G1 X2.92 Y151.65 E3.04059
G1 X2.53 Y151.194 E3.06348
G1 X2.216 Y150.71 E3.08549
G1 X1.798 Y149.967 E3.11801
G1 X1.54 Y149.426 E3.14088
G1 X1.341 Y148.798 E3.16601
G1 X1.149 Y147.987 E3.19781
G1 X1.05 Y147.395 E3.22071
G1 X1.028 Y146.947 E3.23782
G1 X1.04 Y127.679 E3.97293
G1 X1.08 Y127.081 E3.9958
G1 X1.2 Y126.493 E4.01869
G1 X1.396 Y125.927 E4.04155
G1 X1.667 Y125.391 E4.06446
G1 X2.006 Y124.897 E4.08732
G1 X2.407 Y124.451 E4.1102
G1 X2.865 Y124.064 E4.13308
G1 X3.37 Y123.74 E4.15597
G1 X3.913 Y123.486 E4.17884
G1 X4.485 Y123.307 E4.2017
G1 X5.076 Y123.206 E4.22458
G1 X5.546 Y123.182 E4.24253
G0 F2800 X5.545 Y123.782
G1 F480 X24.576 Y123.807 E4.9686
G1 X25.258 Y123.868 E4.99472
G1 X26.208 Y124.038 E5.03154
G1 X26.749 Y124.175 E5.05284
G1 X27.223 Y124.368 E5.07236
G1 X27.829 Y124.662 E5.09806
G1 X28.313 Y124.941 E5.11937
G1 X28.625 Y125.176 E5.13427
G1 X29.221 Y125.673 E5.16388
G1 X29.623 Y126.06 E5.18517
G1 X29.834 Y126.316 E5.19783
G1 X30.2 Y126.8 E5.22098
G1 X30.504 Y127.268 E5.24227
G1 X30.634 Y127.526 E5.25329
G1 X30.906 Y128.119 E5.27818
G1 X31.102 Y128.642 E5.29949
G1 X31.191 Y129.008 E5.31386
G1 X31.342 Y129.793 E5.34436
G1 X31.412 Y130.539 E5.37294
G1 X31.381 Y144.644 E5.91108
G1 X31.304 Y145.404 E5.94022
G1 X31.051 Y146.662 E5.98918
G1 X30.853 Y147.331 E6.01579
G1 X30.594 Y147.984 E6.0426
G1 X30.306 Y148.565 E6.06734
G1 X29.744 Y149.494 E6.10876
G1 X29.422 Y149.949 E6.13003
G1 X29.224 Y150.172 E6.1414
G1 X28.304 Y151.133 E6.19216
G1 X27.79 Y151.583 E6.21822
G1 X27.283 Y151.954 E6.24219
G1 X26.734 Y152.291 E6.26677
G1 X25.705 Y152.809 E6.31072
G1 X25.189 Y153.023 E6.33203
G1 X24.904 Y153.107 E6.34337
G1 X23.745 Y153.399 E6.38897
G1 X23.003 Y153.511 E6.4176
G1 X21.622 Y153.586 E6.47036
G1 X21.401 Y153.592 E6.4788
G1 X8.293 Y153.559 E6.97889
G1 X7.737 Y153.518 E7.00016
G1 X7.404 Y153.454 E7.0131
G1 X6.446 Y153.227 E7.05066
G1 X5.913 Y153.06 E7.07197
G1 X5.334 Y152.774 E7.09661
G1 X4.606 Y152.336 E7.12902
G1 X4.15 Y152.015 E7.1503
G1 X3.828 Y151.72 E7.16696
G1 X3.349 Y151.23 E7.1931
G1 X2.989 Y150.804 E7.21438
G1 X2.739 Y150.416 E7.23199
G1 X2.321 Y149.673 E7.26451
G1 X2.083 Y149.168 E7.28581
G1 X1.925 Y148.659 E7.30615
G1 X1.733 Y147.848 E7.33794
G1 X1.644 Y147.297 E7.35924
G1 X1.628 Y146.948 E7.37257
G1 X1.64 Y127.68 E8.10767
G1 X1.68 Y127.123 E8.12898
G1 X1.8 Y126.578 E8.15027
G1 X1.996 Y126.055 E8.17158
G1 X2.264 Y125.566 E8.19285
G1 X2.6 Y125.12 E8.21416
G1 X2.996 Y124.726 E8.23547
G1 X3.444 Y124.393 E8.25677
G1 X3.935 Y124.128 E8.27805
G1 X4.459 Y123.935 E8.29936
G1 X5.005 Y123.819 E8.32065
G1 X5.545 Y123.782 E8.3413
G0 F2800 X5.544 Y124.382
G1 F480 X24.575 Y124.407 E9.06737
G1 X25.152 Y124.459 E9.08947
G1 X26.102 Y124.629 E9.12629
G1 X26.599 Y124.758 E9.14588
G1 X26.961 Y124.908 E9.16083
G1 X27.567 Y125.202 E9.18653
G1 X28.011 Y125.461 E9.20614
G1 X28.24 Y125.637 E9.21716
G1 X28.836 Y126.134 E9.24677
G1 X29.355 Y126.678 E9.27545
G1 X29.721 Y127.162 E9.2986
G1 X30.089 Y127.776 E9.32591
G1 X30.361 Y128.369 E9.3508
G1 X30.538 Y128.851 E9.37039
G1 X30.602 Y129.122 E9.38102
G1 X30.753 Y129.907 E9.41151
G1 X30.812 Y130.537 E9.43565
G1 X30.781 Y144.642 E9.97379
G1 X30.716 Y145.286 E9.99848
G1 X30.463 Y146.544 E10.04744
G1 X30.296 Y147.11 E10.06995
G1 X30.037 Y147.763 E10.09675
G1 X29.793 Y148.254 E10.11767
G1 X29.231 Y149.183 E10.15909
G1 X28.791 Y149.757 E10.18669
G1 X27.871 Y150.718 E10.23744
G1 X27.436 Y151.099 E10.25951
G1 X26.929 Y151.47 E10.28347
G1 X26.464 Y151.755 E10.30428
G1 X25.435 Y152.273 E10.34823
G1 X24.757 Y152.525 E10.37583
G1 X23.598 Y152.817 E10.42143
G1 X22.971 Y152.912 E10.44562
G1 X21.59 Y152.987 E10.49839
G1 X21.403 Y152.992 E10.50553
G1 X8.295 Y152.959 E11.00562
G1 X7.542 Y152.87 E11.03455
G1 X6.584 Y152.643 E11.07211
G1 X6.095 Y152.486 E11.0917
G1 X5.644 Y152.26 E11.11095
G1 X4.916 Y151.822 E11.14336
G1 X4.498 Y151.524 E11.16295
G1 X4.257 Y151.301 E11.17548
G1 X3.778 Y150.811 E11.20162
G1 X3.449 Y150.417 E11.2212
G1 X3.262 Y150.122 E11.23453
G1 X2.844 Y149.379 E11.26705
G1 X2.628 Y148.913 E11.28665
G1 X2.509 Y148.521 E11.30228
G1 X2.317 Y147.71 E11.33407
G1 X2.228 Y146.948 E11.36334
G1 X2.24 Y127.68 E12.09845
G1 X2.28 Y127.168 E12.11804
G1 X2.399 Y126.669 E12.13762
G1 X2.595 Y126.194 E12.15722
G1 X2.861 Y125.755 E12.1768
G1 X3.192 Y125.363 E12.19638
G1 X3.581 Y125.027 E12.21599
G1 X4.016 Y124.755 E12.23556
G1 X4.489 Y124.554 E12.25517
G1 X4.987 Y124.429 E12.27476
G1 X5.544 Y124.382 E12.29608
G1 F240 E10.79608
G0 F2800 X6.145 Y127.007
G0 X6.144 Y128.286
G0 X6.33 Y128.372
G0 X6.33 Y128.272
;TYPE:WALL-INNER
G1 F240 E12.29608
G1 F480 X24.513 Y128.296 E12.75856
G1 X24.802 Y128.313 E12.76592
G1 X25.062 Y128.357 E12.77263
G1 X25.32 Y128.431 E12.77946
G1 X25.573 Y128.537 E12.78643
G1 X25.807 Y128.667 E12.79324
G1 X25.911 Y128.736 E12.79642
G1 X26.134 Y128.914 E12.80367
G1 X26.212 Y128.989 E12.80643
G1 X26.407 Y129.207 E12.81387
G1 X26.557 Y129.419 E12.82047
G1 X26.679 Y129.634 E12.82676
G1 X26.797 Y129.919 E12.8346
G1 X26.863 Y130.15 E12.84072
G1 X26.913 Y130.444 E12.8483
G1 X26.922 Y130.557 E12.85118
G1 X26.918 Y137.998 E13.04044
G1 X26.918 Y138.201 E13.0456
G1 X26.917 Y138.531 E13.054
G1 X26.916 Y138.865 E13.06249
G1 X26.915 Y139.186 E13.07066
G1 X26.914 Y139.368 E13.07529
G1 X26.914 Y139.411 E13.07638
G1 X26.909 Y144.175 E13.19755
G1 X26.891 Y144.611 E13.20865
G1 X26.844 Y144.992 E13.21841
G1 X26.805 Y145.206 E13.22395
G1 X26.707 Y145.591 E13.23405
G1 X26.653 Y145.76 E13.23856
G1 X26.494 Y146.167 E13.24968
G1 X26.324 Y146.514 E13.25951
G1 X26.12 Y146.859 E13.2697
G1 X25.874 Y147.203 E13.28046
G1 X25.609 Y147.517 E13.29091
G1 X25.317 Y147.808 E13.30139
G1 X25.172 Y147.935 E13.30629
G1 X24.841 Y148.192 E13.31695
G1 X24.516 Y148.402 E13.32679
G1 X24.322 Y148.512 E13.33247
G1 X23.966 Y148.685 E13.34253
G1 X23.604 Y148.826 E13.35241
G1 X23.195 Y148.946 E13.36326
G1 X22.998 Y148.992 E13.3684
G1 X22.607 Y149.055 E13.37847
G1 X22.408 Y149.076 E13.38356
G1 X21.99 Y149.093 E13.3942
G1 X17.199 Y149.088 E13.51606
G1 X17.082 Y149.088 E13.51904
G1 X16.754 Y149.087 E13.52738
G1 X16.421 Y149.086 E13.53585
G1 X16.098 Y149.085 E13.54407
G1 X15.914 Y149.084 E13.54875
G1 X15.797 Y149.084 E13.55172
G1 X8.368 Y149.071 E13.74067
G1 X8.103 Y149.041 E13.74746
G1 X7.84 Y148.981 E13.75432
G1 X7.574 Y148.887 E13.76149
G1 X7.36 Y148.784 E13.76753
G1 X7.106 Y148.623 E13.77518
G1 X6.892 Y148.452 E13.78215
G1 X6.821 Y148.384 E13.78465
G1 X6.612 Y148.15 E13.79263
G1 X6.554 Y148.072 E13.7951
G1 X6.407 Y147.837 E13.80215
G1 X6.29 Y147.595 E13.80899
G1 X6.202 Y147.347 E13.81568
G1 X6.14 Y147.068 E13.82295
G1 X6.12 Y146.926 E13.8266
G1 X6.106 Y146.672 E13.83307
G1 X6.13 Y128.472 E14.29598
G1 X6.13 Y128.272 E14.30107
G1 X6.33 Y128.272 E14.30436
G0 F2800 X6.33 Y128.372
G0 X13.204 Y135.213
G0 X13.272 Y135.285
G1 F480 X12.98 Y135.588 E14.31506
G1 X12.72 Y135.913 E14.32565
G1 X12.593 Y136.098 E14.33136
G1 X12.38 Y136.453 E14.34189
G1 X12.199 Y136.827 E14.35245
G1 X12.115 Y137.035 E14.35816
G1 X11.989 Y137.424 E14.36856
G1 X11.934 Y137.64 E14.37423
G1 X11.859 Y138.048 E14.38478
G1 X11.82 Y138.469 E14.39553
G1 X11.82 Y138.892 E14.40629
G1 X11.858 Y139.311 E14.41699
G1 X11.932 Y139.725 E14.42769
G1 X12.044 Y140.133 E14.43845
G1 X12.192 Y140.528 E14.44918
G1 X12.373 Y140.908 E14.45989
G1 X12.591 Y141.27 E14.47063
G1 X12.837 Y141.612 E14.48135
G1 X13.11 Y141.924 E14.49189
G1 X13.269 Y142.084 E14.49763
G1 X13.58 Y142.357 E14.50816
G1 X13.921 Y142.606 E14.51889
G1 X14.284 Y142.822 E14.52964
G1 X14.657 Y143.003 E14.54018
G1 X14.866 Y143.087 E14.54591
G1 X15.271 Y143.219 E14.55675
G1 X15.667 Y143.309 E14.56708
G1 X15.684 Y143.312 E14.56751
G1 X15.818 Y143.33 E14.57095
G1 X16.101 Y143.368 E14.57822
G1 X16.435 Y143.382 E14.58672
G1 X16.522 Y143.386 E14.58893
G1 X16.748 Y143.376 E14.59469
G1 X16.945 Y143.367 E14.5997
G1 X17.038 Y143.355 E14.60209
G1 X17.209 Y143.331 E14.60648
G1 X17.356 Y143.31 E14.61026
G1 X17.358 Y143.31 E14.61031
G1 X17.575 Y143.264 E14.61595
G1 X17.973 Y143.154 E14.62645
G1 X18.369 Y143.006 E14.63721
G1 X18.749 Y142.822 E14.64794
G1 X19.112 Y142.605 E14.6587
G1 X19.445 Y142.361 E14.6692
G1 X19.612 Y142.223 E14.67471
G1 X19.775 Y142.073 E14.68034
G1 X20.055 Y141.779 E14.69067
G1 X20.199 Y141.607 E14.69638
G1 X20.443 Y141.27 E14.70696
G1 X20.659 Y140.907 E14.7177
G1 X20.837 Y140.534 E14.72821
G1 X20.921 Y140.325 E14.73394
G1 X21.044 Y139.947 E14.74405
G1 X21.098 Y139.731 E14.74972
G1 X21.138 Y139.515 E14.7553
G1 X21.173 Y139.323 E14.76027
G1 X21.187 Y139.164 E14.76433
G1 X21.212 Y138.903 E14.771
G1 X21.212 Y138.859 E14.77212
G1 X21.212 Y138.525 E14.78061
G1 X21.212 Y138.481 E14.78173
G1 X21.19 Y138.228 E14.78819
G1 X21.175 Y138.06 E14.79248
G1 X21.149 Y137.914 E14.79625
G1 X21.1 Y137.645 E14.80321
G1 X20.988 Y137.239 E14.81392
G1 X20.84 Y136.844 E14.82465
G1 X20.659 Y136.463 E14.83537
G1 X20.442 Y136.101 E14.84611
G1 X20.195 Y135.759 E14.85684
G1 X19.917 Y135.441 E14.86758
G1 X19.613 Y135.15 E14.87829
G1 X19.289 Y134.89 E14.88885
G1 X19.104 Y134.763 E14.89456
G1 X18.754 Y134.553 E14.90494
G1 X18.555 Y134.451 E14.91063
G1 X18.174 Y134.287 E14.92118
G1 X17.772 Y134.156 E14.93193
G1 X17.367 Y134.063 E14.9425
G1 X17.147 Y134.029 E14.94816
G1 X16.733 Y133.99 E14.95874
G1 X16.311 Y133.99 E14.96947
G1 X15.892 Y134.027 E14.98017
G1 X15.476 Y134.101 E14.99092
G1 X15.069 Y134.214 E15.00166
G1 X14.673 Y134.362 E15.01242
G1 X14.294 Y134.543 E15.0231
G1 X13.932 Y134.76 E15.03383
G1 X13.59 Y135.007 E15.04456
G1 X13.272 Y135.285 E15.05531
G0 F2800 X13.204 Y135.213
G0 X14.276 Y134.508
G0 X15.468 Y134.062
G0 X16.734 Y133.951
G0 X17.782 Y134.118
G0 X18.773 Y134.519
G0 X19.639 Y135.12
G0 X20.475 Y136.079
G0 X21.459 Y137.83
G0 X21.553 Y137.863
G1 F480 X21.545 Y137.888 E15.05597
G1 X21.502 Y138.031 E15.05916
G1 X21.479 Y138.13 E15.06054
G1 X21.462 Y138.204 E15.06163
G1 X21.423 Y138.509 E15.06359
G1 X21.42 Y138.525
G1 X21.42 Y138.859 E15.06457
G1 X21.422 Y138.875
G1 X21.462 Y139.189 E15.0666
G1 X21.476 Y139.243
G1 X21.525 Y139.432 E15.07104
G1 X21.546 Y139.511 E15.07312
G1 X21.671 Y139.822 E15.08165
G1 X21.835 Y140.112 E15.09012
G1 X22.034 Y140.378 E15.09857
G1 X22.265 Y140.619 E15.10706
G1 X22.518 Y140.821 E15.1153
G1 X22.673 Y140.922 E15.12
G1 X22.96 Y141.072 E15.12824
G1 X23.274 Y141.188 E15.13675
G1 X23.587 Y141.26 E15.14492
G1 X23.764 Y141.284 E15.14946
G1 X23.94 Y141.294 E15.15395
G1 X24.262 Y141.284 E15.16214
G1 X24.592 Y141.232 E15.17064
G1 X24.911 Y141.137 E15.1791
G1 X25.206 Y141.007 E15.1873
G1 X25.369 Y140.917 E15.19204
G1 X25.628 Y140.735 E15.20009
G1 X25.769 Y140.616 E15.20478
G1 X25.994 Y140.383 E15.21302
G1 X26.188 Y140.126 E15.22121
G1 X26.285 Y139.966 E15.22597
G1 X26.426 Y139.674 E15.23422
G1 X26.515 Y139.408 E15.24135
G1 X26.528 Y139.368 E15.2424
G1 X26.57 Y139.186 E15.24658
G1 X26.612 Y138.865 E15.25337
G1 X26.612 Y138.531 E15.25984
G1 X26.57 Y138.201 E15.26675
G1 X26.519 Y138.005 E15.27157
G1 X26.486 Y137.877 E15.27493
G1 X26.361 Y137.57 E15.28336
G1 X26.198 Y137.278 E15.29187
G1 X25.999 Y137.013 E15.3003
G1 X25.768 Y136.771 E15.30881
G1 X25.514 Y136.569 E15.31706
G1 X25.359 Y136.468 E15.32177
G1 X25.073 Y136.318 E15.32998
G1 X24.759 Y136.202 E15.3385
G1 X24.434 Y136.128 E15.34697
G1 X24.103 Y136.095 E15.35543
G1 X23.769 Y136.106 E15.36393
G1 X23.44 Y136.159 E15.37241
G1 X23.121 Y136.253 E15.38087
G1 X22.816 Y136.388 E15.38935
G1 X22.532 Y136.559 E15.39778
G1 X22.269 Y136.767 E15.40631
G1 X22.038 Y137.007 E15.41478
G1 X21.838 Y137.273 E15.42325
G1 X21.673 Y137.565 E15.43178
G1 X21.553 Y137.863 E15.43995
G0 F2800 X21.459 Y137.83
G0 X21.082 Y139.958
G0 X20.694 Y140.925
G0 X20.084 Y141.805
G0 X17.91 Y143.878
G0 X17.859 Y143.963
G1 F480 X17.563 Y143.809 E15.44844
G1 X17.261 Y143.697 E15.45663
G1 X17.259 Y143.696 E15.45669
G1 X17.079 Y143.648 E15.46008
G1 X16.906 Y143.621
G1 X16.758 Y143.597 E15.46072
G1 X16.516 Y143.589 E15.46173
G1 X16.426 Y143.586
G1 X16.124 Y143.615 E15.46309
G1 X16.094 Y143.618
G1 X15.769 Y143.692 E15.46939
G1 X15.753 Y143.698 E15.46982
G1 X15.456 Y143.806 E15.47786
G1 X15.161 Y143.96 E15.48632
