; generated by Slic3r 1.1.4 on 2014-10-31 at 12:44:14

; perimeters extrusion width = 0.32mm
; infill extrusion width = 0.34mm
; solid infill extrusion width = 0.32mm
; top infill extrusion width = 0.30mm

G21 ; set units to millimeters
M301 P34 I4 D113     ; set PID nozzle
M304 P162 I17 D378 ; set PID Bed

M104 S245                 ; set extruder temp
M140 S110                 ; set bed temp

G28                       ; home
G1 Z5 F300                ; move bed down 5mm
M84                       ; disable steppers
G4 S300                   ; wait 5 mins to preheat

G28                            ; home
G90 ; use absolute coordinates
G92 E0
M82 ; use absolute distances for extrusion
G1 F1500.000 E-1.80000
G92 E0
G1 Z0.286 F9300.000
G1 X59.461 Y148.610 F9300.000
G1 E1.80000 F1500.000
G1 X59.886 Y148.226 E1.80957 F3060.000
G1 X60.328 Y147.861 E1.81916
G1 X60.785 Y147.516 E1.82874
G1 X61.257 Y147.192 E1.83831
G1 X61.744 Y146.889 E1.84791
G1 X62.244 Y146.609 E1.85749
G1 X62.756 Y146.351 E1.86707
G1 X63.278 Y146.117 E1.87665
G1 X63.810 Y145.907 E1.88622
G1 X64.352 Y145.720 E1.89580
G1 X64.902 Y145.558 E1.90540
G1 X65.458 Y145.420 E1.91497
G1 X66.020 Y145.308 E1.92456
G1 X66.586 Y145.221 E1.93413
G1 X67.155 Y145.160 E1.94370
G1 X67.727 Y145.124 E1.95329
G1 X115.823 Y145.114 E2.75766
G1 X116.396 Y145.130 E2.76724
G1 X116.967 Y145.171 E2.77682
G1 X117.535 Y145.238 E2.78638
G1 X118.102 Y145.330 E2.79599
G1 X118.663 Y145.448 E2.80557
G1 X119.217 Y145.591 E2.81515
G1 X119.772 Y145.761 E2.82485
G1 X120.305 Y145.950 E2.83431
G1 X120.836 Y146.166 E2.84390
G1 X121.356 Y146.405 E2.85348
G1 X121.872 Y146.672 E2.86318
G1 X122.362 Y146.953 E2.87264
G1 X122.845 Y147.260 E2.88220
G1 X123.314 Y147.588 E2.89177
G1 X123.769 Y147.938 E2.90138
G1 X124.208 Y148.307 E2.91097
G1 X124.628 Y148.696 E2.92055
G1 X125.032 Y149.103 E2.93013
G1 X125.416 Y149.527 E2.93970
G1 X125.780 Y149.968 E2.94925
G1 X126.126 Y150.427 E2.95887
G1 X126.449 Y150.899 E2.96844
G1 X126.752 Y151.386 E2.97804
G1 X127.033 Y151.886 E2.98762
G1 X127.290 Y152.396 E2.99717
G1 X127.524 Y152.918 E3.00675
G1 X127.735 Y153.453 E3.01636
G1 X127.922 Y153.994 E3.02593
G1 X128.084 Y154.544 E3.03552
G1 X128.221 Y155.100 E3.04510
G1 X128.333 Y155.660 E3.05466
G1 X128.420 Y156.228 E3.06427
G1 X128.482 Y156.805 E3.07398
G1 X128.518 Y157.370 E3.08344
G1 X128.528 Y157.943 E3.09302
G1 X128.512 Y158.515 E3.10260
G1 X128.471 Y159.087 E3.11218
G1 X128.334 Y160.094 E3.12917
G1 X128.194 Y160.782 E3.14092
G1 X128.051 Y161.337 E3.15050
G1 X127.884 Y161.885 E3.16008
G1 X127.527 Y162.836 E3.17707
G1 X127.236 Y163.476 E3.18883
G1 X126.974 Y163.985 E3.19841
G1 X126.689 Y164.482 E3.20799
G1 X126.094 Y165.380 E3.22601
G1 X102.740 Y197.674 E3.89252
G1 X102.390 Y198.128 E3.90210
G1 X102.021 Y198.566 E3.91168
G1 X101.632 Y198.987 E3.92127
G1 X101.225 Y199.390 E3.93085
G1 X100.801 Y199.774 E3.94043
G1 X100.359 Y200.139 E3.95001
G1 X99.538 Y200.736 E3.96699
G1 X98.942 Y201.111 E3.97875
G1 X98.443 Y201.391 E3.98834
G1 X97.931 Y201.649 E3.99792
G1 X97.408 Y201.883 E4.00750
G1 X96.875 Y202.094 E4.01708
G1 X96.334 Y202.280 E4.02666
G1 X95.784 Y202.442 E4.03624
G1 X95.228 Y202.580 E4.04583
G1 X94.666 Y202.692 E4.05540
G1 X94.100 Y202.779 E4.06499
G1 X93.530 Y202.840 E4.07457
G1 X92.959 Y202.876 E4.08415
G1 X92.386 Y202.886 E4.09373
G1 X91.373 Y202.841 E4.11068
G1 X90.763 Y202.775 E4.12095
G1 X90.107 Y202.670 E4.13205
G1 X89.546 Y202.552 E4.14164
G1 X88.991 Y202.409 E4.15122
G1 X88.444 Y202.242 E4.16080
G1 X87.491 Y201.885 E4.17781
G1 X86.853 Y201.595 E4.18954
G1 X86.343 Y201.332 E4.19912
G1 X85.847 Y201.047 E4.20870
G1 X85.363 Y200.740 E4.21829
G1 X84.894 Y200.411 E4.22787
G1 X84.100 Y199.779 E4.24484
G1 X83.580 Y199.304 E4.25661
G1 X83.177 Y198.897 E4.26619
G1 X82.793 Y198.472 E4.27577
G1 X82.428 Y198.031 E4.28535
G1 X57.874 Y165.334 E4.96920
G1 X57.550 Y164.862 E4.97878
G1 X57.248 Y164.375 E4.98836
G1 X56.967 Y163.876 E4.99794
G1 X56.710 Y163.364 E5.00752
G1 X56.475 Y162.841 E5.01710
G1 X56.265 Y162.308 E5.02669
G1 X56.078 Y161.767 E5.03627
G1 X55.916 Y161.217 E5.04585
G1 X55.779 Y160.661 E5.05543
G1 X55.666 Y160.099 E5.06501
G1 X55.580 Y159.533 E5.07459
G1 X55.518 Y158.963 E5.08417
G1 X55.482 Y158.391 E5.09376
G1 X55.472 Y157.818 E5.10334
G1 X55.488 Y157.246 E5.11292
G1 X55.529 Y156.674 E5.12250
G1 X55.596 Y156.106 E5.13207
G1 X55.689 Y155.540 E5.14167
G1 X55.806 Y154.980 E5.15124
G1 X55.949 Y154.424 E5.16083
G1 X56.116 Y153.877 E5.17041
G1 X56.308 Y153.338 E5.17997
G1 X56.527 Y152.799 E5.18970
G1 X56.763 Y152.286 E5.19914
G1 X57.026 Y151.777 E5.20873
G1 X57.311 Y151.279 E5.21832
G1 X57.618 Y150.797 E5.22788
G1 X57.951 Y150.321 E5.23760
G1 X58.296 Y149.872 E5.24706
G1 X58.664 Y149.436 E5.25661
G1 X59.408 Y148.663 E5.27455
G1 X59.720 Y148.893 F9300.000
G1 X60.560 Y148.166 E5.29313 F3060.000
G1 X61.461 Y147.517 E5.31170
G1 X62.418 Y146.951 E5.33030
G1 X63.421 Y146.473 E5.34888
G1 X64.462 Y146.087 E5.36744
G1 X65.535 Y145.796 E5.38604
G1 X66.629 Y145.603 E5.40462
G1 X67.736 Y145.508 E5.42320
G1 X115.815 Y145.498 E6.22728
G1 X116.924 Y145.552 E6.24586
G1 X118.025 Y145.706 E6.26444
G1 X119.107 Y145.958 E6.28303
G1 X119.639 Y146.120 E6.29232
G1 X120.677 Y146.515 E6.31090
G1 X121.182 Y146.747 E6.32020
G1 X121.683 Y147.005 E6.32961
G1 X122.627 Y147.575 E6.34806
G1 X123.082 Y147.893 E6.35734
G1 X123.949 Y148.591 E6.37595
G1 X124.357 Y148.967 E6.38524
G1 X125.121 Y149.773 E6.40382
G1 X125.475 Y150.200 E6.41309
G1 X125.811 Y150.645 E6.42241
G1 X126.129 Y151.110 E6.43183
G1 X126.691 Y152.060 E6.45029
G1 X127.168 Y153.062 E6.46885
G1 X127.373 Y153.580 E6.47817
G1 X127.712 Y154.638 E6.49675
G1 X127.954 Y155.720 E6.51530
G1 X128.039 Y156.271 E6.52463
G1 X128.100 Y156.831 E6.53404
G1 X128.144 Y157.934 E6.55250
G1 X128.090 Y159.044 E6.57109
G1 X127.956 Y160.034 E6.58779
G1 X127.822 Y160.688 E6.59896
G1 X127.522 Y161.758 E6.61755
G1 X127.171 Y162.693 E6.63424
G1 X126.895 Y163.302 E6.64542
G1 X126.364 Y164.278 E6.66401
G1 X125.783 Y165.155 E6.68161
G1 X102.434 Y197.441 E7.34797
G1 X101.813 Y198.221 E7.36465
G1 X101.361 Y198.716 E7.37584
G1 X100.555 Y199.480 E7.39443
G1 X100.127 Y199.834 E7.40372
G1 X99.319 Y200.421 E7.42041
G1 X98.753 Y200.777 E7.43160
G1 X98.269 Y201.049 E7.44089
G1 X97.265 Y201.527 E7.45948
G1 X96.331 Y201.878 E7.47617
G1 X95.691 Y202.070 E7.48735
G1 X94.606 Y202.313 E7.50593
G1 X93.505 Y202.457 E7.52452
G1 X92.950 Y202.492 E7.53381
G1 X91.950 Y202.492 E7.55054
G1 X91.399 Y202.458 E7.55976
G1 X90.810 Y202.394 E7.56967
G1 X90.184 Y202.294 E7.58027
G1 X89.640 Y202.180 E7.58957
G1 X88.678 Y201.915 E7.60626
G1 X88.047 Y201.694 E7.61745
G1 X87.027 Y201.253 E7.63603
G1 X86.051 Y200.722 E7.65461
G1 X85.581 Y200.424 E7.66391
G1 X84.774 Y199.838 E7.68059
G1 X84.260 Y199.409 E7.69179
G1 X83.852 Y199.033 E7.70108
G1 X83.087 Y198.226 E7.71966
G1 X82.452 Y197.429 E7.73672
G1 X58.189 Y165.116 E8.41251
G1 X57.581 Y164.186 E8.43109
G1 X57.059 Y163.205 E8.44967
G1 X56.627 Y162.182 E8.46826
G1 X56.288 Y161.123 E8.48684
G1 X56.045 Y160.039 E8.50542
G1 X55.961 Y159.490 E8.51471
G1 X55.866 Y158.383 E8.53330
G1 X55.856 Y157.827 E8.54259
G1 X55.910 Y156.717 E8.56117
G1 X56.064 Y155.617 E8.57976
G1 X56.316 Y154.535 E8.59834
G1 X56.664 Y153.480 E8.61691
G1 X56.876 Y152.958 E8.62634
G1 X57.360 Y151.966 E8.64479
G1 X57.933 Y151.015 E8.66337
G1 X58.257 Y150.553 E8.67280
G1 X58.948 Y149.694 E8.69123
G1 X59.667 Y148.946 E8.70859
G1 F1500.000 E6.90859
G92 E0
G1 X98.911 Y197.518 F9300.000
G1 E1.80000 F1500.000
M204 S1500
G1 X98.222 Y198.067 E1.81475 F3442.500
G1 X97.486 Y198.553 E1.82949
G1 X96.710 Y198.971 E1.84423
G1 X95.900 Y199.317 E1.85897
G1 X95.061 Y199.589 E1.87372
G1 X94.634 Y199.697 E1.88109
G1 X93.766 Y199.855 E1.89583
G1 X92.888 Y199.934 E1.91057
G1 X92.007 Y199.934 E1.92532
G1 X91.129 Y199.855 E1.94006
G1 X90.262 Y199.697 E1.95480
G1 X89.834 Y199.589 E1.96217
G1 X88.996 Y199.317 E1.97692
G1 X88.185 Y198.971 E1.99166
G1 X87.409 Y198.553 E2.00640
G1 X86.673 Y198.067 E2.02114
G1 X85.984 Y197.518 E2.03589
G1 X85.347 Y196.908 E2.05063
G1 X85.050 Y196.583 E2.05800
G1 X84.767 Y196.245 E2.06538
G1 X84.249 Y195.532 E2.08012
G1 X83.797 Y194.775 E2.09486
G1 X83.414 Y193.980 E2.10961
G1 X83.105 Y193.155 E2.12434
G1 X82.870 Y192.305 E2.13909
G1 X82.713 Y191.438 E2.15383
G1 X82.634 Y190.560 E2.16857
G1 X82.634 Y189.679 E2.18331
G1 X82.713 Y188.801 E2.19806
G1 X82.870 Y187.933 E2.21280
G1 X82.978 Y187.506 E2.22017
G1 X83.250 Y186.668 E2.23491
G1 X83.597 Y185.857 E2.24966
G1 X84.014 Y185.081 E2.26440
G1 X84.500 Y184.345 E2.27914
G1 X84.767 Y183.994 E2.28652
G1 X85.347 Y183.330 E2.30126
G1 X85.984 Y182.721 E2.31600
G1 X86.673 Y182.172 E2.33074
G1 X87.036 Y181.920 E2.33812
G1 X87.792 Y181.468 E2.35286
G1 X88.587 Y181.086 E2.36761
G1 X89.412 Y180.776 E2.38235
G1 X90.262 Y180.542 E2.39709
G1 X91.129 Y180.384 E2.41183
G1 X91.567 Y180.335 E2.41921
G1 X92.448 Y180.295 E2.43395
G1 X93.328 Y180.335 E2.44869
G1 X94.202 Y180.453 E2.46343
G1 X95.061 Y180.649 E2.47817
G1 X95.484 Y180.776 E2.48555
G1 X96.309 Y181.086 E2.50029
G1 X97.103 Y181.468 E2.51503
G1 X97.860 Y181.921 E2.52978
G1 X98.573 Y182.439 E2.54452
G1 X99.237 Y183.019 E2.55926
G1 X99.846 Y183.656 E2.57400
G1 X100.396 Y184.345 E2.58875
G1 X100.881 Y185.081 E2.60349
G1 X101.299 Y185.857 E2.61823
G1 X101.645 Y186.667 E2.63297
G1 X101.918 Y187.506 E2.64772
G1 X102.114 Y188.365 E2.66246
G1 X102.183 Y188.801 E2.66983
G1 X102.262 Y189.679 E2.68458
G1 X102.262 Y190.560 E2.69932
G1 X102.183 Y191.438 E2.71406
G1 X102.114 Y191.874 E2.72143
G1 X101.918 Y192.733 E2.73617
G1 X101.645 Y193.571 E2.75092
G1 X101.299 Y194.382 E2.76566
G1 X100.881 Y195.158 E2.78041
G1 X100.396 Y195.894 E2.79515
G1 X99.846 Y196.583 E2.80989
G1 X99.549 Y196.908 E2.81726
G1 X98.967 Y197.467 E2.83075
M204 S900
G1 X98.441 Y197.349 F9300.000
G1 X98.659 Y197.229 F9300.000
M204 S1500
G1 X97.997 Y197.757 E2.84492 F4590.000
G1 X97.290 Y198.224 E2.85908
G1 X96.544 Y198.625 E2.87325
G1 X95.765 Y198.958 E2.88742
G1 X94.959 Y199.220 E2.90158
G1 X94.548 Y199.323 E2.90867
G1 X93.715 Y199.474 E2.92284
G1 X92.871 Y199.550 E2.93700
G1 X92.024 Y199.550 E2.95117
G1 X91.180 Y199.474 E2.96534
G1 X90.347 Y199.323 E2.97950
G1 X89.936 Y199.220 E2.98659
G1 X89.131 Y198.958 E3.00076
G1 X88.352 Y198.625 E3.01492
G1 X87.606 Y198.223 E3.02909
G1 X86.899 Y197.757 E3.04326
G1 X86.237 Y197.229 E3.05742
G1 X85.624 Y196.643 E3.07159
G1 X85.338 Y196.331 E3.07867
G1 X85.067 Y196.005 E3.08576
G1 X84.569 Y195.320 E3.09993
G1 X84.135 Y194.593 E3.11409
G1 X83.767 Y193.830 E3.12826
G1 X83.469 Y193.037 E3.14242
G1 X83.244 Y192.220 E3.15659
G1 X83.093 Y191.387 E3.17076
G1 X83.017 Y190.543 E3.18493
G1 X83.017 Y189.696 E3.19909
G1 X83.093 Y188.852 E3.21326
G1 X83.244 Y188.019 E3.22743
G1 X83.348 Y187.608 E3.23451
G1 X83.609 Y186.802 E3.24868
G1 X83.942 Y186.023 E3.26285
G1 X84.344 Y185.278 E3.27701
G1 X84.810 Y184.571 E3.29118
G1 X85.067 Y184.233 E3.29826
G1 X85.624 Y183.596 E3.31243
G1 X86.237 Y183.010 E3.32660
G1 X86.899 Y182.482 E3.34076
G1 X87.247 Y182.241 E3.34785
G1 X87.974 Y181.806 E3.36202
G1 X88.738 Y181.439 E3.37619
G1 X89.531 Y181.141 E3.39035
G1 X90.347 Y180.916 E3.40452
G1 X91.180 Y180.764 E3.41868
G1 X91.602 Y180.717 E3.42577
G1 X92.448 Y180.679 E3.43994
G1 X93.294 Y180.717 E3.45410
G1 X94.133 Y180.831 E3.46827
G1 X94.959 Y181.019 E3.48244
G1 X95.365 Y181.141 E3.48952
G1 X96.158 Y181.439 E3.50369
G1 X96.921 Y181.806 E3.51786
G1 X97.648 Y182.241 E3.53202
G1 X98.334 Y182.739 E3.54619
G1 X98.972 Y183.296 E3.56036
G1 X99.557 Y183.908 E3.57452
G1 X100.085 Y184.570 E3.58869
G1 X100.552 Y185.277 E3.60285
G1 X100.953 Y186.023 E3.61702
G1 X101.286 Y186.802 E3.63119
G1 X101.548 Y187.608 E3.64536
G1 X101.736 Y188.434 E3.65952
G1 X101.803 Y188.852 E3.66661
G1 X101.879 Y189.696 E3.68078
G1 X101.879 Y190.543 E3.69494
G1 X101.803 Y191.387 E3.70911
G1 X101.736 Y191.805 E3.71620
G1 X101.548 Y192.631 E3.73036
G1 X101.286 Y193.437 E3.74453
G1 X100.953 Y194.215 E3.75869
G1 X100.552 Y194.961 E3.77286
G1 X100.085 Y195.668 E3.78703
G1 X99.557 Y196.331 E3.80119
G1 X99.271 Y196.643 E3.80828
G1 X98.714 Y197.178 E3.82119
M204 S900
G1 F1500.000 E2.02119
G92 E0
G1 X95.724 Y196.845 F9300.000
G1 E1.80000 F1500.000
M204 S1500
G1 X89.172 Y196.845 E1.90957 F3442.500
G1 X89.172 Y193.594 E1.96396
G1 X95.724 Y193.594 E2.07353
G1 X95.724 Y196.770 E2.12666
M204 S900
G1 X95.724 Y197.345 F9300.000
G1 F1500.000 E0.32666
G92 E0
G1 X93.646 Y192.568 F9300.000
G1 E1.80000 F1500.000
M204 S1500
G1 X93.198 Y192.740 E1.80802 F3442.500
G1 X92.727 Y192.831 E1.81604
G1 X92.248 Y192.838 E1.82407
G1 X91.931 Y192.796 E1.82942
G1 X91.621 Y192.717 E1.83476
G1 X91.178 Y192.532 E1.84279
G1 X90.775 Y192.272 E1.85081
G1 X90.424 Y191.945 E1.85883
G1 X90.224 Y191.696 E1.86418
G1 X90.054 Y191.424 E1.86953
G1 X89.863 Y190.985 E1.87755
G1 X89.779 Y190.676 E1.88290
G1 X89.732 Y190.359 E1.88825
G1 X89.732 Y189.880 E1.89627
G1 X89.779 Y189.563 E1.90163
G1 X89.863 Y189.254 E1.90698
G1 X90.054 Y188.815 E1.91500
G1 X90.224 Y188.543 E1.92035
G1 X90.424 Y188.293 E1.92570
G1 X90.775 Y187.967 E1.93372
G1 X91.178 Y187.707 E1.94174
G1 X91.470 Y187.575 E1.94709
G1 X91.775 Y187.478 E1.95245
G1 X92.248 Y187.401 E1.96047
G1 X92.727 Y187.408 E1.96849
G1 X93.043 Y187.459 E1.97383
G1 X93.351 Y187.547 E1.97919
G1 X93.788 Y187.745 E1.98721
G1 X94.183 Y188.017 E1.99523
G1 X94.525 Y188.354 E2.00325
G1 X94.717 Y188.609 E2.00860
G1 X94.878 Y188.885 E2.01395
G1 X95.057 Y189.330 E2.02197
G1 X95.155 Y189.800 E2.02999
G1 X95.169 Y190.279 E2.03801
G1 X95.132 Y190.597 E2.04337
G1 X95.057 Y190.908 E2.04872
G1 X94.947 Y191.209 E2.05407
G1 X94.802 Y191.494 E2.05942
G1 X94.525 Y191.885 E2.06744
G1 X94.183 Y192.222 E2.07546
G1 X93.925 Y192.411 E2.08081
G1 X93.712 Y192.533 E2.08491
M204 S900
G1 X93.259 Y192.285 F9300.000
G1 X93.693 Y192.968 F9300.000
M204 S1500
G1 X93.745 Y193.210 E2.08905 F4590.000
G1 X96.107 Y193.210 E2.12856
G1 X96.107 Y197.229 E2.19577
G1 X88.788 Y197.229 E2.31817
G1 X88.788 Y193.210 E2.38539
G1 X91.151 Y193.210 E2.42490
G1 X91.206 Y192.972 E2.42898
G1 X90.841 Y192.782 E2.43587
G1 X90.399 Y192.458 E2.44503
G1 X90.021 Y192.063 E2.45417
G1 X89.717 Y191.608 E2.46332
G1 X89.562 Y191.278 E2.46943
G1 X89.446 Y190.932 E2.47553
G1 X89.350 Y190.393 E2.48468
G1 X89.339 Y190.028 E2.49079
G1 X89.372 Y189.664 E2.49689
G1 X89.499 Y189.132 E2.50604
G1 X89.635 Y188.794 E2.51214
G1 X89.809 Y188.473 E2.51825
G1 X90.139 Y188.036 E2.52740
G1 X90.399 Y187.780 E2.53350
G1 X90.687 Y187.556 E2.53961
G1 X91.163 Y187.287 E2.54876
G1 X91.680 Y187.106 E2.55791
G1 X92.220 Y187.018 E2.56706
G1 X92.767 Y187.026 E2.57621
G1 X93.127 Y187.085 E2.58231
G1 X93.478 Y187.185 E2.58842
G1 X93.815 Y187.326 E2.59452
G1 X94.132 Y187.506 E2.60062
G1 X94.565 Y187.841 E2.60978
G1 X94.931 Y188.248 E2.61893
G1 X95.133 Y188.551 E2.62503
G1 X95.298 Y188.877 E2.63114
G1 X95.472 Y189.396 E2.64029
G1 X95.536 Y189.755 E2.64639
G1 X95.557 Y190.119 E2.65249
G1 X95.509 Y190.664 E2.66164
G1 X95.366 Y191.193 E2.67079
G1 X95.133 Y191.687 E2.67994
G1 X94.931 Y191.991 E2.68605
G1 X94.694 Y192.269 E2.69215
G1 X94.283 Y192.630 E2.70131
G1 X93.976 Y192.828 E2.70741
G1 X93.761 Y192.937 E2.71144
M204 S900
G1 X94.523 Y192.763 F9300.000
M204 S1400
G1 X94.792 Y192.952 E2.71695 F4590.000
G1 X95.472 Y192.952 E2.72831
G1 X94.824 Y192.499 E2.74152
M204 S900
G1 F1500.000 E0.94152
G92 E0
G1 X95.475 Y188.672 F9300.000
G1 E1.80000 F1500.000
M204 S1400
G1 X101.249 Y192.715 E1.91788 F4590.000
G1 X101.123 Y193.103 E1.92470
G1 X95.705 Y189.308 E2.03533
G1 X95.792 Y189.846 E2.04443
G1 X100.986 Y193.482 E2.15046
G1 X100.829 Y193.848 E2.15713
G1 X95.804 Y190.329 E2.25973
G1 X95.748 Y190.766 E2.26710
G1 X100.664 Y194.208 E2.36747
G1 X100.478 Y194.554 E2.37403
G1 X95.637 Y191.164 E2.47287
G1 X95.495 Y191.541 E2.47960
G1 X100.286 Y194.895 E2.57742
G1 X100.063 Y195.215 E2.58394
G1 X95.307 Y191.885 E2.68103
G1 X95.080 Y192.201 E2.68755
G1 X99.839 Y195.534 E2.78473
G1 X99.616 Y195.854 E2.79125
G1 X96.365 Y193.578 E2.85761
G1 X96.365 Y194.053 E2.86557
G1 X99.360 Y196.150 E2.92670
G1 X99.102 Y196.445 E2.93326
G1 X96.365 Y194.529 E2.98912
G1 X96.365 Y195.005 E2.99708
G1 X98.816 Y196.721 E3.04712
