;This Gcode has been generated specifically for the LulzBot Mini
;Basic settings: Layer height: 0.35 Walls: 1.5 Fill: 85
;Filament Diameter: 2.89
;Nozzle Size: 0.5
G21                          ; metric values
G90                          ; absolute positioning
M82                          ; set extruder to absolute mode
M107                         ; start with the fan off
G92 E0                       ; set extruder position to 0
M140 S110; get bed heating up
G28                          ; home all
M907 X675                    ; reduce extruder torque for safety
M109 S180                    ; set to cleaning temp and wait
G1 Z150 E-30 F55             ; suck up XXmm of filament
M109 S180                    ; heat up rest of way
G1 X45 Y174 F11520           ; move behind scraper
G1 Z0  F1200                 ; CRITICAL: set Z to height of top of scraper
G1 X45 Y174 Z-.5 F4000       ; wiping ; plunge into wipe pad
G1 X55 Y172 Z-.5 F4000       ; wiping
G1 X45 Y174 Z0 F4000         ; wiping
G1 X55 Y172 F4000            ; wiping
G1 X45 Y174 F4000            ; wiping
G1 X55 Y172 F4000            ; wiping
G1 X45 Y174 F4000            ; wiping
G1 X55 Y172 F4000            ; wiping
G1 X60 Y174 F4000            ; wiping
G1 X80 Y172 F4000            ; wiping
G1 X60 Y174 F4000            ; wiping
G1 X80 Y172 F4000            ; wiping
G1 X60 Y174 F4000            ; wiping
G1 X90 Y172 F4000            ; wiping
G1 X80 Y174 F4000            ; wiping
G1 X100 Y172 F4000           ; wiping
G1 X80 Y174 F4000            ; wiping
G1 X100 Y172 F4000           ; wiping
G1 X80 Y174 F4000            ; wiping
G1 X100 Y172 F4000           ; wiping
G1 X110 Y174 F4000           ; wiping
G1 X100 Y172 F4000           ; wiping
G1 X110 Y174 F4000           ; wiping
G1 X100 Y172 F4000           ; wiping
G1 X110 Y174 F4000           ; wiping
G1 X115 Y172 Z-0.5 F1000     ; wipe slower and bury noz in cleanish area
G1 Z10                       ; raise z
G28 X0 Y0                    ; home x and y
M109 S180                    ; set to probing temp
M204 S300                    ; Set probing acceleration
G29                          ; Probe
M204 S2000                   ; Restore standard acceleration
G1 X5 Y15 Z10 F5000          ; get out the way
G4 S1                        ; pause
M400                         ; clear buffer
M109 S250    ; set extruder temp and wait
G1 Z2 E0 F45                 ; extrude filament back into nozzle
M140 S110; get bed temping up during first layer

;Layer count: 80
;LAYER:0
M107
G0 F9900 X38.447 Y54.022 Z0.425
;TYPE:SKIRT
G1 F1200 X42.779 Y56.520 E0.20249
G1 X43.269 Y56.804 E0.22543
G1 X61.882 Y67.551 E1.09574
G1 X63.347 Y68.395 E1.16420
G1 X66.196 Y70.045 E1.29752
G1 X73.071 Y58.138 E1.85427
G1 X73.603 Y57.215 E1.89741
G1 X75.509 Y53.914 E2.05176
G1 X79.841 Y56.412 E2.25426
G1 X80.331 Y56.696 E2.27719
G1 X98.943 Y67.443 E3.14747
G1 X100.408 Y68.287 E3.21593
G1 X103.264 Y69.941 E3.34958
G1 X109.349 Y59.402 E3.84236
G1 X109.883 Y58.478 E3.88558
G1 X111.788 Y55.178 E4.03987
G1 X116.119 Y57.678 E4.24237
G1 X116.609 Y57.961 E4.26528
G1 X136.688 Y69.553 E5.20412
G1 X140.038 Y71.493 E5.36087
G1 X137.602 Y75.715 E5.55825
G1 X120.806 Y104.805 E6.91845
G1 X119.081 Y107.801 E7.05844
G1 X115.560 Y105.767 E7.22310
G1 X112.798 Y104.173 E7.35223
G1 X112.797 Y104.175 E7.35232
G1 X107.657 Y101.205 E7.59270
G1 X103.195 Y98.628 E7.80135
G1 X102.245 Y98.080 E7.84576
G1 X97.104 Y95.111 E8.08616
G1 X97.105 Y95.110 E8.08622
G1 X94.829 Y93.799 E8.19258
G1 X94.339 Y93.515 E8.21551
G1 X91.321 Y91.774 E8.35660
G1 X84.527 Y103.540 E8.90677
G1 X82.802 Y106.536 E9.04676
G1 X79.281 Y104.502 E9.21141
G1 X76.520 Y102.909 E9.34049
G1 X76.519 Y102.910 E9.34055
G1 X71.379 Y99.940 E9.58093
G1 X67.379 Y97.630 E9.76797
G1 X65.967 Y96.815 E9.83399
G1 X60.827 Y93.846 E10.07435
G1 X58.551 Y92.534 E10.18073
G1 X58.061 Y92.250 E10.20367
G1 X55.049 Y90.515 E10.34442
G1 X47.466 Y103.649 E10.95854
G1 X45.741 Y106.645 E11.09853
G1 X42.220 Y104.611 E11.26318
G1 X39.458 Y103.017 E11.39231
G1 X39.457 Y103.019 E11.39240
G1 X34.317 Y100.049 E11.63279
G1 X34.046 Y99.892 E11.64547
G1 X28.905 Y96.924 E11.88585
G1 X23.765 Y93.955 E12.12621
G1 X21.489 Y92.643 E12.23259
G1 X20.999 Y92.359 E12.25552
G1 X17.482 Y90.333 E12.41988
G1 X36.009 Y58.246 E13.92022
G1 X36.541 Y57.323 E13.96336
G1 X38.447 Y54.022 E14.11771
G1 F420 E12.11771
G1 Z0.725
G0 F9900 X40.339 Y60.739
;TYPE:WALL-INNER
G1 Z0.425
G1 F420 E14.11771
G1 F1200 X40.827 Y61.022 E14.14056
G1 X41.207 Y61.242 E14.15834
G1 X27.965 Y84.177 E15.23073
G1 X27.918 Y84.176 E15.23264
G1 X27.538 Y84.201 E15.24806
G1 X26.924 Y84.319 E15.27338
G1 X26.499 Y84.464 E15.29156
G1 X40.232 Y60.678 E16.40374
G1 X40.339 Y60.739 E16.40873
G0 F9900 X42.278 Y60.980
G0 X44.471 Y62.247
G0 X44.779 Y63.304
G1 F1200 X48.352 Y65.366 E16.57577
G1 X32.262 Y93.234 E17.87882
G1 X30.422 Y92.171 E17.96487
G1 X31.151 Y90.906 E18.02399
G1 X31.535 Y90.241 E18.05509
G1 X31.696 Y89.933 E18.06916
G1 X31.914 Y89.342 E18.09467
G1 X31.998 Y88.970 E18.11011
G1 X32.046 Y88.627 E18.12414
G1 X32.064 Y88.278 E18.13829
G1 X32.053 Y87.932 E18.15231
G1 X32.009 Y87.555 E18.16768
G1 X31.847 Y86.908 E18.19468
G1 X31.576 Y86.303 E18.22153
G1 X31.537 Y86.239 E18.22456
G1 X44.779 Y63.304 E19.29696
G0 F9900 X49.422 Y65.105
G0 X51.615 Y66.372
G0 X51.924 Y67.428
G1 F1200 X55.497 Y69.491 E19.46403
G1 X42.254 Y92.427 E20.53648
G1 X42.207 Y92.426 E20.53838
G1 X41.827 Y92.451 E20.55380
G1 X41.177 Y92.576 E20.58061
G1 X40.558 Y92.812 E20.60743
G1 X40.192 Y93.007 E20.62422
G1 X39.680 Y93.374 E20.64973
G1 X39.377 Y93.655 E20.66647
G1 X38.958 Y94.157 E20.69294
G1 X38.411 Y95.086 E20.73660
G1 X37.675 Y96.360 E20.79618
G1 X35.834 Y95.297 E20.88226
G1 X51.924 Y67.428 E22.18535
G0 F9900 X56.567 Y69.230
G0 X58.760 Y70.497
G0 X59.068 Y71.553
G1 F1200 X60.043 Y72.116 E22.23094
G1 X46.304 Y95.914 E23.34366
G1 X46.235 Y95.491 E23.36101
G1 X46.007 Y94.833 E23.38921
G1 X45.821 Y94.498 E23.40473
G1 X59.068 Y71.553 E24.47758
G0 F9900 X58.840 Y70.699
G1 F1200 X60.898 Y71.887 E24.57380
G1 X44.183 Y100.838 E25.92748
G1 X43.857 Y100.650 E25.94272
G1 X45.288 Y98.172 E26.05859
G1 X45.512 Y97.691 E26.08008
G1 X45.613 Y97.374 E26.09355
G1 X45.711 Y96.837 E26.11566
G1 X45.729 Y96.523 E26.12839
G1 X45.719 Y96.207 E26.14119
G1 X45.627 Y95.645 E26.16425
G1 X45.434 Y95.088 E26.18813
G1 X45.159 Y94.594 E26.21102
G1 X45.094 Y94.505 E26.21548
G1 X58.840 Y70.699 E27.32863
G0 F9900 X56.351 Y69.262
G1 F1200 X42.607 Y93.068 E28.44173
G1 X42.220 Y93.051 E28.45742
G1 X41.907 Y93.072 E28.47012
G1 X41.349 Y93.179 E28.49313
G1 X40.818 Y93.382 E28.51615
G1 X40.522 Y93.539 E28.52972
G1 X40.076 Y93.859 E28.55194
G1 X39.832 Y94.086 E28.56544
G1 X39.471 Y94.518 E28.58824
G1 X38.951 Y95.401 E28.62973
G1 X37.903 Y97.214 E28.71453
G1 X34.980 Y95.525 E28.85123
G1 X51.695 Y66.574 E30.20491
G1 X56.351 Y69.262 E30.42261
G0 F9900 X49.206 Y65.137
G1 F1200 X32.491 Y94.088 E31.77630
G1 X29.568 Y92.400 E31.91298
G1 X30.988 Y89.940 E32.02800
G1 X31.123 Y89.679 E32.03989
G1 X31.314 Y89.164 E32.06214
G1 X31.382 Y88.858 E32.07483
G1 X31.424 Y88.567 E32.08674
G1 X31.439 Y88.272 E32.09870
G1 X31.429 Y87.979 E32.11057
G1 X31.393 Y87.668 E32.12325
G1 X31.254 Y87.113 E32.14641
G1 X31.021 Y86.595 E32.16941
G1 X30.848 Y86.310 E32.18291
G1 X30.805 Y86.256 E32.18571
G1 X44.551 Y62.450 E33.29885
G1 X49.206 Y65.137 E33.51650
G0 F9900 X42.061 Y61.013
G1 F1200 X28.318 Y84.818 E34.62955
G1 X27.931 Y84.801 E34.64523
G1 X27.618 Y84.822 E34.65794
G1 X27.081 Y84.925 E34.68008
G1 X26.764 Y85.030 E34.69360
G1 X26.270 Y85.268 E34.71581
G1 X25.988 Y85.450 E34.72940
G1 X25.551 Y85.823 E34.75266
G1 X25.149 Y86.320 E34.77855
G1 X23.671 Y88.866 E34.89775
G1 X23.615 Y88.963 E34.90229
G1 X23.288 Y88.775 E34.91756
G1 X40.003 Y59.825 E36.27121
G1 X40.652 Y60.199 E36.30154
G1 X41.140 Y60.481 E36.32437
G1 X42.061 Y61.013 E36.36744
G0 F9900 X42.444 Y61.601
;TYPE:WALL-OUTER
G1 F1200 X28.644 Y85.503 E37.48504
G1 X28.425 Y85.458 E37.49409
G1 X28.184 Y85.432 E37.50391
G1 X27.944 Y85.427 E37.51363
G1 X27.698 Y85.443 E37.52361
G1 X27.239 Y85.531 E37.54254
G1 X26.998 Y85.611 E37.55282
G1 X26.577 Y85.813 E37.57173
G1 X26.363 Y85.952 E37.58206
G1 X26.001 Y86.261 E37.60133
G1 X25.665 Y86.675 E37.62292
G1 X23.844 Y89.817 E37.76998
G1 X22.434 Y89.004 E37.83589
G1 X39.774 Y58.971 E39.24017
G1 X61.751 Y71.659 E40.26775
G1 X44.412 Y101.692 E41.67201
G1 X43.003 Y100.879 E41.73788
G1 X44.733 Y97.883 E41.87798
G1 X44.928 Y97.464 E41.89669
G1 X45.005 Y97.222 E41.90697
G1 X45.089 Y96.763 E41.92587
G1 X45.103 Y96.516 E41.93589
G1 X45.095 Y96.268 E41.94593
G1 X45.019 Y95.799 E41.96517
G1 X44.861 Y95.344 E41.98468
G1 X44.631 Y94.931 E42.00382
G1 X44.486 Y94.731 E42.01382
G1 X44.340 Y94.563 E42.02283
G1 X58.139 Y70.663 E43.14035
G1 X56.733 Y69.851 E43.20610
G1 X42.933 Y93.752 E44.32367
G1 X42.714 Y93.708 E44.33271
G1 X42.474 Y93.682 E44.34249
G1 X42.233 Y93.677 E44.35225
G1 X41.987 Y93.693 E44.36223
G1 X41.520 Y93.783 E44.38149
G1 X41.077 Y93.951 E44.40067
G1 X40.853 Y94.071 E44.41096
G1 X40.472 Y94.344 E44.42994
G1 X40.286 Y94.517 E44.44023
G1 X39.983 Y94.880 E44.45938
G1 X39.491 Y95.716 E44.49866
G1 X38.132 Y98.068 E44.60865
G1 X34.126 Y95.754 E44.79599
G1 X50.994 Y66.538 E46.16206
G1 X49.588 Y65.726 E46.22781
G1 X32.720 Y94.942 E47.59388
G1 X28.714 Y92.629 E47.78119
G1 X30.440 Y89.639 E47.92099
G1 X30.551 Y89.426 E47.93072
G1 X30.713 Y88.987 E47.94967
G1 X30.801 Y88.507 E47.96943
G1 X30.813 Y88.266 E47.97920
G1 X30.805 Y88.026 E47.98892
G1 X30.777 Y87.781 E47.99891
G1 X30.661 Y87.319 E48.01820
G1 X30.467 Y86.886 E48.03741
G1 X30.335 Y86.669 E48.04770
G1 X30.051 Y86.313 E48.06614
G1 X43.850 Y62.413 E49.18365
G1 X42.444 Y61.601 E49.24940
G0 F9900 X42.651 Y61.244
G0 X42.278 Y60.980
G0 X40.777 Y61.549
;TYPE:SKIN
G1 F1200 X40.110 Y61.324 E49.27831
G1 X40.291 Y62.389 E49.30722
G1 X39.463 Y62.445 E49.33615
G1 X39.644 Y63.510 E49.36505
G1 X38.816 Y63.566 E49.39387
G1 X38.997 Y64.630 E49.42268
G1 X38.169 Y64.686 E49.45150
G1 X38.350 Y65.751 E49.48041
G1 X37.522 Y65.807 E49.50923
G1 X37.703 Y66.872 E49.53813
G1 X36.874 Y66.927 E49.56704
G1 X37.056 Y67.993 E49.59590
G1 X36.227 Y68.048 E49.62481
G1 X36.409 Y69.114 E49.65368
G1 X35.580 Y69.169 E49.68258
G1 X35.762 Y70.234 E49.71149
G1 X34.933 Y70.289 E49.74040
G1 X35.115 Y71.355 E49.76927
G1 X34.286 Y71.410 E49.79817
G1 X34.468 Y72.476 E49.82704
G1 X33.639 Y72.531 E49.85594
G1 X33.821 Y73.597 E49.88488
G1 X32.992 Y73.652 E49.91379
G1 X33.174 Y74.717 E49.94270
G1 X32.345 Y74.772 E49.97160
G1 X32.527 Y75.838 E50.00047
G1 X31.698 Y75.893 E50.02938
G1 X31.880 Y76.959 E50.05831
G1 X31.051 Y77.014 E50.08722
G1 X31.232 Y78.079 E50.11612
G1 X30.404 Y78.135 E50.14505
G1 X30.585 Y79.200 E50.17396
G1 X29.757 Y79.256 E50.20283
G1 X29.938 Y80.320 E50.23164
G1 X29.110 Y80.376 E50.26057
G1 X29.291 Y81.441 E50.28947
G1 X28.463 Y81.496 E50.31840
G1 X28.644 Y82.562 E50.34726
G1 X27.816 Y82.617 E50.37619
G1 X27.997 Y83.682 E50.40509
G1 X27.331 Y83.458 E50.43354
G0 F9900 X42.278 Y60.980
G0 X44.471 Y62.247
G0 X31.821 Y86.181
G1 F1200 X34.522 Y88.881 E50.58819
G0 F9900 X34.846 Y88.321
G1 F1200 X32.145 Y85.621 E50.74284
G0 F9900 X32.468 Y85.060
G1 F1200 X35.169 Y87.761 E50.89752
G0 F9900 X35.493 Y87.201
G1 F1200 X32.792 Y84.500 E51.05219
G0 F9900 X33.115 Y83.939
G1 F1200 X35.816 Y86.640 E51.20687
G0 F9900 X36.140 Y86.080
G1 F1200 X33.439 Y83.379 E51.36154
G0 F9900 X33.762 Y82.819
G1 F1200 X36.463 Y85.519 E51.51619
G0 F9900 X36.787 Y84.959
G1 F1200 X34.086 Y82.259 E51.67084
G0 F9900 X34.409 Y81.698
G1 F1200 X37.110 Y84.398 E51.82549
G0 F9900 X37.434 Y83.838
G1 F1200 X34.733 Y81.138 E51.98013
G0 F9900 X35.057 Y80.578
G1 F1200 X37.757 Y83.278 E52.13475
G0 F9900 X38.081 Y82.718
G1 F1200 X35.380 Y80.017 E52.28943
G0 F9900 X35.704 Y79.457
G1 F1200 X38.404 Y82.157 E52.44405
G0 F9900 X38.728 Y81.597
G1 F1200 X36.027 Y78.896 E52.59872
G0 F9900 X36.351 Y78.336
G1 F1200 X39.052 Y81.037 E52.75340
G0 F9900 X39.375 Y80.476
G1 F1200 X36.674 Y77.776 E52.90805
G0 F9900 X36.998 Y77.216
G1 F1200 X39.699 Y79.916 E53.06269
G0 F9900 X40.022 Y79.355
G1 F1200 X37.321 Y76.655 E53.21734
G0 F9900 X37.645 Y76.095
G1 F1200 X40.346 Y78.795 E53.37199
G0 F9900 X40.669 Y78.235
G1 F1200 X37.968 Y75.534 E53.52666
G0 F9900 X38.292 Y74.974
G1 F1200 X40.993 Y77.674 E53.68131
G0 F9900 X41.316 Y77.114
G1 F1200 X38.615 Y74.413 E53.83599
G0 F9900 X38.939 Y73.853
G1 F1200 X41.640 Y76.554 E53.99066
G0 F9900 X41.963 Y75.993
G1 F1200 X39.263 Y73.293 E54.14528
G0 F9900 X39.586 Y72.733
G1 F1200 X42.287 Y75.433 E54.29993
G0 F9900 X42.610 Y74.872
G1 F1200 X39.910 Y72.172 E54.45455
G0 F9900 X40.233 Y71.612
G1 F1200 X42.934 Y74.312 E54.60920
G0 F9900 X43.257 Y73.751
G1 F1200 X40.557 Y71.052 E54.76379
G0 F9900 X40.880 Y70.491
G1 F1200 X43.581 Y73.191 E54.91843
G0 F9900 X43.904 Y72.631
G1 F1200 X41.204 Y69.931 E55.07305
G0 F9900 X41.527 Y69.370
G1 F1200 X44.228 Y72.071 E55.22773
G0 F9900 X44.551 Y71.510
G1 F1200 X41.851 Y68.810 E55.38235
G0 F9900 X42.174 Y68.249
G1 F1200 X44.875 Y70.950 E55.53702
G0 F9900 X45.198 Y70.389
G1 F1200 X42.498 Y67.689 E55.69164
G0 F9900 X42.822 Y67.129
G1 F1200 X45.522 Y69.829 E55.84626
G0 F9900 X45.845 Y69.268
G1 F1200 X43.145 Y66.569 E56.00085
G0 F9900 X43.469 Y66.009
G1 F1200 X46.169 Y68.708 E56.15544
G0 F9900 X46.492 Y68.148
G1 F1200 X43.792 Y65.448 E56.31006
G0 F9900 X44.116 Y64.888
G1 F1200 X46.816 Y67.588 E56.46468
G0 F9900 X47.139 Y67.027
G1 F1200 X44.439 Y64.327 E56.61930
G0 F9900 X44.763 Y63.767
G1 F1200 X47.463 Y66.467 E56.77392
G0 F9900 X47.786 Y65.907
G1 F1200 X46.332 Y64.452 E56.85721
G0 F9900 X49.422 Y65.105
G0 X51.615 Y66.372
G0 X51.772 Y68.125
G1 F1200 X54.474 Y70.826 E57.01191
G0 F9900 X54.150 Y71.386
G1 F1200 X51.449 Y68.685 E57.16659
G0 F9900 X51.125 Y69.246
G1 F1200 X53.827 Y71.947 E57.32129
G0 F9900 X53.503 Y72.507
G1 F1200 X50.802 Y69.806 E57.47597
G0 F9900 X50.478 Y70.367
G1 F1200 X53.180 Y73.068 E57.63067
G0 F9900 X52.856 Y73.628
G1 F1200 X50.155 Y70.927 E57.78535
G0 F9900 X49.831 Y71.487
G1 F1200 X52.533 Y74.188 E57.94006
G0 F9900 X52.209 Y74.748
G1 F1200 X49.508 Y72.047 E58.09473
G0 F9900 X49.184 Y72.608
G1 F1200 X51.885 Y75.308 E58.24938
G0 F9900 X51.562 Y75.869
G1 F1200 X48.861 Y73.168 E58.40405
G0 F9900 X48.537 Y73.729
G1 F1200 X51.238 Y76.429 E58.55870
G0 F9900 X50.915 Y76.990
G1 F1200 X48.214 Y74.289 E58.71338
G0 F9900 X47.890 Y74.850
G1 F1200 X50.591 Y77.550 E58.86803
G0 F9900 X50.268 Y78.111
G1 F1200 X47.567 Y75.410 E59.02270
G0 F9900 X47.243 Y75.970
G1 F1200 X49.944 Y78.671 E59.17738
G0 F9900 X49.621 Y79.232
G1 F1200 X46.920 Y76.530 E59.33208
G0 F9900 X46.596 Y77.091
G1 F1200 X49.297 Y79.792 E59.48676
G0 F9900 X48.974 Y80.352
G1 F1200 X46.273 Y77.651 E59.64143
G0 F9900 X45.949 Y78.212
G1 F1200 X48.650 Y80.912 E59.79608
G0 F9900 X48.327 Y81.473
G1 F1200 X45.626 Y78.772 E59.95076
G0 F9900 X45.302 Y79.333
G1 F1200 X48.003 Y82.033 E60.10541
G0 F9900 X47.680 Y82.594
G1 F1200 X44.979 Y79.893 E60.26008
G0 F9900 X56.567 Y69.230
G0 X58.760 Y70.497
G0 X54.576 Y79.768
G1 F1200 X54.919 Y80.552 E60.28897
G1 X54.090 Y80.608 E60.31782
G1 X54.272 Y81.673 E60.34673
G1 X53.443 Y81.728 E60.37564
G1 X53.625 Y82.794 E60.40450
G1 X52.796 Y82.849 E60.43341
G1 X52.978 Y83.915 E60.46228
G1 X52.149 Y83.970 E60.49118
G1 X52.331 Y85.035 E60.52002
G1 X51.502 Y85.091 E60.54888
G1 X51.684 Y86.156 E60.57779
G1 X50.855 Y86.211 E60.60669
G1 X51.037 Y87.277 E60.63556
G1 X50.208 Y87.332 E60.66447
G1 X50.390 Y88.398 E60.69340
G1 X49.561 Y88.453 E60.72231
G1 X49.743 Y89.518 E60.75122
G1 X48.914 Y89.574 E60.78013
G1 X49.096 Y90.639 E60.80904
G1 X48.267 Y90.694 E60.83794
G1 X48.449 Y91.760 E60.86688
G1 X47.620 Y91.815 E60.89579
G1 X47.802 Y92.881 E60.92472
G1 X46.973 Y92.936 E60.95363
G1 X47.155 Y94.002 E60.98257
G1 X46.326 Y94.057 E61.01147
G1 X46.670 Y94.842 E61.04618
G0 F9900 X58.760 Y70.497
G0 X56.567 Y69.230
G0 X42.180 Y92.120
G1 F1200 X39.479 Y89.419 E61.20085
G0 F9900 X39.803 Y88.859
G1 F1200 X42.503 Y91.559 E61.35547
G0 F9900 X42.827 Y90.999
G1 F1200 X40.126 Y88.298 E61.51015
G0 F9900 X40.450 Y87.738
G1 F1200 X43.150 Y90.438 E61.66477
G0 F9900 X43.474 Y89.878
G1 F1200 X40.773 Y87.177 E61.81944
G0 F9900 X41.097 Y86.617
G1 F1200 X43.797 Y89.318 E61.97409
G0 F9900 X44.121 Y88.758
G1 F1200 X41.420 Y86.057 E62.12877
G0 F9900 X41.744 Y85.496
G1 F1200 X44.445 Y88.198 E62.28347
G0 F9900 X44.768 Y87.637
G1 F1200 X42.067 Y84.936 E62.43815
G0 F9900 X42.391 Y84.376
G1 F1200 X45.092 Y87.077 E62.59282
G0 F9900 X45.415 Y86.516
G1 F1200 X42.714 Y83.815 E62.74750
G0 F9900 X43.038 Y83.255
G1 F1200 X45.739 Y85.956 E62.90217
G0 F9900 X46.062 Y85.395
G1 F1200 X43.361 Y82.694 E63.05685
G0 F9900 X43.685 Y82.134
G1 F1200 X46.386 Y84.835 E63.21153
G0 F9900 X46.709 Y84.275
G1 F1200 X44.008 Y81.573 E63.36623
G0 F9900 X44.332 Y81.013
G1 F1200 X47.033 Y83.715 E63.52094
G0 F9900 X47.356 Y83.154
G1 F1200 X44.655 Y80.453 E63.67561
G0 F9900 X39.156 Y89.980
G1 F1200 X41.471 Y92.295 E63.80818
G0 F9900 X40.783 Y92.490
G1 F1200 X38.832 Y90.540 E63.91988
G0 F9900 X38.509 Y91.100
G1 F1200 X40.174 Y92.766 E64.01526
G0 F9900 X39.649 Y93.125
G1 F1200 X38.185 Y91.660 E64.09912
G0 F9900 X37.862 Y92.221
G1 F1200 X39.184 Y93.543 E64.17483
G0 F9900 X38.782 Y94.026
G1 F1200 X37.538 Y92.781 E64.24610
G0 F9900 X37.214 Y93.341
G1 F1200 X38.456 Y94.583 E64.31722
G0 F9900 X38.130 Y95.141
G1 F1200 X36.891 Y93.902 E64.38818
G0 F9900 X36.567 Y94.462
G1 F1200 X37.804 Y95.699 E64.45901
G0 F9900 X36.852 Y95.631
G1 F1200 X36.244 Y95.023 E64.49383
G0 F9900 X51.615 Y66.372
G0 X49.422 Y65.105
G0 X32.258 Y92.804
G1 F1200 X31.021 Y91.568 E64.56464
G0 F9900 X31.344 Y91.007
G1 F1200 X32.581 Y92.244 E64.63548
G0 F9900 X32.905 Y91.684
G1 F1200 X31.667 Y90.446 E64.70637
G0 F9900 X31.959 Y89.854
G1 F1200 X33.228 Y91.123 E64.77905
G0 F9900 X33.552 Y90.563
G1 F1200 X32.173 Y89.184 E64.85802
G0 F9900 X32.275 Y88.403
G1 F1200 X33.875 Y90.002 E64.94961
G0 F9900 X34.199 Y89.442
G1 F1200 X32.210 Y87.453 E65.06352
G0 F9900 X49.422 Y65.105
G0 X51.615 Y66.372
G0 X58.760 Y70.497
G0 X54.899 Y79.207
G1 F1200 X55.566 Y79.432 E65.09243
G1 X55.384 Y78.366 E65.12130
G1 X56.213 Y78.311 E65.15020
G1 X56.031 Y77.245 E65.17907
G1 X56.860 Y77.190 E65.20798
G1 X56.678 Y76.124 E65.23684
G1 X57.507 Y76.069 E65.26575
G1 X57.325 Y75.004 E65.29466
G1 X58.154 Y74.949 E65.32356
G1 X57.972 Y73.883 E65.35243
G1 X58.801 Y73.828 E65.38134
G1 X58.619 Y72.762 E65.41020
G1 X59.448 Y72.707 E65.43911
G1 X59.105 Y71.922 E65.47380
G0 F9900 X58.760 Y70.497
G0 X56.567 Y69.230
G0 X55.121 Y69.705
G1 F1200 X54.696 Y69.280 E65.49814
G0 F9900 X54.797 Y70.265
G1 F1200 X52.603 Y68.072 E65.62375
G1 F420 E63.62375
G1 Z0.725
G0 F9900 X63.621 Y84.326
;TYPE:WALL-INNER
G1 Z0.425
G1 F420 E65.62375
G1 F1200 X63.561 Y84.355 E65.62645
G1 X77.294 Y60.570 E66.73859
G1 X77.401 Y60.631 E66.74358
G1 X77.889 Y60.914 E66.76642
G1 X78.270 Y61.134 E66.78424
G1 X65.028 Y84.068 E67.85660
G1 X64.947 Y84.066 E67.85988
G1 X64.290 Y84.137 E67.88664
G1 X63.621 Y84.326 E67.91479
G0 F9900 X79.340 Y60.872
G0 X81.532 Y62.140
G0 X68.779 Y86.474
G1 F1200 X68.594 Y86.139 E67.93029
G1 X81.840 Y63.195 E69.00308
G1 X85.413 Y65.258 E69.17015
G1 X69.324 Y93.125 E70.47314
G1 X67.484 Y92.062 E70.55919
G1 X68.213 Y90.797 E70.61831
G1 X68.597 Y90.132 E70.64941
G1 X68.758 Y89.824 E70.66348
G1 X68.976 Y89.233 E70.68899
G1 X69.060 Y88.863 E70.70435
G1 X69.108 Y88.517 E70.71850
G1 X69.126 Y88.169 E70.73261
G1 X69.115 Y87.823 E70.74663
G1 X69.075 Y87.480 E70.76061
G1 X68.997 Y87.102 E70.77624
G1 X68.779 Y86.474 E70.80316
G0 F9900 X86.483 Y64.997
G0 X88.676 Y66.264
G0 X72.896 Y95.188
G1 F1200 X88.985 Y67.320 E72.10619
G1 X92.558 Y69.383 E72.27325
G1 X79.315 Y92.318 E73.34567
G1 X79.236 Y92.316 E73.34887
G1 X78.578 Y92.387 E73.37567
G1 X77.907 Y92.576 E73.40390
G1 X77.280 Y92.881 E73.43213
G1 X76.743 Y93.264 E73.45884
G1 X76.439 Y93.546 E73.47563
G1 X76.020 Y94.048 E73.50211
G1 X75.473 Y94.977 E73.54577
G1 X74.737 Y96.251 E73.60534
G1 X72.896 Y95.188 E73.69143
G0 F9900 X79.268 Y93.055
G0 X93.628 Y69.122
G0 X95.821 Y70.389
G0 X83.068 Y94.724
G1 F1200 X82.882 Y94.389 E73.70694
G1 X96.129 Y71.445 E74.77976
G1 X97.104 Y72.008 E74.82535
G1 X83.365 Y95.805 E75.93803
G1 X83.296 Y95.382 E75.95539
G1 X83.068 Y94.724 E75.98359
G0 F9900 X82.495 Y94.979
G1 F1200 X82.220 Y94.485 E76.00648
G1 X82.155 Y94.396 E76.01094
G1 X95.901 Y70.591 E77.12406
G1 X97.958 Y71.779 E77.22024
G1 X81.244 Y100.729 E78.57387
G1 X80.918 Y100.541 E78.58911
G1 X82.349 Y98.063 E78.70498
G1 X82.573 Y97.582 E78.72647
G1 X82.674 Y97.265 E78.73994
G1 X82.772 Y96.728 E78.76204
G1 X82.790 Y96.414 E78.77478
G1 X82.780 Y96.098 E78.78758
G1 X82.688 Y95.536 E78.81064
G1 X82.495 Y94.979 E78.83451
G0 F9900 X95.821 Y70.389
G0 X93.628 Y69.122
G0 X79.262 Y92.942
G1 F1200 X78.697 Y93.003 E78.85752
G1 X78.130 Y93.163 E78.88138
G1 X77.600 Y93.420 E78.90523
G1 X77.139 Y93.749 E78.92817
G1 X76.894 Y93.977 E78.94172
G1 X76.533 Y94.409 E78.96452
G1 X76.013 Y95.292 E79.00601
G1 X74.965 Y97.105 E79.09081
G1 X72.041 Y95.416 E79.22754
G1 X88.756 Y66.466 E80.58119
G1 X93.412 Y69.154 E80.79889
G1 X79.668 Y92.959 E81.91196
G1 X79.262 Y92.942 E81.92842
G0 F9900 X88.676 Y66.264
G0 X86.483 Y64.997
G0 X69.554 Y93.979
G1 F1200 X66.630 Y92.291 E82.06513
G1 X68.050 Y89.831 E82.18015
G1 X68.185 Y89.570 E82.19205
G1 X68.375 Y89.056 E82.21424
G1 X68.444 Y88.750 E82.22694
G1 X68.486 Y88.458 E82.23889
G1 X68.501 Y88.163 E82.25085
G1 X68.457 Y87.579 E82.27456
G1 X68.394 Y87.268 E82.28741
G1 X68.206 Y86.730 E82.31049
G1 X67.923 Y86.216 E82.33425
G1 X67.867 Y86.146 E82.33788
G1 X81.612 Y62.342 E83.45094
G1 X86.267 Y65.029 E83.66858
G1 X69.554 Y93.979 E85.02219
G0 F9900 X68.102 Y86.776
G0 X81.532 Y62.140
G0 X79.340 Y60.872
G0 X64.973 Y84.692
G1 F1200 X64.409 Y84.753 E85.04516
G1 X63.843 Y84.913 E85.06898
G1 X63.313 Y85.169 E85.09281
G1 X62.834 Y85.509 E85.11660
G1 X62.421 Y85.927 E85.14039
G1 X62.107 Y86.377 E85.16261
G1 X60.677 Y88.854 E85.27843
G1 X60.350 Y88.666 E85.29370
G1 X77.065 Y59.717 E86.64732
G1 X77.714 Y60.091 E86.67765
G1 X78.202 Y60.373 E86.70047
G1 X79.123 Y60.905 E86.74354
G1 X65.380 Y84.709 E87.85655
G1 X64.973 Y84.692 E87.87305
G0 F9900 X65.000 Y85.318
;TYPE:WALL-OUTER
G1 F1200 X64.528 Y85.369 E87.89227
G1 X64.066 Y85.499 E87.91171
G1 X63.633 Y85.708 E87.93118
G1 X63.240 Y85.987 E87.95069
G1 X62.902 Y86.328 E87.97013
G1 X62.634 Y86.712 E87.98910
G1 X60.906 Y89.708 E88.12915
G1 X59.496 Y88.895 E88.19505
G1 X76.836 Y58.863 E89.59930
G1 X98.812 Y71.551 E90.62685
G1 X81.473 Y101.583 E92.03108
G1 X80.064 Y100.770 E92.09695
G1 X81.794 Y97.774 E92.23704
G1 X81.989 Y97.355 E92.25575
G1 X82.066 Y97.113 E92.26604
G1 X82.150 Y96.654 E92.28493
G1 X82.164 Y96.407 E92.29495
G1 X82.156 Y96.159 E92.30500
G1 X82.080 Y95.690 E92.32424
G1 X81.922 Y95.235 E92.34374
G1 X81.692 Y94.822 E92.36288
G1 X81.547 Y94.622 E92.37289
G1 X81.401 Y94.454 E92.38190
G1 X95.200 Y70.555 E93.49938
G1 X93.794 Y69.743 E93.56512
G1 X79.994 Y93.643 E94.68266
G1 X79.776 Y93.599 E94.69166
G1 X79.536 Y93.573 E94.70144
G1 X79.289 Y93.568 E94.71144
G1 X78.816 Y93.619 E94.73071
G1 X78.354 Y93.749 E94.75014
G1 X77.920 Y93.960 E94.76968
G1 X77.534 Y94.235 E94.78888
G1 X77.348 Y94.408 E94.79916
G1 X77.045 Y94.771 E94.81831
G1 X76.553 Y95.607 E94.85759
G1 X75.194 Y97.959 E94.96758
G1 X71.188 Y95.645 E95.15492
G1 X88.055 Y66.430 E96.52094
G1 X86.649 Y65.618 E96.58668
G1 X69.782 Y94.833 E97.95270
G1 X65.776 Y92.520 E98.14002
G1 X67.502 Y89.530 E98.27982
G1 X67.613 Y89.317 E98.28954
G1 X67.775 Y88.878 E98.30849
G1 X67.863 Y88.398 E98.32825
G1 X67.875 Y88.157 E98.33802
G1 X67.867 Y87.917 E98.34775
G1 X67.790 Y87.434 E98.36755
G1 X67.633 Y86.985 E98.38681
G1 X67.401 Y86.565 E98.40624
G1 X67.113 Y86.204 E98.42494
G1 X80.911 Y62.305 E99.54240
G1 X79.506 Y61.493 E99.60811
G1 X65.706 Y85.394 E100.72568
G1 X65.486 Y85.349 E100.73477
G1 X65.247 Y85.323 E100.74451
G1 X65.000 Y85.318 E100.75451
G0 F9900 X64.850 Y83.855
;TYPE:SKIN
G1 F1200 X64.537 Y83.099 E100.78171
G1 X65.366 Y83.044 E100.81062
G1 X65.184 Y81.979 E100.83953
G1 X66.013 Y81.923 E100.86843
G1 X65.831 Y80.858 E100.89734
G1 X66.660 Y80.803 E100.92625
G1 X66.316 Y80.017 E100.96099
G0 F9900 X79.340 Y60.872
G0 X81.532 Y62.140
G0 X70.806 Y82.739
G1 F1200 X73.507 Y85.441 E101.11570
G0 F9900 X73.184 Y86.001
G1 F1200 X70.483 Y83.300 E101.27037
G0 F9900 X70.159 Y83.860
G1 F1200 X72.860 Y86.561 E101.42505
G0 F9900 X72.537 Y87.121
G1 F1200 X69.836 Y84.421 E101.57970
G0 F9900 X69.512 Y84.981
G1 F1200 X72.213 Y87.681 E101.73434
G0 F9900 X71.890 Y88.242
G1 F1200 X69.189 Y85.542 E101.88899
G0 F9900 X68.865 Y86.102
G1 F1200 X71.566 Y88.802 E102.04364
G0 F9900 X71.243 Y89.363
G1 F1200 X69.282 Y87.402 E102.15594
G0 F9900 X69.335 Y88.339
G1 F1200 X70.919 Y89.923 E102.24665
G0 F9900 X70.596 Y90.484
G1 F1200 X69.226 Y89.114 E102.32510
G0 F9900 X69.007 Y89.779
G1 F1200 X70.272 Y91.044 E102.39754
G0 F9900 X69.949 Y91.604
G1 F1200 X68.712 Y90.368 E102.46835
G0 F9900 X68.389 Y90.928
G1 F1200 X69.625 Y92.165 E102.53916
G0 F9900 X69.302 Y92.725
G1 F1200 X68.066 Y91.489 E102.60994
G0 F9900 X86.483 Y64.997
G0 X88.676 Y66.264
G0 X73.612 Y94.384
G1 F1200 X74.849 Y95.621 E102.68078
G0 F9900 X75.174 Y95.062
G1 F1200 X73.935 Y93.823 E102.75174
G0 F9900 X74.259 Y93.263
G1 F1200 X75.500 Y94.504 E102.82280
G0 F9900 X75.825 Y93.946
G1 F1200 X74.582 Y92.703 E102.89398
G0 F9900 X74.906 Y92.143
G1 F1200 X76.224 Y93.461 E102.96946
G0 F9900 X76.684 Y93.036
G1 F1200 X75.229 Y91.582 E103.05276
G0 F9900 X75.553 Y91.022
G1 F1200 X77.204 Y92.673 E103.14730
G0 F9900 X77.800 Y92.384
G1 F1200 X75.876 Y90.461 E103.25745
G0 F9900 X76.200 Y89.901
G1 F1200 X78.485 Y92.186 E103.38831
G0 F9900 X79.222 Y92.039
G1 F1200 X76.523 Y89.340 E103.54287
G0 F9900 X76.847 Y88.780
G1 F1200 X79.545 Y91.479 E103.69740
G0 F9900 X79.869 Y90.918
G1 F1200 X77.170 Y88.220 E103.85193
G0 F9900 X77.494 Y87.660
G1 F1200 X80.192 Y90.358 E104.00644
G0 F9900 X80.516 Y89.798
G1 F1200 X77.817 Y87.099 E104.16100
G0 F9900 X78.141 Y86.539
G1 F1200 X80.839 Y89.237 E104.31550
G0 F9900 X81.163 Y88.677
G1 F1200 X78.464 Y85.978 E104.47006
G0 F9900 X78.788 Y85.418
G1 F1200 X81.486 Y88.116 E104.62457
G0 F9900 X81.810 Y87.556
G1 F1200 X79.111 Y84.857 E104.77913
G0 F9900 X79.435 Y84.297
G1 F1200 X82.133 Y86.996 E104.93366
G0 F9900 X82.457 Y86.436
G1 F1200 X79.758 Y83.736 E105.08825
G0 F9900 X88.676 Y66.264
G0 X86.483 Y64.997
G0 X75.772 Y81.518
G1 F1200 X73.071 Y78.817 E105.24293
G0 F9900 X73.395 Y78.257
G1 F1200 X76.096 Y80.958 E105.39761
G0 F9900 X76.419 Y80.397
G1 F1200 X73.718 Y77.696 E105.55228
G0 F9900 X74.042 Y77.136
G1 F1200 X76.743 Y79.837 E105.70696
G0 F9900 X77.066 Y79.276
G1 F1200 X74.365 Y76.576 E105.86160
G0 F9900 X74.689 Y76.016
G1 F1200 X77.390 Y78.716 E106.01625
G0 F9900 X77.713 Y78.155
G1 F1200 X75.012 Y75.455 E106.17090
G0 F9900 X75.336 Y74.895
G1 F1200 X78.037 Y77.595 E106.32555
G0 F9900 X78.360 Y77.035
G1 F1200 X75.659 Y74.334 E106.48022
G0 F9900 X75.983 Y73.774
G1 F1200 X78.684 Y76.475 E106.63490
G0 F9900 X79.007 Y75.914
G1 F1200 X76.307 Y73.214 E106.78952
G0 F9900 X76.630 Y72.653
G1 F1200 X79.331 Y75.354 E106.94419
G0 F9900 X79.654 Y74.793
G1 F1200 X76.954 Y72.093 E107.09881
G0 F9900 X77.277 Y71.533
G1 F1200 X79.978 Y74.233 E107.25346
G0 F9900 X80.301 Y73.673
G1 F1200 X77.601 Y70.973 E107.40808
G0 F9900 X77.924 Y70.412
G1 F1200 X80.625 Y73.112 E107.56273
G0 F9900 X80.948 Y72.552
G1 F1200 X78.248 Y69.852 E107.71734
G0 F9900 X78.571 Y69.291
G1 F1200 X81.272 Y71.991 E107.87199
G0 F9900 X81.595 Y71.431
G1 F1200 X78.895 Y68.731 E108.02661
G0 F9900 X79.218 Y68.170
G1 F1200 X81.919 Y70.871 E108.18129
G0 F9900 X82.242 Y70.311
G1 F1200 X79.542 Y67.610 E108.33593
G0 F9900 X79.865 Y67.049
G1 F1200 X82.566 Y69.750 E108.49061
G0 F9900 X82.889 Y69.190
G1 F1200 X80.189 Y66.489 E108.64526
G0 F9900 X80.513 Y65.929
G1 F1200 X83.213 Y68.629 E108.79988
G0 F9900 X83.536 Y68.069
G1 F1200 X80.836 Y65.369 E108.95450
G0 F9900 X81.160 Y64.809
G1 F1200 X83.860 Y67.508 E109.10909
G0 F9900 X84.183 Y66.948
G1 F1200 X81.483 Y64.248 E109.26370
G0 F9900 X81.807 Y63.688
G1 F1200 X84.507 Y66.388 E109.41832
G0 F9900 X84.830 Y65.828
G1 F1200 X83.285 Y64.283 E109.50680
G0 F9900 X86.483 Y64.997
G0 X88.676 Y66.264
G0 X88.816 Y68.046
G1 F1200 X91.517 Y70.746 E109.66145
G0 F9900 X91.841 Y70.186
G1 F1200 X89.560 Y67.905 E109.79207
G0 F9900 X88.493 Y68.607
G1 F1200 X91.194 Y71.307 E109.94672
G0 F9900 X90.870 Y71.867
G1 F1200 X88.169 Y69.167 E110.10137
G0 F9900 X87.846 Y69.727
G1 F1200 X90.546 Y72.427 E110.25598
G0 F9900 X90.223 Y72.988
G1 F1200 X87.522 Y70.287 E110.41066
G0 F9900 X87.199 Y70.848
G1 F1200 X89.899 Y73.548 E110.56528
G0 F9900 X89.576 Y74.109
G1 F1200 X86.875 Y71.408 E110.71996
G0 F9900 X86.552 Y71.969
G1 F1200 X89.252 Y74.669 E110.87457
G0 F9900 X88.929 Y75.229
G1 F1200 X86.228 Y72.529 E111.02922
G0 F9900 X85.905 Y73.090
G1 F1200 X88.605 Y75.789 E111.18381
G0 F9900 X88.281 Y76.349
G1 F1200 X85.581 Y73.650 E111.33840
G0 F9900 X85.258 Y74.210
G1 F1200 X87.958 Y76.910 E111.49302
G0 F9900 X87.634 Y77.470
G1 F1200 X84.934 Y74.770 E111.64764
G0 F9900 X84.611 Y75.331
G1 F1200 X87.311 Y78.031 E111.80226
G0 F9900 X86.987 Y78.591
G1 F1200 X84.287 Y75.891 E111.95688
G0 F9900 X83.964 Y76.452
G1 F1200 X86.663 Y79.151 E112.11144
G0 F9900 X86.340 Y79.712
G1 F1200 X83.640 Y77.012 E112.26606
G0 F9900 X83.317 Y77.573
G1 F1200 X86.016 Y80.272 E112.42062
G0 F9900 X85.693 Y80.832
G1 F1200 X82.993 Y78.133 E112.57521
G0 F9900 X82.670 Y78.693
G1 F1200 X85.369 Y81.392 E112.72977
G0 F9900 X85.046 Y81.953
G1 F1200 X82.346 Y79.253 E112.88439
G0 F9900 X82.023 Y79.814
G1 F1200 X84.722 Y82.513 E113.03895
G0 F9900 X84.398 Y83.073
G1 F1200 X81.699 Y80.374 E113.19351
G0 F9900 X81.376 Y80.935
G1 F1200 X84.075 Y83.634 E113.34807
G0 F9900 X83.751 Y84.194
G1 F1200 X81.052 Y81.495 E113.50263
G0 F9900 X80.729 Y82.056
G1 F1200 X83.428 Y84.755 E113.65720
G0 F9900 X83.104 Y85.315
G1 F1200 X80.405 Y82.616 E113.81176
G0 F9900 X80.082 Y83.176
G1 F1200 X82.781 Y85.875 E113.96632
G0 F9900 X93.628 Y69.122
G0 X95.821 Y70.389
G0 X86.767 Y88.094
G1 F1200 X87.110 Y88.879 E113.99524
G1 X86.281 Y88.934 E114.02414
G1 X86.463 Y89.999 E114.05305
G1 X85.634 Y90.054 E114.08196
G1 X85.816 Y91.120 E114.11082
G1 X84.987 Y91.175 E114.13973
G1 X85.169 Y92.241 E114.16860
G1 X84.340 Y92.296 E114.19750
G1 X84.522 Y93.362 E114.22637
G1 X83.693 Y93.417 E114.25528
G1 X83.875 Y94.482 E114.28412
G1 X83.208 Y94.258 E114.31261
G0 F9900 X87.596 Y88.039
G1 F1200 X87.252 Y87.253 E114.34151
G1 X88.081 Y87.198 E114.37042
G1 X87.899 Y86.132 E114.39929
G1 X88.728 Y86.077 E114.42819
G1 X88.546 Y85.011 E114.45706
G1 X89.375 Y84.956 E114.48596
G1 X89.193 Y83.891 E114.51487
G1 X90.022 Y83.835 E114.54378
G1 X89.840 Y82.770 E114.57262
G1 X90.669 Y82.715 E114.60153
G1 X90.487 Y81.649 E114.63040
G1 X91.316 Y81.594 E114.65930
G1 X91.134 Y80.528 E114.68817
G1 X91.963 Y80.473 E114.71707
G1 X91.782 Y79.408 E114.74598
G1 X92.610 Y79.352 E114.77480
G1 X92.429 Y78.288 E114.80361
G1 X93.257 Y78.232 E114.83243
G1 X93.076 Y77.167 E114.86133
G1 X93.904 Y77.111 E114.89026
G1 X93.723 Y76.046 E114.91917
G1 X94.551 Y75.990 E114.94809
G1 X94.370 Y74.925 E114.97700
G1 X95.198 Y74.869 E115.00593
G1 X95.017 Y73.804 E115.03483
G1 X95.845 Y73.749 E115.06376
G1 X95.664 Y72.684 E115.09266
G1 X96.492 Y72.628 E115.12159
G1 X96.150 Y71.844 E115.15623
G0 F9900 X95.821 Y70.389
G0 X93.628 Y69.122
G0 X92.164 Y69.625
G1 F1200 X91.650 Y69.111 E115.18566
G0 F9900 X88.676 Y66.264
G0 X86.483 Y64.997
G0 X79.340 Y60.872
G0 X77.822 Y61.470
G1 F1200 X77.154 Y61.245 E115.21457
G1 X77.336 Y62.311 E115.24344
G1 X76.507 Y62.366 E115.27234
G1 X76.689 Y63.432 E115.30121
G1 X75.860 Y63.486 E115.33017
G1 X76.042 Y64.552 E115.35903
G1 X75.213 Y64.607 E115.38799
G1 X75.395 Y65.673 E115.41686
G1 X74.566 Y65.728 E115.44577
G1 X74.748 Y66.793 E115.47461
G1 X73.919 Y66.849 E115.50351
G1 X74.101 Y67.914 E115.53243
G1 X73.272 Y67.969 E115.56138
G1 X73.454 Y69.035 E115.59025
G1 X72.625 Y69.090 E115.61921
G1 X72.807 Y70.156 E115.64808
G1 X71.978 Y70.211 E115.67704
G1 X72.160 Y71.277 E115.70597
G1 X71.331 Y71.332 E115.73488
G1 X71.513 Y72.397 E115.76379
G1 X70.684 Y72.452 E115.79275
G1 X70.866 Y73.518 E115.82162
G1 X70.037 Y73.573 E115.85052
G1 X70.219 Y74.639 E115.87946
G1 X69.390 Y74.694 E115.90837
G1 X69.572 Y75.760 E115.93730
G1 X68.743 Y75.815 E115.96621
G1 X68.925 Y76.880 E115.99512
G1 X68.096 Y76.936 E116.02397
G1 X68.278 Y78.001 E116.05288
G1 X67.449 Y78.056 E116.08179
G1 X67.631 Y79.122 E116.11073
G1 X66.802 Y79.177 E116.13963
G1 X67.146 Y79.963 E116.17437
G0 F9900 X79.340 Y60.872
G0 X81.532 Y62.140
G0 X72.424 Y79.938
G1 F1200 X75.125 Y82.638 E116.32902
G0 F9900 X75.449 Y82.078
G1 F1200 X72.748 Y79.378 E116.48367
G0 F9900 X72.101 Y80.499
G1 F1200 X74.801 Y83.199 E116.63829
G0 F9900 X74.478 Y83.759
G1 F1200 X71.777 Y81.059 E116.79294
G0 F9900 X71.454 Y81.619
G1 F1200 X74.154 Y84.320 E116.94758
G0 F9900 X73.831 Y84.880
G1 F1200 X71.130 Y82.179 E117.10226
G0 F9900 X86.483 Y64.997
G0 X88.676 Y66.264
G0 X73.288 Y94.944
G1 F1200 X73.801 Y95.457 E117.13164
G1 F420 E115.13164
G1 Z0.725
G0 F9900 X99.833 Y85.633
;TYPE:WALL-INNER
G1 Z0.425
G1 F420 E117.13164
G1 F1200 X113.573 Y61.836 E118.24434
G1 X114.167 Y62.179 E118.27212
G1 X114.547 Y62.399 E118.28990
G1 X101.305 Y85.334 E119.36230
G1 X101.258 Y85.333 E119.36420
G1 X100.882 Y85.356 E119.37945
G1 X100.229 Y85.482 E119.40638
G1 X99.833 Y85.633 E119.42354
G0 F9900 X115.618 Y62.137
G0 X117.811 Y63.404
G0 X104.916 Y87.460
G1 F1200 X104.877 Y87.396 E119.42658
G1 X118.119 Y64.461 E120.49898
G1 X121.692 Y66.524 E120.66604
G1 X105.603 Y94.390 E121.96900
G1 X103.762 Y93.327 E122.05509
G1 X104.893 Y91.368 E122.14668
G1 X105.146 Y90.828 E122.17083
G1 X105.272 Y90.433 E122.18762
G1 X105.385 Y89.814 E122.21310
G1 X105.404 Y89.434 E122.22851
G1 X105.393 Y89.088 E122.24252
G1 X105.349 Y88.711 E122.25789
G1 X105.187 Y88.065 E122.28486
G1 X104.916 Y87.460 E122.31171
G0 F9900 X122.763 Y66.262
G0 X124.956 Y67.529
G0 X109.174 Y96.453
G1 F1200 X125.264 Y68.586 E123.61472
G1 X128.837 Y70.648 E123.78177
G1 X115.595 Y93.584 E124.85420
G1 X115.548 Y93.583 E124.85611
G1 X115.171 Y93.606 E124.87140
G1 X114.550 Y93.726 E124.89701
G1 X114.187 Y93.847 E124.91251
G1 X113.838 Y93.996 E124.92787
G1 X113.268 Y94.334 E124.95471
G1 X112.737 Y94.787 E124.98297
G1 X112.299 Y95.315 E125.01075
G1 X111.751 Y96.241 E125.05432
G1 X111.014 Y97.516 E125.11395
G1 X109.174 Y96.453 E125.20000
G0 F9900 X115.564 Y94.321
G0 X129.907 Y70.387
G0 X132.100 Y71.654
G0 X119.358 Y96.023
G1 F1200 X119.166 Y95.647 E125.21710
G1 X132.409 Y72.710 E126.28958
G1 X133.383 Y73.273 E126.33514
G1 X119.644 Y97.070 E127.44783
G1 X119.575 Y96.648 E127.46514
G1 X119.358 Y96.023 E127.49193
G0 F9900 X118.781 Y96.265
G1 F1200 X118.641 Y95.986 E127.50457
G1 X118.479 Y95.718 E127.51725
G1 X118.435 Y95.662 E127.52014
G1 X132.180 Y71.856 E128.63326
G1 X134.238 Y73.044 E128.72949
G1 X117.523 Y101.994 E130.08313
G1 X117.197 Y101.806 E130.09837
G1 X118.628 Y99.328 E130.21424
G1 X118.852 Y98.847 E130.23573
G1 X119.012 Y98.265 E130.26017
G1 X119.069 Y97.677 E130.28409
G1 X119.059 Y97.363 E130.29681
G1 X118.967 Y96.802 E130.31983
G1 X118.781 Y96.265 E130.34285
G0 F9900 X132.100 Y71.654
G0 X129.907 Y70.387
G0 X115.561 Y94.208
G1 F1200 X115.249 Y94.227 E130.35550
G1 X114.709 Y94.332 E130.37778
G1 X114.122 Y94.555 E130.40321
G1 X113.632 Y94.845 E130.42626
G1 X113.184 Y95.227 E130.45010
G1 X112.811 Y95.676 E130.47374
G1 X112.291 Y96.556 E130.51513
G1 X111.243 Y98.370 E130.59996
G1 X108.320 Y96.681 E130.73667
G1 X125.036 Y67.732 E132.09030
G1 X129.691 Y70.419 E132.30794
G1 X115.948 Y94.224 E133.42099
G1 X115.561 Y94.208 E133.43668
G0 F9900 X124.956 Y67.529
G0 X122.763 Y66.262
G0 X105.832 Y95.244
G1 F1200 X102.908 Y93.556 E133.57339
G1 X104.339 Y91.079 E133.68923
G1 X104.562 Y90.600 E133.71063
G1 X104.664 Y90.281 E133.72419
G1 X104.763 Y89.742 E133.74638
G1 X104.779 Y89.428 E133.75911
G1 X104.769 Y89.135 E133.77098
G1 X104.733 Y88.824 E133.78366
G1 X104.594 Y88.270 E133.80679
G1 X104.361 Y87.751 E133.82982
G1 X104.188 Y87.466 E133.84332
G1 X104.145 Y87.412 E133.84612
G1 X117.891 Y63.607 E134.95923
G1 X122.547 Y66.295 E135.17693
G1 X105.832 Y95.244 E136.53054
G0 F9900 X104.262 Y87.803
G0 X117.811 Y63.404
G0 X115.618 Y62.137
G0 X97.011 Y90.022
G1 F1200 X96.955 Y90.119 E136.53508
G1 X96.629 Y89.931 E136.55032
G1 X113.344 Y60.982 E137.90393
G1 X113.992 Y61.356 E137.93423
G1 X114.480 Y61.638 E137.95705
G1 X115.401 Y62.170 E138.00012
G1 X101.658 Y85.974 E139.11313
G1 X101.271 Y85.958 E139.12882
G1 X100.960 Y85.977 E139.14144
G1 X100.401 Y86.085 E139.16449
G1 X99.851 Y86.294 E139.18832
G1 X99.344 Y86.593 E139.21215
G1 X98.891 Y86.979 E139.23625
G1 X98.489 Y87.477 E139.26217
G1 X97.011 Y90.022 E139.38134
G0 F9900 X98.649 Y87.625
G0 X99.005 Y87.833
;TYPE:WALL-OUTER
G1 F1200 X97.184 Y90.973 E139.52832
G1 X95.775 Y90.160 E139.59419
G1 X113.115 Y60.128 E140.99844
G1 X135.091 Y72.816 E142.02599
G1 X117.752 Y102.848 E143.43022
G1 X116.343 Y102.035 E143.49609
G1 X118.073 Y99.039 E143.63618
G1 X118.268 Y98.620 E143.65489
G1 X118.343 Y98.385 E143.66488
G1 X118.397 Y98.151 E143.67461
G1 X118.431 Y97.912 E143.68438
G1 X118.443 Y97.671 E143.69415
G1 X118.435 Y97.424 E143.70416
G1 X118.359 Y96.956 E143.72336
G1 X118.203 Y96.508 E143.74257
G1 X118.094 Y96.287 E143.75255
G1 X117.965 Y96.076 E143.76256
G1 X117.681 Y95.719 E143.78103
G1 X131.479 Y71.820 E144.89849
G1 X130.073 Y71.008 E144.96424
G1 X116.269 Y94.916 E146.08214
G1 X116.061 Y94.866 E146.09080
G1 X115.816 Y94.838 E146.10078
G1 X115.574 Y94.834 E146.11058
G1 X115.328 Y94.849 E146.12056
G1 X114.868 Y94.938 E146.13954
G1 X114.405 Y95.113 E146.15958
G1 X113.997 Y95.355 E146.17879
G1 X113.630 Y95.668 E146.19832
G1 X113.324 Y96.037 E146.21773
G1 X112.831 Y96.872 E146.25700
G1 X111.472 Y99.224 E146.36699
G1 X107.466 Y96.910 E146.55433
G1 X124.335 Y67.695 E147.92039
G1 X122.929 Y66.883 E147.98613
G1 X106.061 Y96.098 E149.35217
G1 X102.054 Y93.785 E149.53952
G1 X103.784 Y90.789 E149.67961
G1 X103.979 Y90.372 E149.69825
G1 X104.056 Y90.130 E149.70854
G1 X104.141 Y89.669 E149.72752
G1 X104.153 Y89.422 E149.73753
G1 X104.145 Y89.182 E149.74726
G1 X104.117 Y88.937 E149.75724
G1 X104.001 Y88.476 E149.77649
G1 X103.807 Y88.042 E149.79574
G1 X103.675 Y87.825 E149.80603
G1 X103.391 Y87.469 E149.82447
G1 X117.190 Y63.570 E150.94195
G1 X115.784 Y62.758 E151.00769
G1 X101.979 Y86.666 E152.12561
G1 X101.771 Y86.616 E152.13427
G1 X101.524 Y86.588 E152.14434
G1 X101.284 Y86.584 E152.15406
G1 X101.039 Y86.599 E152.16400
G1 X100.572 Y86.689 E152.18326
G1 X100.122 Y86.860 E152.20275
G1 X99.708 Y87.104 E152.22221
G1 X99.341 Y87.417 E152.24174
G1 X99.005 Y87.833 E152.26339
G0 F9900 X98.649 Y87.625
G0 X100.645 Y85.178
;TYPE:SKIN
G1 F1200 X100.617 Y84.708 E152.27422
G1 X101.445 Y84.652 E152.30315
G1 X101.265 Y83.588 E152.33196
G1 X102.092 Y83.531 E152.36080
G1 X101.912 Y82.467 E152.38960
G1 X102.739 Y82.411 E152.41844
G1 X102.559 Y81.346 E152.44727
G1 X103.386 Y81.290 E152.47616
G1 X103.206 Y80.226 E152.50497
G1 X103.872 Y80.450 E152.53342
G0 F9900 X115.618 Y62.137
G0 X117.811 Y63.404
G0 X107.858 Y82.668
G1 F1200 X110.558 Y85.369 E152.68807
G0 F9900 X110.235 Y85.929
G1 F1200 X107.534 Y83.228 E152.84275
G0 F9900 X107.211 Y83.789
G1 F1200 X109.911 Y86.489 E152.99736
G0 F9900 X109.588 Y87.049
G1 F1200 X106.887 Y84.349 E153.15201
G0 F9900 X106.564 Y84.910
G1 F1200 X109.264 Y87.609 E153.30660
G0 F9900 X108.941 Y88.170
G1 F1200 X106.240 Y85.470 E153.46125
G0 F9900 X105.917 Y86.030
G1 F1200 X108.617 Y88.730 E153.61587
G0 F9900 X108.294 Y89.291
G1 F1200 X105.593 Y86.590 E153.77054
G0 F9900 X105.270 Y87.151
G1 F1200 X107.970 Y89.851 E153.92516
G0 F9900 X107.647 Y90.412
G1 F1200 X105.449 Y88.214 E154.05103
G0 F9900 X105.616 Y89.265
G1 F1200 X107.323 Y90.972 E154.14879
G0 F9900 X107.000 Y91.532
G1 F1200 X105.556 Y90.089 E154.23145
G0 F9900 X105.382 Y90.799
G1 F1200 X106.676 Y92.092 E154.30552
G0 F9900 X106.353 Y92.653
G1 F1200 X105.112 Y91.413 E154.37656
G0 F9900 X104.792 Y91.976
G1 F1200 X106.029 Y93.213 E154.44740
G0 F9900 X105.706 Y93.774
G1 F1200 X104.469 Y92.537 E154.51824
G0 F9900 X104.145 Y93.097
G1 F1200 X104.615 Y93.567 E154.54516
G0 F9900 X122.763 Y66.262
G0 X124.956 Y67.529
G0 X109.692 Y95.992
G1 F1200 X110.894 Y97.195 E154.61402
G0 F9900 X111.252 Y96.669
G1 F1200 X110.015 Y95.431 E154.68488
G0 F9900 X110.339 Y94.871
G1 F1200 X111.578 Y96.111 E154.75587
G0 F9900 X111.904 Y95.553
G1 F1200 X110.662 Y94.311 E154.82699
G0 F9900 X110.986 Y93.751
G1 F1200 X112.256 Y95.021 E154.89972
G0 F9900 X112.671 Y94.552
G1 F1200 X111.309 Y93.191 E154.97769
G0 F9900 X111.633 Y92.630
G1 F1200 X113.150 Y94.147 E155.06456
G0 F9900 X113.705 Y93.818
G1 F1200 X111.956 Y92.070 E155.16469
G0 F9900 X112.280 Y91.509
G1 F1200 X114.335 Y93.565 E155.28240
G0 F9900 X115.058 Y93.403
G1 F1200 X112.603 Y90.949 E155.42296
G0 F9900 X112.927 Y90.388
G1 F1200 X115.628 Y93.089 E155.57764
G0 F9900 X115.951 Y92.529
G1 F1200 X113.250 Y89.828 E155.73231
G0 F9900 X113.574 Y89.267
G1 F1200 X116.275 Y91.969 E155.88702
G0 F9900 X116.598 Y91.408
G1 F1200 X113.897 Y88.707 E156.04169
G0 F9900 X114.221 Y88.147
G1 F1200 X116.922 Y90.848 E156.19637
G0 F9900 X117.245 Y90.287
G1 F1200 X114.544 Y87.587 E156.35102
G0 F9900 X114.868 Y87.026
G1 F1200 X117.569 Y89.727 E156.50569
G0 F9900 X117.892 Y89.166
G1 F1200 X115.191 Y86.466 E156.66034
G0 F9900 X115.515 Y85.905
G1 F1200 X118.216 Y88.606 E156.81502
G0 F9900 X118.540 Y88.046
G1 F1200 X115.838 Y85.345 E156.96972
G0 F9900 X116.162 Y84.785
G1 F1200 X118.863 Y87.486 E157.12440
G0 F9900 X119.187 Y86.926
G1 F1200 X116.485 Y84.224 E157.27913
G0 F9900 X116.809 Y83.664
G1 F1200 X119.510 Y86.365 E157.43381
G0 F9900 X119.834 Y85.805
G1 F1200 X117.132 Y83.104 E157.58851
G0 F9900 X117.456 Y82.544
G1 F1200 X120.157 Y85.244 E157.74316
G0 F9900 X120.481 Y84.684
G1 F1200 X117.779 Y81.983 E157.89786
G0 F9900 X118.103 Y81.423
G1 F1200 X120.804 Y84.123 E158.05251
G0 F9900 X121.128 Y83.563
G1 F1200 X118.426 Y80.862 E158.20721
G0 F9900 X118.750 Y80.302
G1 F1200 X121.451 Y83.003 E158.36189
G0 F9900 X121.775 Y82.442
G1 F1200 X119.073 Y79.741 E158.51659
G0 F9900 X119.397 Y79.181
G1 F1200 X122.098 Y81.882 E158.67127
G0 F9900 X122.422 Y81.322
G1 F1200 X119.720 Y78.621 E158.82598
G0 F9900 X124.956 Y67.529
G0 X122.763 Y66.262
G0 X115.734 Y76.402
G1 F1200 X113.034 Y73.702 E158.98059
G0 F9900 X113.358 Y73.142
G1 F1200 X116.058 Y75.842 E159.13521
G0 F9900 X116.381 Y75.282
G1 F1200 X113.681 Y72.581 E159.28986
G0 F9900 X114.005 Y72.021
G1 F1200 X116.705 Y74.722 E159.44451
G0 F9900 X117.029 Y74.161
G1 F1200 X114.329 Y71.461 E159.59913
G0 F9900 X114.652 Y70.900
G1 F1200 X117.352 Y73.601 E159.75377
G0 F9900 X117.676 Y73.040
G1 F1200 X114.976 Y70.340 E159.90839
G0 F9900 X115.299 Y69.780
G1 F1200 X117.999 Y72.480 E160.06301
G0 F9900 X118.323 Y71.919
G1 F1200 X115.623 Y69.220 E160.21760
G0 F9900 X115.946 Y68.659
G1 F1200 X118.646 Y71.359 E160.37222
G0 F9900 X118.970 Y70.799
G1 F1200 X116.270 Y68.099 E160.52684
G0 F9900 X116.593 Y67.538
G1 F1200 X119.293 Y70.239 E160.68149
G0 F9900 X119.617 Y69.678
G1 F1200 X116.917 Y66.978 E160.83611
G0 F9900 X117.240 Y66.417
G1 F1200 X119.940 Y69.118 E160.99075
G0 F9900 X120.264 Y68.557
G1 F1200 X117.564 Y65.857 E161.14537
G0 F9900 X117.887 Y65.297
G1 F1200 X120.587 Y67.997 E161.29999
G0 F9900 X120.911 Y67.436
G1 F1200 X118.282 Y64.808 E161.45051
G0 F9900 X117.811 Y63.404
G0 X115.618 Y62.137
G0 X114.224 Y62.518
G1 F1200 X114.000 Y62.735 E161.45765
G1 X113.235 Y62.854 E161.48644
G1 X113.415 Y63.918 E161.51517
G1 X112.588 Y63.975 E161.54402
G1 X112.768 Y65.039 E161.57282
G1 X111.941 Y65.096 E161.60166
G1 X112.121 Y66.160 E161.63047
G1 X111.294 Y66.217 E161.65931
G1 X111.474 Y67.281 E161.68811
G1 X110.647 Y67.337 E161.71695
G1 X110.827 Y68.401 E161.74576
G1 X110.000 Y68.458 E161.77460
G1 X110.180 Y69.522 E161.80340
G1 X109.353 Y69.579 E161.83224
G1 X109.533 Y70.643 E161.86105
G1 X108.706 Y70.700 E161.88989
G1 X108.886 Y71.764 E161.91870
G1 X108.059 Y71.820 E161.94753
G1 X108.239 Y72.885 E161.97637
G1 X107.412 Y72.941 E162.00520
G1 X107.592 Y74.005 E162.03401
G1 X106.764 Y74.061 E162.06294
G1 X106.945 Y75.126 E162.09177
G1 X106.117 Y75.182 E162.12059
G1 X106.298 Y76.247 E162.14943
G1 X105.470 Y76.303 E162.17825
G1 X105.651 Y77.368 E162.20708
G1 X104.823 Y77.423 E162.23595
G1 X105.004 Y78.488 E162.26479
G1 X104.176 Y78.544 E162.29361
G1 X104.357 Y79.609 E162.32245
G1 X103.691 Y79.385 E162.35090
G0 F9900 X115.618 Y62.137
G0 X117.811 Y63.404
G0 X109.476 Y79.867
G1 F1200 X112.176 Y82.566 E162.50549
G0 F9900 X112.499 Y82.006
G1 F1200 X109.799 Y79.306 E162.66011
G0 F9900 X110.123 Y78.746
G1 F1200 X112.823 Y81.445 E162.81470
G0 F9900 X113.146 Y80.885
G1 F1200 X110.446 Y78.185 E162.96932
G0 F9900 X110.770 Y77.625
G1 F1200 X113.470 Y80.325 E163.12394
G0 F9900 X111.852 Y83.127
G1 F1200 X109.152 Y80.427 E163.27855
G0 F9900 X108.829 Y80.987
G1 F1200 X111.529 Y83.687 E163.43317
G0 F9900 X111.205 Y84.248
G1 F1200 X108.505 Y81.547 E163.58782
G0 F9900 X108.182 Y82.108
G1 F1200 X110.882 Y84.808 E163.74244
G0 F9900 X122.763 Y66.262
G0 X124.956 Y67.529
G0 X132.100 Y71.654
G0 X119.937 Y94.747
G1 F1200 X120.279 Y95.531 E163.77126
G1 X119.613 Y95.307 E163.79971
G0 F9900 X120.260 Y94.186
G1 F1200 X120.926 Y94.410 E163.82862
G1 X120.746 Y93.346 E163.85742
G1 X121.573 Y93.289 E163.88626
G1 X121.393 Y92.225 E163.91507
G1 X122.220 Y92.169 E163.94391
G1 X122.040 Y91.105 E163.97271
G1 X122.867 Y91.048 E164.00155
G1 X122.687 Y89.984 E164.03036
G1 X123.514 Y89.927 E164.05920
G1 X123.334 Y88.863 E164.08801
G1 X124.161 Y88.806 E164.11685
G1 X123.981 Y87.742 E164.14565
G1 X124.808 Y87.686 E164.17449
G1 X124.628 Y86.621 E164.20332
G1 X125.455 Y86.565 E164.23221
G1 X125.275 Y85.501 E164.26102
G1 X126.103 Y85.445 E164.28984
G1 X125.922 Y84.380 E164.31868
G1 X126.750 Y84.324 E164.34749
G1 X126.569 Y83.259 E164.37633
G1 X127.397 Y83.203 E164.40515
G1 X127.216 Y82.138 E164.43399
G1 X128.044 Y82.083 E164.46286
G1 X127.863 Y81.018 E164.49169
G1 X128.691 Y80.962 E164.52051
G1 X128.510 Y79.897 E164.54935
G1 X129.176 Y80.121 E164.57780
G0 F9900 X132.100 Y71.654
G0 X129.907 Y70.387
G0 X123.069 Y80.201
G1 F1200 X120.367 Y77.500 E164.73251
G0 F9900 X120.691 Y76.940
G1 F1200 X123.392 Y79.640 E164.88715
G0 F9900 X123.716 Y79.080
G1 F1200 X121.015 Y76.380 E165.04180
G0 F9900 X121.338 Y75.819
G1 F1200 X124.039 Y78.519 E165.19645
G0 F9900 X124.363 Y77.959
G1 F1200 X121.662 Y75.259 E165.35110
G0 F9900 X121.985 Y74.698
G1 F1200 X124.686 Y77.399 E165.50577
G0 F9900 X125.010 Y76.839
G1 F1200 X122.309 Y74.138 E165.66045
G0 F9900 X122.632 Y73.577
G1 F1200 X125.333 Y76.278 E165.81512
G0 F9900 X125.657 Y75.718
G1 F1200 X122.956 Y73.017 E165.96980
G0 F9900 X123.279 Y72.457
G1 F1200 X125.980 Y75.157 E166.12445
G0 F9900 X126.304 Y74.597
G1 F1200 X123.603 Y71.897 E166.27910
G0 F9900 X123.926 Y71.336
G1 F1200 X126.627 Y74.036 E166.43374
G0 F9900 X126.951 Y73.476
G1 F1200 X124.250 Y70.776 E166.58839
G0 F9900 X124.573 Y70.215
G1 F1200 X127.274 Y72.916 E166.74307
G0 F9900 X127.598 Y72.356
G1 F1200 X124.897 Y69.655 E166.89774
G0 F9900 X125.220 Y69.094
G1 F1200 X127.921 Y71.795 E167.05242
G0 F9900 X128.245 Y71.235
G1 F1200 X126.647 Y69.637 E167.14393
G0 F9900 X124.956 Y67.529
G0 X122.763 Y66.262
G0 X121.234 Y66.876
G1 F1200 X120.374 Y66.016 E167.19318
G0 F9900 X122.763 Y66.262
G0 X124.956 Y67.529
G0 X120.044 Y78.061
G1 F1200 X122.745 Y80.761 E167.34783
G0 F9900 X129.907 Y70.387
G0 X132.100 Y71.654
G0 X128.996 Y79.057
G1 F1200 X129.661 Y79.280 E167.37664
G1 X129.481 Y78.216 E167.40544
G1 X130.308 Y78.160 E167.43428
G1 X130.128 Y77.095 E167.46311
G1 X130.955 Y77.039 E167.49200
G1 X130.775 Y75.975 E167.52081
G1 X131.603 Y75.919 E167.54963
G1 X131.422 Y74.854 E167.57846
G1 X132.250 Y74.798 E167.60728
G1 X132.069 Y73.733 E167.63612
G1 X132.897 Y73.677 E167.66494
G1 X132.920 Y73.259 E167.68189
G0 F9900 X132.100 Y71.654
G0 X129.907 Y70.387
G0 X112.388 Y96.614
G0 X124.956 Y67.529
G0 X122.763 Y66.262
G0 X115.411 Y76.962
G1 F1200 X112.711 Y74.263 E167.83648
G0 F9900 X112.387 Y74.823
G1 F1200 X115.087 Y77.523 E167.99110
G0 F9900 X114.764 Y78.083
G1 F1200 X112.064 Y75.383 E168.14572
G0 F9900 X111.740 Y75.943
G1 F1200 X114.440 Y78.644 E168.30037
G0 F9900 X114.117 Y79.204
G1 F1200 X111.417 Y76.504 E168.45499
G0 F9900 X111.093 Y77.064
G1 F1200 X113.793 Y79.765 E168.60963
;LAYER:1
G1 F420 E166.60963
G1 Z0.725
G0 F9900 X60.571 Y71.828 Z0.775
;TYPE:WALL-INNER
G1 Z0.775
G1 F420 E168.60963
G1 F1380 X45.993 Y97.077 E169.38744
G1 X46.043 Y96.546 E169.40166
G1 X46.031 Y96.171 E169.41167
G1 X45.934 Y95.588 E169.42744
G1 X45.826 Y95.231 E169.43739
G1 X45.587 Y94.694 E169.45307
G1 X45.216 Y94.141 E169.47084
G1 X45.010 Y93.906 E169.47917
G1 X44.769 Y93.673 E169.48812
G1 X44.382 Y93.372 E169.50120
G1 X43.944 Y93.120 E169.51468
G1 X43.490 Y92.935 E169.52776
G1 X42.859 Y92.781 E169.54508
G1 X42.536 Y92.746 E169.55375
G1 X42.213 Y92.738 E169.56237
G1 X41.865 Y92.761 E169.57168
G1 X41.286 Y92.872 E169.58740
G1 X40.929 Y92.992 E169.59745
G1 X40.373 Y93.260 E169.61392
G1 X39.852 Y93.636 E169.63106
G1 X39.401 Y94.091 E169.64815
G1 X39.069 Y94.569 E169.66368
G1 X37.687 Y96.961 E169.73737
G1 X33.882 Y94.762 E169.85462
G1 X29.894 Y92.461 E169.97745
G1 X31.262 Y90.090 E170.05047
G1 X31.410 Y89.806 E170.05902
G1 X31.615 Y89.251 E170.07480
G1 X31.691 Y88.912 E170.08407
G1 X31.735 Y88.596 E170.09258
G1 X31.752 Y88.273 E170.10121
G1 X31.742 Y87.952 E170.10978
G1 X31.701 Y87.605 E170.11910
G1 X31.548 Y87.005 E170.13562
G1 X31.285 Y86.419 E170.15275
G1 X30.927 Y85.885 E170.16991
G1 X30.497 Y85.436 E170.18649
G1 X30.092 Y85.121 E170.20018
G1 X29.653 Y84.870 E170.21367
G1 X29.179 Y84.675 E170.22734
G1 X28.591 Y84.533 E170.24348
G1 X28.245 Y84.496 E170.25276
G1 X27.923 Y84.488 E170.26136
G1 X27.576 Y84.511 E170.27064
G1 X26.974 Y84.627 E170.28699
G1 X26.373 Y84.856 E170.30415
G1 X25.821 Y85.182 E170.32125
G1 X25.631 Y85.344 E170.32791
G1 X40.219 Y60.078 E171.10624
G1 X60.571 Y71.828 E171.73318
G0 F9900 X61.253 Y71.645
G1 F1380 X44.150 Y101.269 E172.64575
G1 X43.501 Y100.894 E172.66574
G1 X45.122 Y98.085 E172.75226
G1 X45.346 Y97.603 E172.76644
G1 X45.492 Y97.067 E172.78126
G1 X45.542 Y96.531 E172.79562
G1 X45.532 Y96.220 E172.80393
G1 X45.446 Y95.702 E172.81793
G1 X45.356 Y95.406 E172.82619
G1 X45.144 Y94.928 E172.84014
G1 X44.989 Y94.677 E172.84801
G1 X44.648 Y94.251 E172.86257
G1 X44.440 Y94.051 E172.87026
G1 X44.102 Y93.788 E172.88169
G1 X43.723 Y93.570 E172.89335
G1 X43.327 Y93.408 E172.90477
G1 X42.782 Y93.275 E172.91973
G1 X42.503 Y93.245 E172.92722
G1 X42.223 Y93.238 E172.93469
G1 X41.929 Y93.258 E172.94255
G1 X41.413 Y93.357 E172.95657
G1 X41.118 Y93.456 E172.96487
G1 X40.630 Y93.691 E172.97932
G1 X40.178 Y94.017 E172.99419
G1 X39.787 Y94.412 E173.00902
G1 X39.492 Y94.837 E173.02282
G1 X37.870 Y97.645 E173.10933
G1 X29.211 Y92.645 E173.37608
G1 X30.824 Y89.850 E173.46217
G1 X30.952 Y89.603 E173.46959
G1 X31.134 Y89.109 E173.48364
G1 X31.198 Y88.822 E173.49148
G1 X31.252 Y88.268 E173.50633
G1 X31.243 Y87.990 E173.51375
G1 X31.208 Y87.697 E173.52162
G1 X31.074 Y87.170 E173.53613
G1 X30.846 Y86.662 E173.55099
G1 X30.536 Y86.199 E173.56585
G1 X30.162 Y85.808 E173.58028
G1 X29.813 Y85.538 E173.59206
G1 X29.433 Y85.320 E173.60374
G1 X29.025 Y85.152 E173.61551
G1 X28.505 Y85.027 E173.62978
G1 X28.212 Y84.995 E173.63765
G1 X27.933 Y84.988 E173.64509
G1 X27.640 Y85.008 E173.65293
G1 X27.111 Y85.110 E173.66730
G1 X26.591 Y85.308 E173.68214
G1 X26.113 Y85.590 E173.69695
G1 X25.691 Y85.950 E173.71175
G1 X25.350 Y86.357 E173.72591
G1 X25.195 Y86.600 E173.73360
G1 X23.582 Y89.393 E173.81965
G1 X22.932 Y89.018 E173.83967
G1 X40.036 Y59.395 E174.75222
G1 X61.253 Y71.645 E175.40581
G0 F9900 X61.936 Y71.462
;TYPE:WALL-OUTER
G1 F1260 X44.333 Y101.952 E176.34505
G1 X42.818 Y101.077 E176.39173
G1 X44.678 Y97.854 E176.49100
G1 X44.875 Y97.431 E176.50345
G1 X44.998 Y96.978 E176.51597
G1 X45.041 Y96.516 E176.52835
G1 X45.033 Y96.269 E176.53494
G1 X44.958 Y95.816 E176.54719
G1 X44.887 Y95.581 E176.55374
G1 X44.701 Y95.162 E176.56597
G1 X44.574 Y94.956 E176.57243
G1 X44.285 Y94.596 E176.58475
G1 X44.112 Y94.429 E176.59116
G1 X43.823 Y94.204 E176.60093
G1 X43.503 Y94.020 E176.61078
G1 X43.164 Y93.881 E176.62055
G1 X42.705 Y93.770 E176.63315
G1 X42.470 Y93.744 E176.63946
G1 X42.234 Y93.739 E176.64576
G1 X41.993 Y93.755 E176.65220
G1 X41.540 Y93.842 E176.66451
G1 X41.307 Y93.920 E176.67106
G1 X40.887 Y94.122 E176.68349
G1 X40.504 Y94.398 E176.69609
G1 X40.173 Y94.733 E176.70865
G1 X39.915 Y95.105 E176.72073
G1 X38.053 Y98.328 E176.82003
G1 X28.528 Y92.828 E177.11346
G1 X30.385 Y89.609 E177.21260
G1 X30.494 Y89.400 E177.21889
G1 X30.653 Y88.968 E177.23117
G1 X30.739 Y88.500 E177.24386
G1 X30.751 Y88.263 E177.25019
G1 X30.744 Y88.027 E177.25649
G1 X30.715 Y87.788 E177.26292
G1 X30.600 Y87.335 E177.27538
G1 X30.407 Y86.905 E177.28796
G1 X30.145 Y86.514 E177.30051
G1 X29.826 Y86.181 E177.31282
G1 X29.534 Y85.954 E177.32268
G1 X29.213 Y85.770 E177.33255
G1 X28.870 Y85.629 E177.34245
G1 X28.419 Y85.520 E177.35483
G1 X28.179 Y85.494 E177.36127
G1 X27.944 Y85.489 E177.36754
G1 X27.704 Y85.505 E177.37395
G1 X27.248 Y85.593 E177.38634
G1 X26.808 Y85.760 E177.39890
G1 X26.404 Y85.999 E177.41142
G1 X26.047 Y86.303 E177.42393
G1 X25.754 Y86.653 E177.43611
G1 X23.765 Y90.076 E177.54172
G1 X22.249 Y89.201 E177.58842
G1 X39.853 Y58.712 E178.52765
G1 X61.936 Y71.462 E179.20792
G0 F9900 X61.504 Y71.511
G0 X60.111 Y71.764
;TYPE:SKIN
G1 F1200 X36.057 Y95.817 E180.11542
G0 F9900 X35.609 Y95.559
G1 F1200 X59.662 Y71.505 E181.02292
G0 F9900 X59.214 Y71.246
G1 F1200 X35.160 Y95.300 E181.93044
G0 F9900 X34.712 Y95.041
G1 F1200 X58.766 Y70.987 E182.83796
G0 F9900 X58.317 Y70.729
G1 F1200 X34.264 Y94.782 E183.74543
G0 F9900 X33.816 Y94.523
G1 F1200 X57.869 Y70.470 E184.65291
G0 F9900 X57.421 Y70.211
G1 F1200 X33.368 Y94.264 E185.56039
G0 F9900 X32.920 Y94.005
G1 F1200 X56.973 Y69.952 E186.46787
G0 F9900 X56.524 Y69.693
G1 F1200 X32.471 Y93.746 E187.37535
G0 F9900 X32.023 Y93.488
G1 F1200 X56.076 Y69.435 E188.28283
G0 F9900 X55.628 Y69.176
G1 F1200 X31.575 Y93.229 E189.19031
G0 F9900 X31.126 Y92.970
G1 F1200 X55.179 Y68.917 E190.09779
G0 F9900 X54.731 Y68.658
G1 F1200 X30.678 Y92.711 E191.00527
G0 F9900 X30.230 Y92.452
G1 F1200 X54.283 Y68.399 E191.91275
G0 F9900 X53.834 Y68.141
G1 F1200 X30.889 Y91.085 E192.77841
G0 F9900 X31.674 Y89.594
G1 F1200 X53.386 Y67.882 E193.59756
G0 F9900 X52.938 Y67.623
G1 F1200 X31.903 Y88.657 E194.39116
G0 F9900 X31.918 Y87.936
G1 F1200 X52.489 Y67.364 E195.16729
G0 F9900 X52.041 Y67.105
G1 F1200 X31.813 Y87.334 E195.93047
G0 F9900 X31.646 Y86.793
G1 F1200 X51.593 Y66.847 E196.68302
G0 F9900 X51.145 Y66.588
G1 F1200 X31.423 Y86.309 E197.42708
G0 F9900 X31.140 Y85.885
G1 F1200 X50.696 Y66.329 E198.16490
G0 F9900 X50.248 Y66.070
G1 F1200 X30.810 Y85.508 E198.89826
G0 F9900 X30.440 Y85.171
G1 F1200 X49.800 Y65.811 E199.62868
G0 F9900 X49.351 Y65.553
G1 F1200 X30.024 Y84.880 E200.35786
G0 F9900 X29.557 Y84.640
G1 F1200 X48.903 Y65.294 E201.08775
G0 F9900 X48.455 Y65.035
G1 F1200 X29.031 Y84.458 E201.82056
G0 F9900 X28.442 Y84.340
G1 F1200 X48.006 Y64.776 E202.55868
G0 F9900 X47.559 Y64.517
G1 F1200 X27.751 Y84.324 E203.30598
G0 F9900 X26.902 Y84.466
G1 F1200 X47.110 Y64.258 E204.06840
G0 F9900 X46.662 Y63.999
G1 F1200 X26.539 Y84.122 E204.82761
G0 F9900 X27.505 Y82.449
G1 F1200 X46.214 Y63.740 E205.53346
G0 F9900 X45.766 Y63.481
G1 F1200 X28.471 Y80.776 E206.18598
G0 F9900 X39.918 Y93.371
G1 F1200 X58.873 Y74.415 E206.90113
G0 F9900 X57.907 Y76.088
G1 F1200 X41.306 Y92.690 E207.52748
G0 F9900 X42.135 Y92.568
G1 F1200 X56.941 Y77.761 E208.08611
G0 F9900 X55.975 Y79.434
G1 F1200 X42.811 Y92.599 E208.58278
G0 F9900 X43.388 Y92.729
G1 F1200 X55.009 Y81.108 E209.02122
G0 F9900 X54.043 Y82.781
G1 F1200 X43.909 Y92.915 E209.40356
G0 F9900 X44.369 Y93.162
G1 F1200 X53.077 Y84.454 E209.73210
G0 F9900 X52.111 Y86.127
G1 F1200 X44.780 Y93.459 E210.00870
G0 F9900 X45.149 Y93.797
G1 F1200 X51.145 Y87.800 E210.23494
G0 F9900 X50.179 Y89.474
G1 F1200 X45.462 Y94.190 E210.41289
G0 F9900 X45.744 Y94.615
G1 F1200 X49.213 Y91.147 E210.54375
G0 F9900 X48.247 Y92.820
G1 F1200 X45.962 Y95.105 E210.62996
G0 F9900 X46.123 Y95.651
G1 F1200 X47.281 Y94.493 E210.67365
G0 F9900 X41.936 Y93.308
G0 X39.162 Y94.127
G1 F1200 X36.954 Y96.335 E210.75695
G0 F9900 X37.402 Y96.594
G1 F1200 X38.098 Y95.897 E210.78323
G0 F9900 X36.505 Y96.076
G1 F1200 X59.839 Y72.742 E211.66358
G0 F9900 X45.317 Y63.223
G1 F1200 X29.437 Y79.103 E212.26271
G0 F9900 X30.404 Y77.429
G1 F1200 X44.869 Y62.964 E212.80845
G0 F9900 X44.421 Y62.705
G1 F1200 X31.370 Y75.756 E213.30084
G0 F9900 X32.335 Y74.083
G1 F1200 X43.972 Y62.446 E213.73988
G0 F9900 X43.524 Y62.187
G1 F1200 X33.301 Y72.410 E214.12558
G0 F9900 X34.267 Y70.737
G1 F1200 X43.076 Y61.929 E214.45791
G0 F9900 X42.627 Y61.670
G1 F1200 X35.233 Y69.064 E214.73687
G0 F9900 X36.199 Y67.391
G1 F1200 X42.179 Y61.411 E214.96249
G0 F9900 X41.731 Y61.152
G1 F1200 X37.166 Y65.717 E215.13472
G0 F9900 X38.132 Y64.044
G1 F1200 X41.283 Y60.893 E215.25360
G0 F9900 X40.834 Y60.635
G1 F1200 X39.098 Y62.371 E215.31910
G0 F9900 X40.063 Y60.698
G1 F1200 X40.386 Y60.376 E215.33126
G1 F420 E213.33126
G1 Z1.075
G0 F9900 X63.152 Y84.899
;TYPE:WALL-INNER
G1 Z0.775
G1 F420 E215.33126
G1 F1380 X62.703 Y85.218 E215.34596
G1 X77.281 Y59.970 E216.12374
G1 X97.632 Y71.720 E216.75066
G1 X83.054 Y96.968 E217.52844
G1 X83.104 Y96.437 E217.54266
G1 X83.092 Y96.062 E217.55267
G1 X82.995 Y95.479 E217.56844
G1 X82.886 Y95.121 E217.57842
G1 X82.637 Y94.562 E217.59475
G1 X82.294 Y94.052 E217.61115
G1 X81.829 Y93.563 E217.62915
G1 X81.443 Y93.264 E217.64217
G1 X81.006 Y93.011 E217.65565
G1 X80.552 Y92.826 E217.66872
G1 X79.921 Y92.672 E217.68605
G1 X79.598 Y92.637 E217.69472
G1 X79.248 Y92.628 E217.70406
G1 X78.635 Y92.695 E217.72051
G1 X78.039 Y92.864 E217.73704
G1 X77.722 Y93.003 E217.74627
G1 X77.416 Y93.166 E217.75552
G1 X76.915 Y93.526 E217.77198
G1 X76.463 Y93.982 E217.78911
G1 X76.131 Y94.460 E217.80463
G1 X74.749 Y96.852 E217.87833
G1 X70.944 Y94.653 E217.99558
G1 X66.956 Y92.352 E218.11841
G1 X68.324 Y89.981 E218.19143
G1 X68.472 Y89.697 E218.19998
G1 X68.676 Y89.143 E218.21573
G1 X68.753 Y88.804 E218.22500
G1 X68.798 Y88.487 E218.23354
G1 X68.814 Y88.164 E218.24217
G1 X68.804 Y87.843 E218.25074
G1 X68.763 Y87.495 E218.26009
G1 X68.609 Y86.896 E218.27659
G1 X68.348 Y86.311 E218.29368
G1 X67.989 Y85.776 E218.31086
G1 X67.558 Y85.326 E218.32749
G1 X67.154 Y85.013 E218.34112
G1 X66.717 Y84.761 E218.35458
G1 X66.241 Y84.566 E218.36830
G1 X65.652 Y84.424 E218.38447
G1 X65.307 Y84.387 E218.39372
G1 X64.958 Y84.378 E218.40304
G1 X64.348 Y84.445 E218.41941
G1 X63.731 Y84.619 E218.43651
G1 X63.152 Y84.899 E218.45367
G0 F9900 X63.408 Y85.330
G1 F1380 X62.955 Y85.653 E218.46851
G1 X62.565 Y86.047 E218.48330
G1 X62.265 Y86.477 E218.49729
G1 X60.644 Y89.284 E218.58376
G1 X59.994 Y88.909 E218.60378
G1 X77.098 Y59.287 E219.51631
G1 X98.314 Y71.537 E220.16988
G1 X81.211 Y101.160 E221.08242
G1 X80.562 Y100.785 E221.10242
G1 X82.183 Y97.976 E221.18894
G1 X82.407 Y97.494 E221.20312
G1 X82.553 Y96.958 E221.21794
G1 X82.603 Y96.422 E221.23230
G1 X82.593 Y96.111 E221.24060
G1 X82.507 Y95.593 E221.25461
G1 X82.417 Y95.296 E221.26289
G1 X82.198 Y94.805 E221.27723
G1 X81.897 Y94.357 E221.29163
G1 X81.709 Y94.142 E221.29925
G1 X81.501 Y93.941 E221.30697
G1 X81.163 Y93.680 E221.31836
G1 X80.785 Y93.461 E221.33002
G1 X80.389 Y93.299 E221.34143
G1 X79.844 Y93.166 E221.35640
G1 X79.565 Y93.136 E221.36388
G1 X79.269 Y93.129 E221.37178
G1 X78.731 Y93.187 E221.38622
G1 X78.209 Y93.336 E221.40070
G1 X77.680 Y93.591 E221.41637
G1 X77.240 Y93.908 E221.43083
G1 X76.849 Y94.303 E221.44566
G1 X76.554 Y94.728 E221.45946
G1 X74.932 Y97.536 E221.54597
G1 X66.273 Y92.536 E221.81272
G1 X67.886 Y89.741 E221.89882
G1 X68.014 Y89.494 E221.90624
G1 X68.196 Y89.001 E221.92026
G1 X68.260 Y88.714 E221.92810
G1 X68.314 Y88.159 E221.94298
G1 X68.305 Y87.881 E221.95040
G1 X68.270 Y87.587 E221.95830
G1 X68.135 Y87.061 E221.97278
G1 X67.909 Y86.554 E221.98759
G1 X67.598 Y86.090 E222.00249
G1 X67.223 Y85.699 E222.01695
G1 X66.875 Y85.430 E222.02868
G1 X66.496 Y85.211 E222.04036
G1 X66.087 Y85.043 E222.05216
G1 X65.566 Y84.918 E222.06645
G1 X65.274 Y84.886 E222.07429
G1 X64.979 Y84.879 E222.08216
G1 X64.444 Y84.937 E222.09651
G1 X63.909 Y85.088 E222.11134
G1 X63.408 Y85.330 E222.12619
G0 F9900 X63.663 Y85.762
;TYPE:WALL-OUTER
G1 F1260 X63.280 Y86.035 E222.13874
G1 X62.950 Y86.368 E222.15124
G1 X62.687 Y86.746 E222.16353
G1 X60.827 Y89.967 E222.26276
G1 X59.311 Y89.092 E222.30945
G1 X76.915 Y58.604 E223.24866
G1 X98.997 Y71.354 E223.92891
G1 X81.394 Y101.843 E224.86813
G1 X79.879 Y100.968 E224.91480
G1 X81.739 Y97.745 E225.01407
G1 X81.936 Y97.322 E225.02652
G1 X82.059 Y96.869 E225.03905
G1 X82.102 Y96.407 E225.05142
G1 X82.094 Y96.160 E225.05802
G1 X82.019 Y95.707 E225.07027
G1 X81.948 Y95.471 E225.07684
G1 X81.759 Y95.048 E225.08920
G1 X81.500 Y94.662 E225.10160
G1 X81.346 Y94.487 E225.10782
G1 X81.173 Y94.320 E225.11424
G1 X80.884 Y94.096 E225.12399
G1 X80.564 Y93.911 E225.13385
G1 X80.225 Y93.772 E225.14363
G1 X79.767 Y93.661 E225.15620
G1 X79.532 Y93.635 E225.16251
G1 X79.290 Y93.630 E225.16896
G1 X78.827 Y93.680 E225.18139
G1 X78.378 Y93.807 E225.19384
G1 X78.158 Y93.904 E225.20025
G1 X77.945 Y94.017 E225.20668
G1 X77.566 Y94.289 E225.21913
G1 X77.235 Y94.624 E225.23169
G1 X76.977 Y94.996 E225.24377
G1 X75.115 Y98.219 E225.34307
G1 X65.590 Y92.719 E225.63650
G1 X67.447 Y89.500 E225.73564
G1 X67.556 Y89.291 E225.74193
G1 X67.715 Y88.859 E225.75421
G1 X67.801 Y88.391 E225.76690
G1 X67.813 Y88.154 E225.77323
G1 X67.806 Y87.918 E225.77953
G1 X67.777 Y87.679 E225.78596
G1 X67.661 Y87.226 E225.79843
G1 X67.470 Y86.797 E225.81096
G1 X67.207 Y86.405 E225.82355
G1 X66.888 Y86.072 E225.83585
G1 X66.596 Y85.846 E225.84570
G1 X66.275 Y85.661 E225.85559
G1 X65.932 Y85.520 E225.86548
G1 X65.480 Y85.411 E225.87789
G1 X65.241 Y85.385 E225.88430
G1 X65.000 Y85.380 E225.89073
G1 X64.539 Y85.430 E225.90310
G1 X64.087 Y85.557 E225.91563
G1 X63.663 Y85.762 E225.92819
G0 F9900 X63.691 Y84.446
;TYPE:SKIN
G1 F1200 X84.054 Y64.084 E226.69643
G0 F9900 X84.502 Y64.343
G1 F1200 X64.604 Y84.241 E227.44715
G0 F9900 X65.338 Y84.214
G1 F1200 X84.951 Y64.601 E228.18712
G0 F9900 X85.399 Y64.860
G1 F1200 X65.945 Y84.314 E228.92108
G0 F9900 X66.489 Y84.477
G1 F1200 X85.847 Y65.119 E229.65143
G0 F9900 X86.296 Y65.378
G1 F1200 X66.970 Y84.704 E230.38057
G0 F9900 X67.400 Y84.981
G1 F1200 X86.744 Y65.637 E231.11038
G0 F9900 X87.192 Y65.895
G1 F1200 X67.782 Y85.306 E231.84271
G0 F9900 X68.128 Y85.667
G1 F1200 X87.640 Y66.154 E232.57888
G0 F9900 X88.089 Y66.413
G1 F1200 X68.412 Y86.090 E233.32126
G0 F9900 X68.651 Y86.558
G1 F1200 X88.537 Y66.672 E234.07153
G0 F9900 X88.985 Y66.931
G1 F1200 X68.836 Y87.080 E234.83172
G0 F9900 X68.959 Y87.664
G1 F1200 X89.434 Y67.189 E235.60420
G0 F9900 X89.882 Y67.448
G1 F1200 X68.979 Y88.351 E236.39284
G0 F9900 X68.843 Y89.194
G1 F1200 X90.330 Y67.707 E237.20351
G0 F9900 X90.779 Y67.966
G1 F1200 X68.200 Y90.545 E238.05537
G0 F9900 X67.238 Y92.213
G1 F1200 X91.226 Y68.225 E238.96040
G0 F9900 X91.674 Y68.484
G1 F1200 X67.624 Y92.534 E239.86777
G0 F9900 X68.072 Y92.794
G1 F1200 X92.123 Y68.743 E240.77517
G0 F9900 X92.571 Y69.002
G1 F1200 X68.520 Y93.053 E241.68258
G0 F9900 X68.969 Y93.311
G1 F1200 X93.019 Y69.261 E242.58994
G0 F9900 X93.468 Y69.519
G1 F1200 X69.417 Y93.570 E243.49735
G0 F9900 X69.865 Y93.829
G1 F1200 X93.916 Y69.778 E244.40475
G0 F9900 X94.364 Y70.037
G1 F1200 X70.313 Y94.088 E245.31215
G0 F9900 X70.762 Y94.347
G1 F1200 X94.813 Y70.296 E246.21956
G0 F9900 X95.261 Y70.555
G1 F1200 X71.210 Y94.605 E247.12694
G0 F9900 X71.658 Y94.864
G1 F1200 X95.709 Y70.813 E248.03435
G0 F9900 X96.158 Y71.072
G1 F1200 X72.107 Y95.123 E248.94175
G0 F9900 X72.554 Y95.383
G1 F1200 X96.606 Y71.331 E249.84919
G0 F9900 X97.054 Y71.590
G1 F1200 X73.003 Y95.641 E250.75659
G0 F9900 X73.451 Y95.900
G1 F1200 X97.151 Y72.200 E251.65076
G0 F9900 X96.184 Y73.874
G1 F1200 X73.899 Y96.159 E252.49153
G0 F9900 X74.348 Y96.418
G1 F1200 X75.411 Y95.354 E252.53166
G0 F9900 X78.104 Y92.662
G1 F1200 X95.218 Y75.547 E253.17736
G0 F9900 X94.253 Y77.220
G1 F1200 X78.993 Y92.480 E253.75309
G0 F9900 X79.707 Y92.472
G1 F1200 X93.286 Y78.894 E254.26539
G0 F9900 X83.606 Y63.825
G1 F1200 X63.846 Y83.585 E255.01090
G0 F9900 X64.812 Y81.911
G1 F1200 X83.157 Y63.566 E255.70302
G0 F9900 X82.710 Y63.307
G1 F1200 X65.779 Y80.238 E256.34180
G0 F9900 X66.745 Y78.565
G1 F1200 X82.261 Y63.048 E256.92721
G0 F9900 X81.813 Y62.789
G1 F1200 X67.711 Y76.891 E257.45926
G0 F9900 X68.678 Y75.217
G1 F1200 X81.365 Y62.530 E257.93792
G0 F9900 X80.917 Y62.272
G1 F1200 X69.644 Y73.544 E258.36321
G0 F9900 X70.610 Y71.871
G1 F1200 X80.468 Y62.013 E258.73514
G0 F9900 X80.020 Y61.754
G1 F1200 X71.577 Y70.197 E259.05368
G0 F9900 X72.544 Y68.523
G1 F1200 X79.572 Y61.495 E259.31883
G0 F9900 X79.123 Y61.236
G1 F1200 X73.510 Y66.850 E259.53062
G0 F9900 X74.476 Y65.176
G1 F1200 X78.675 Y60.978 E259.68902
G0 F9900 X78.227 Y60.719
G1 F1200 X75.443 Y63.503 E259.79406
G0 F9900 X76.409 Y61.829
G1 F1200 X77.778 Y60.460 E259.84571
G0 F9900 X92.320 Y80.567
G1 F1200 X80.302 Y92.585 E260.29912
G0 F9900 X80.840 Y92.754
G1 F1200 X91.354 Y82.240 E260.69580
G0 F9900 X90.388 Y83.913
G1 F1200 X81.314 Y92.987 E261.03815
G0 F9900 X81.738 Y93.270
G1 F1200 X89.422 Y85.586 E261.32805
G0 F9900 X88.456 Y87.259
G1 F1200 X82.112 Y93.603 E261.56740
G0 F9900 X82.452 Y93.970
G1 F1200 X87.489 Y88.933 E261.75744
G0 F9900 X86.523 Y90.606
G1 F1200 X82.736 Y94.393 E261.90031
G0 F9900 X82.966 Y94.870
G1 F1200 X85.557 Y92.279 E261.99807
G0 F9900 X84.591 Y93.952
G1 F1200 X83.152 Y95.392 E262.05238
G0 F9900 X83.625 Y95.626
G1 F1200 X83.258 Y95.993 E262.06623
G1 F420 E260.06623
G1 Z1.075
G0 F9900 X99.161 Y86.338
;TYPE:WALL-INNER
G1 Z0.775
G1 F420 E262.06623
G1 F1380 X98.973 Y86.498 E262.07281
G1 X113.559 Y61.235 E262.85104
G1 X133.911 Y72.985 E263.47799
G1 X119.333 Y98.233 E264.25577
G1 X119.383 Y97.702 E264.26999
G1 X119.371 Y97.326 E264.28003
G1 X119.274 Y96.745 E264.29574
G1 X119.166 Y96.389 E264.30567
G1 X118.928 Y95.853 E264.32131
G1 X118.744 Y95.552 E264.33073
G1 X118.556 Y95.298 E264.33916
G1 X118.354 Y95.065 E264.34738
G1 X118.108 Y94.827 E264.35652
G1 X117.721 Y94.529 E264.36955
G1 X117.286 Y94.277 E264.38296
G1 X116.808 Y94.081 E264.39674
G1 X116.224 Y93.941 E264.41276
G1 X115.877 Y93.901 E264.42208
G1 X115.554 Y93.895 E264.43070
G1 X115.208 Y93.916 E264.43995
G1 X114.601 Y94.033 E264.45644
G1 X114.033 Y94.250 E264.47266
G1 X113.693 Y94.431 E264.48293
G1 X113.192 Y94.792 E264.49941
G1 X112.758 Y95.231 E264.51588
G1 X112.535 Y95.527 E264.52576
G1 X111.506 Y97.290 E264.58022
G1 X111.028 Y98.118 E264.60573
G1 X107.222 Y95.918 E264.72301
G1 X103.234 Y93.617 E264.84584
G1 X104.617 Y91.223 E264.91960
G1 X104.855 Y90.713 E264.93461
G1 X104.968 Y90.356 E264.94460
G1 X105.074 Y89.777 E264.96030
G1 X105.092 Y89.429 E264.96960
G1 X105.082 Y89.108 E264.97817
G1 X105.041 Y88.761 E264.98749
G1 X104.894 Y88.188 E265.00327
G1 X104.756 Y87.841 E265.01323
G1 X104.458 Y87.301 E265.02969
G1 X104.076 Y86.826 E265.04595
G1 X103.816 Y86.575 E265.05559
G1 X103.433 Y86.279 E265.06850
G1 X102.996 Y86.026 E265.08197
G1 X102.517 Y85.831 E265.09577
G1 X101.933 Y85.690 E265.11180
G1 X101.585 Y85.651 E265.12114
G1 X101.263 Y85.645 E265.12973
G1 X100.919 Y85.666 E265.13893
G1 X100.338 Y85.778 E265.15471
G1 X100.010 Y85.889 E265.16395
G1 X99.691 Y86.024 E265.17319
G1 X99.161 Y86.338 E265.18963
G0 F9900 X99.453 Y86.746
G1 F1380 X99.030 Y87.106 E265.20444
G1 X98.680 Y87.525 E265.21901
G1 X97.806 Y89.019 E265.26519
G1 X96.922 Y90.549 E265.31233
G1 X96.273 Y90.174 E265.33232
G1 X113.376 Y60.552 E266.24484
G1 X134.593 Y72.802 E266.89843
G1 X117.490 Y102.425 E267.81097
G1 X116.841 Y102.050 E267.83097
G1 X118.462 Y99.241 E267.91749
G1 X118.686 Y98.759 E267.93167
G1 X118.832 Y98.223 E267.94649
G1 X118.882 Y97.687 E267.96085
G1 X118.872 Y97.376 E267.96915
G1 X118.786 Y96.859 E267.98314
G1 X118.696 Y96.563 E267.99139
G1 X118.485 Y96.086 E268.00530
G1 X118.329 Y95.832 E268.01326
G1 X118.165 Y95.611 E268.02060
G1 X117.990 Y95.409 E268.02773
G1 X117.780 Y95.206 E268.03552
G1 X117.442 Y94.945 E268.04691
G1 X117.065 Y94.726 E268.05854
G1 X116.654 Y94.558 E268.07039
G1 X116.137 Y94.434 E268.08457
G1 X115.844 Y94.401 E268.09244
G1 X115.564 Y94.396 E268.09991
G1 X115.271 Y94.413 E268.10774
G1 X114.739 Y94.516 E268.12220
G1 X114.241 Y94.706 E268.13642
G1 X113.958 Y94.857 E268.14497
G1 X113.518 Y95.173 E268.15943
G1 X113.137 Y95.559 E268.17389
G1 X112.952 Y95.805 E268.18211
G1 X111.938 Y97.541 E268.23574
G1 X111.211 Y98.801 E268.27455
G1 X102.550 Y93.801 E268.54135
G1 X104.173 Y90.992 E268.62789
G1 X104.388 Y90.530 E268.64149
G1 X104.482 Y90.235 E268.64975
G1 X104.577 Y89.719 E268.66374
G1 X104.592 Y89.424 E268.67163
G1 X104.583 Y89.146 E268.67905
G1 X104.548 Y88.853 E268.68692
G1 X104.418 Y88.343 E268.70096
G1 X104.303 Y88.055 E268.70923
G1 X104.041 Y87.581 E268.72368
G1 X103.707 Y87.164 E268.73793
G1 X103.489 Y86.954 E268.74601
G1 X103.153 Y86.695 E268.75733
G1 X102.775 Y86.476 E268.76898
G1 X102.364 Y86.308 E268.78083
G1 X101.846 Y86.184 E268.79504
G1 X101.552 Y86.151 E268.80293
G1 X101.273 Y86.146 E268.81037
G1 X100.982 Y86.163 E268.81815
G1 X100.466 Y86.263 E268.83217
G1 X100.187 Y86.356 E268.84002
G1 X99.918 Y86.471 E268.84782
G1 X99.453 Y86.746 E268.86223
G0 F9900 X99.744 Y87.155
;TYPE:WALL-OUTER
G1 F1260 X99.387 Y87.459 E268.87474
G1 X99.091 Y87.814 E268.88707
G1 X98.238 Y89.270 E268.93209
G1 X97.105 Y91.232 E268.99253
G1 X95.590 Y90.357 E269.03921
G1 X113.193 Y59.869 E269.97840
G1 X135.276 Y72.619 E270.65868
G1 X117.673 Y103.108 E271.59789
G1 X116.158 Y102.233 E271.64457
G1 X118.018 Y99.010 E271.74384
G1 X118.215 Y98.587 E271.75629
G1 X118.338 Y98.134 E271.76881
G1 X118.381 Y97.672 E271.78119
G1 X118.373 Y97.425 E271.78778
G1 X118.298 Y96.973 E271.80001
G1 X118.227 Y96.738 E271.80656
G1 X118.041 Y96.319 E271.81879
G1 X117.775 Y95.924 E271.83149
G1 X117.453 Y95.585 E271.84396
G1 X117.163 Y95.361 E271.85374
G1 X116.844 Y95.176 E271.86358
G1 X116.500 Y95.035 E271.87350
G1 X116.050 Y94.927 E271.88584
G1 X115.811 Y94.900 E271.89226
G1 X115.575 Y94.896 E271.89855
G1 X115.334 Y94.910 E271.90500
G1 X114.876 Y94.999 E271.91744
G1 X114.448 Y95.162 E271.92966
G1 X114.223 Y95.282 E271.93646
G1 X113.844 Y95.554 E271.94891
G1 X113.516 Y95.886 E271.96136
G1 X113.369 Y96.082 E271.96790
G1 X112.371 Y97.792 E272.02072
G1 X111.394 Y99.484 E272.07284
G1 X101.867 Y93.984 E272.36631
G1 X103.729 Y90.761 E272.46561
G1 X103.921 Y90.348 E272.47776
G1 X103.996 Y90.114 E272.48432
G1 X104.079 Y89.661 E272.49661
G1 X104.091 Y89.419 E272.50307
G1 X104.084 Y89.183 E272.50937
G1 X104.055 Y88.944 E272.51579
G1 X103.941 Y88.498 E272.52807
G1 X103.850 Y88.269 E272.53465
G1 X103.624 Y87.860 E272.54711
G1 X103.337 Y87.502 E272.55935
G1 X103.162 Y87.333 E272.56584
G1 X102.874 Y87.111 E272.57555
G1 X102.554 Y86.926 E272.58541
G1 X102.210 Y86.785 E272.59532
G1 X101.759 Y86.677 E272.60770
G1 X101.519 Y86.650 E272.61414
G1 X101.284 Y86.646 E272.62041
G1 X101.045 Y86.660 E272.62680
G1 X100.593 Y86.748 E272.63908
G1 X100.365 Y86.824 E272.64549
G1 X100.144 Y86.918 E272.65190
G1 X99.744 Y87.155 E272.66430
G0 F9900 X99.849 Y85.766
;TYPE:SKIN
G1 F1200 X120.290 Y65.324 E273.43553
G0 F9900 X120.739 Y65.583
G1 F1200 X100.814 Y85.508 E274.18726
G0 F9900 X101.553 Y85.475
G1 F1200 X121.187 Y65.842 E274.92800
G0 F9900 X121.635 Y66.101
G1 F1200 X102.169 Y85.567 E275.66242
G0 F9900 X102.719 Y85.724
G1 F1200 X122.084 Y66.359 E276.39303
G0 F9900 X122.532 Y66.618
G1 F1200 X103.205 Y85.946 E277.12223
G0 F9900 X103.639 Y86.218
G1 F1200 X122.980 Y66.877 E277.85193
G0 F9900 X123.429 Y67.136
G1 F1200 X104.027 Y86.537 E278.58391
G0 F9900 X104.366 Y86.906
G1 F1200 X123.877 Y67.395 E279.32003
G0 F9900 X124.325 Y67.653
G1 F1200 X104.665 Y87.314 E280.06179
G0 F9900 X104.915 Y87.771
G1 F1200 X124.773 Y67.912 E280.81102
G0 F9900 X125.222 Y68.171
G1 F1200 X105.100 Y88.292 E281.57017
G0 F9900 X105.230 Y88.870
G1 F1200 X125.670 Y68.430 E282.34133
G0 F9900 X126.118 Y68.689
G1 F1200 X105.260 Y89.547 E283.12827
G0 F9900 X105.141 Y90.373
G1 F1200 X126.567 Y68.947 E283.93664
G0 F9900 X127.015 Y69.206
G1 F1200 X104.570 Y91.651 E284.78345
G0 F9900 X103.603 Y93.325
G1 F1200 X127.463 Y69.465 E285.68365
G0 F9900 X127.912 Y69.724
G1 F1200 X103.859 Y93.777 E286.59113
G0 F9900 X104.307 Y94.036
G1 F1200 X128.360 Y69.983 E287.49861
G0 F9900 X128.807 Y70.242
G1 F1200 X104.755 Y94.294 E288.40605
G0 F9900 X105.204 Y94.553
G1 F1200 X129.256 Y70.501 E289.31349
G0 F9900 X129.704 Y70.760
G1 F1200 X105.652 Y94.812 E290.22093
G0 F9900 X106.100 Y95.071
G1 F1200 X130.152 Y71.018 E291.12839
G0 F9900 X130.601 Y71.277
G1 F1200 X106.548 Y95.330 E292.03587
G0 F9900 X106.996 Y95.589
G1 F1200 X131.049 Y71.536 E292.94335
G0 F9900 X131.497 Y71.795
G1 F1200 X107.444 Y95.848 E293.85083
G0 F9900 X107.893 Y96.107
G1 F1200 X131.946 Y72.054 E294.75831
G0 F9900 X132.394 Y72.312
G1 F1200 X108.341 Y96.365 E295.66579
G0 F9900 X108.789 Y96.624
G1 F1200 X132.842 Y72.571 E296.57327
G0 F9900 X133.291 Y72.830
G1 F1200 X109.238 Y96.883 E297.48075
G0 F9900 X109.686 Y97.142
G1 F1200 X133.520 Y73.307 E298.37998
G0 F9900 X132.554 Y74.980
G1 F1200 X110.134 Y97.401 E299.22587
G0 F9900 X110.582 Y97.660
G1 F1200 X111.794 Y96.447 E299.27162
G0 F9900 X114.270 Y93.972
G1 F1200 X131.589 Y76.653 E299.92503
G0 F9900 X130.623 Y78.326
G1 F1200 X115.208 Y93.741 E300.50662
G0 F9900 X115.925 Y93.731
G1 F1200 X129.657 Y79.999 E301.02470
G0 F9900 X128.690 Y81.673
G1 F1200 X116.529 Y93.834 E301.48352
G0 F9900 X117.071 Y93.999
G1 F1200 X127.724 Y83.346 E301.88544
G0 F9900 X126.758 Y85.019
G1 F1200 X117.550 Y94.228 E302.23286
G0 F9900 X117.978 Y94.506
G1 F1200 X125.792 Y86.692 E302.52767
G0 F9900 X124.826 Y88.365
G1 F1200 X118.361 Y94.830 E302.77158
G0 F9900 X118.699 Y95.199
G1 F1200 X123.861 Y90.038 E302.96631
G0 F9900 X122.895 Y91.711
G1 F1200 X118.989 Y95.617 E303.11368
G0 F9900 X119.223 Y96.090
G1 F1200 X121.929 Y93.384 E303.21577
G0 F9900 X120.962 Y95.058
G1 F1200 X119.414 Y96.607 E303.27420
G0 F9900 X119.996 Y96.731
G1 F1200 X119.527 Y97.201 E303.29191
G0 F9900 X117.042 Y94.772
G0 X100.219 Y84.688
G1 F1200 X119.842 Y65.065 E304.03225
G0 F9900 X119.394 Y64.807
G1 F1200 X101.185 Y83.015 E304.71923
G0 F9900 X102.151 Y81.342
G1 F1200 X118.945 Y64.548 E305.35284
G0 F9900 X118.497 Y64.289
G1 F1200 X103.118 Y79.669 E305.93308
G0 F9900 X104.083 Y77.995
G1 F1200 X118.049 Y64.030 E306.45998
G0 F9900 X117.601 Y63.771
G1 F1200 X105.049 Y76.322 E306.93352
G0 F9900 X106.016 Y74.649
G1 F1200 X117.152 Y63.513 E307.35366
G0 F9900 X116.704 Y63.254
G1 F1200 X106.982 Y72.976 E307.72046
G0 F9900 X107.948 Y71.303
G1 F1200 X116.256 Y62.995 E308.03391
G0 F9900 X115.807 Y62.736
G1 F1200 X108.914 Y69.630 E308.29399
G0 F9900 X109.880 Y67.956
G1 F1200 X115.359 Y62.477 E308.50070
G0 F9900 X114.911 Y62.218
G1 F1200 X110.846 Y66.283 E308.65407
G0 F9900 X111.812 Y64.610
G1 F1200 X114.463 Y61.959 E308.75408
G0 F9900 X114.015 Y61.700
G1 F1200 X112.778 Y62.937 E308.80075
;LAYER:2
G1 F420 E306.80075
G1 Z1.075
G0 F9900 X60.671 Y71.653 Z1.125
;TYPE:WALL-INNER
G1 Z1.125
G1 F420 E308.80075
G1 F1620 X45.993 Y97.076 E309.58391
G1 X46.043 Y96.540 E309.59827
G1 X46.029 Y96.164 E309.60831
G1 X45.929 Y95.560 E309.62464
G1 X45.747 Y95.033 E309.63952
G1 X45.699 Y94.919 E309.64282
G1 X45.406 Y94.394 E309.65886
G1 X45.032 Y93.926 E309.67484
G1 X44.764 Y93.668 E309.68476
G1 X44.375 Y93.368 E309.69787
G1 X43.939 Y93.117 E309.71129
G1 X43.485 Y92.933 E309.72436
G1 X43.175 Y92.845 E309.73296
G1 X42.859 Y92.780 E309.74156
G1 X42.534 Y92.746 E309.75028
G1 X42.212 Y92.738 E309.75887
G1 X41.572 Y92.806 E309.77604
G1 X41.256 Y92.883 E309.78472
G1 X40.929 Y92.992 E309.79391
G1 X40.385 Y93.253 E309.81001
G1 X39.871 Y93.621 E309.82688
G1 X39.615 Y93.859 E309.83620
G1 X39.398 Y94.101 E309.84487
G1 X39.191 Y94.375 E309.85403
G1 X37.652 Y97.023 E309.93574
G1 X37.586 Y97.137 E309.93926
G1 X36.101 Y96.278 E309.98502
G1 X35.612 Y95.995 E310.00010
G1 X29.793 Y92.636 E310.17934
G1 X31.275 Y90.068 E310.25844
G1 X31.526 Y89.533 E310.27421
G1 X31.687 Y88.937 E310.29068
G1 X31.736 Y88.594 E310.29992
G1 X31.752 Y88.271 E310.30855
G1 X31.742 Y87.948 E310.31717
G1 X31.699 Y87.600 E310.32652
G1 X31.546 Y87.001 E310.34302
G1 X31.292 Y86.437 E310.35952
G1 X31.096 Y86.119 E310.36948
G1 X30.736 Y85.669 E310.38486
G1 X30.470 Y85.415 E310.39467
G1 X30.087 Y85.119 E310.40758
G1 X29.646 Y84.867 E310.42113
G1 X29.168 Y84.673 E310.43490
G1 X28.589 Y84.533 E310.45079
G1 X28.244 Y84.496 E310.46004
G1 X27.922 Y84.488 E310.46864
G1 X27.261 Y84.559 E310.48637
G1 X26.667 Y84.728 E310.50285
G1 X26.089 Y85.007 E310.51997
G1 X25.639 Y85.330 E310.53475
G1 X40.320 Y59.903 E311.31804
G1 X60.671 Y71.653 E311.94496
G0 F9900 X61.354 Y71.470
G1 F1620 X44.049 Y101.443 E312.86828
G1 X43.400 Y101.068 E312.88827
G1 X45.020 Y98.262 E312.97471
G1 X45.237 Y97.860 E312.98690
G1 X45.352 Y97.582 E312.99492
G1 X45.492 Y97.061 E313.00932
G1 X45.542 Y96.525 E313.02368
G1 X45.531 Y96.214 E313.03198
G1 X45.443 Y95.684 E313.04631
G1 X45.279 Y95.211 E313.05967
G1 X44.989 Y94.674 E313.07595
G1 X44.661 Y94.264 E313.08996
G1 X44.437 Y94.047 E313.09828
G1 X44.096 Y93.784 E313.10977
G1 X43.720 Y93.568 E313.12134
G1 X43.322 Y93.407 E313.13279
G1 X42.782 Y93.275 E313.14762
G1 X42.502 Y93.245 E313.15513
G1 X42.222 Y93.238 E313.16260
G1 X41.667 Y93.297 E313.17749
G1 X41.117 Y93.456 E313.19277
G1 X40.640 Y93.685 E313.20688
G1 X40.188 Y94.009 E313.22172
G1 X39.972 Y94.210 E313.22959
G1 X39.784 Y94.419 E313.23709
G1 X39.608 Y94.652 E313.24488
G1 X38.085 Y97.274 E313.32577
G1 X37.770 Y97.820 E313.34259
G1 X29.110 Y92.820 E313.60936
G1 X30.832 Y89.836 E313.70128
G1 X31.055 Y89.360 E313.71530
G1 X31.196 Y88.837 E313.72975
G1 X31.252 Y88.266 E313.74506
G1 X31.243 Y87.986 E313.75253
G1 X31.207 Y87.692 E313.76043
G1 X31.073 Y87.167 E313.77489
G1 X30.850 Y86.672 E313.78937
G1 X30.687 Y86.408 E313.79765
G1 X30.366 Y86.007 E313.81135
G1 X30.144 Y85.794 E313.81956
G1 X29.809 Y85.536 E313.83084
G1 X29.427 Y85.317 E313.84259
G1 X29.015 Y85.150 E313.85445
G1 X28.503 Y85.027 E313.86849
G1 X28.211 Y84.995 E313.87633
G1 X27.932 Y84.988 E313.88378
G1 X27.656 Y85.007 E313.89116
G1 X27.366 Y85.049 E313.89897
G1 X26.846 Y85.197 E313.91340
G1 X26.345 Y85.439 E313.92824
G1 X25.894 Y85.762 E313.94304
G1 X25.503 Y86.155 E313.95783
G1 X25.203 Y86.586 E313.97184
G1 X23.481 Y89.568 E314.06370
G1 X22.831 Y89.193 E314.08372
G1 X40.137 Y59.220 E315.00706
G1 X61.354 Y71.470 E315.66065
G0 F9900 X62.037 Y71.287
;TYPE:WALL-OUTER
G1 F1320 X44.232 Y102.126 E316.61065
G1 X42.717 Y101.251 E316.65732
G1 X44.583 Y98.018 E316.75691
G1 X44.785 Y97.645 E316.76823
G1 X44.877 Y97.421 E316.77469
G1 X44.998 Y96.972 E316.78709
G1 X45.041 Y96.511 E316.79944
G1 X45.032 Y96.265 E316.80601
G1 X44.956 Y95.807 E316.81840
G1 X44.798 Y95.357 E316.83112
G1 X44.573 Y94.954 E316.84343
G1 X44.291 Y94.601 E316.85549
G1 X44.110 Y94.426 E316.86220
G1 X43.817 Y94.201 E316.87206
G1 X43.501 Y94.019 E316.88179
G1 X43.159 Y93.880 E316.89164
G1 X42.705 Y93.770 E316.90410
G1 X42.469 Y93.744 E316.91043
G1 X42.233 Y93.739 E316.91673
G1 X41.763 Y93.788 E316.92934
G1 X41.305 Y93.921 E316.94206
G1 X40.896 Y94.117 E316.95416
G1 X40.505 Y94.397 E316.96699
G1 X40.170 Y94.738 E316.97974
G1 X40.025 Y94.929 E316.98614
G1 X37.953 Y98.503 E317.09635
G1 X28.427 Y93.003 E317.38980
G1 X30.388 Y89.605 E317.49447
G1 X30.584 Y89.187 E317.50678
G1 X30.705 Y88.736 E317.51924
G1 X30.739 Y88.498 E317.52565
G1 X30.751 Y88.261 E317.53198
G1 X30.744 Y88.025 E317.53828
G1 X30.714 Y87.785 E317.54474
G1 X30.599 Y87.332 E317.55720
G1 X30.407 Y86.907 E317.56965
G1 X30.278 Y86.697 E317.57622
G1 X29.997 Y86.346 E317.58822
G1 X29.817 Y86.174 E317.59486
G1 X29.530 Y85.953 E317.60452
G1 X29.208 Y85.768 E317.61443
G1 X28.862 Y85.627 E317.62440
G1 X28.417 Y85.520 E317.63661
G1 X28.178 Y85.494 E317.64302
G1 X27.943 Y85.489 E317.64929
G1 X27.471 Y85.539 E317.66195
G1 X27.024 Y85.666 E317.67435
G1 X26.601 Y85.870 E317.68688
G1 X26.219 Y86.144 E317.69942
G1 X25.888 Y86.477 E317.71195
G1 X25.625 Y86.855 E317.72423
G1 X23.664 Y90.251 E317.82885
G1 X22.148 Y89.376 E317.87555
G1 X39.954 Y58.537 E318.82556
G1 X62.037 Y71.287 E319.50583
G0 F9900 X61.605 Y71.336
G0 X60.149 Y72.206
;TYPE:FILL
G1 F1800 X58.606 Y70.664 E319.56403
G0 F9900 X58.406 Y71.295
G1 F1800 X59.844 Y72.733 E319.61828
G0 F9900 X59.540 Y73.261
G1 F1800 X58.102 Y71.822 E319.67255
G0 F9900 X57.797 Y72.349
G1 F1800 X59.235 Y73.788 E319.72682
G0 F9900 X58.931 Y74.315
G1 F1800 X57.493 Y72.877 E319.78108
G0 F9900 X57.189 Y73.404
G1 F1800 X58.626 Y74.842 E319.83531
G0 F9900 X58.322 Y75.369
G1 F1800 X56.884 Y73.931 E319.88956
G0 F9900 X56.580 Y74.459
G1 F1800 X58.018 Y75.896 E319.94380
G0 F9900 X57.714 Y76.424
G1 F1800 X56.275 Y74.985 E319.99809
G0 F9900 X55.971 Y75.513
G1 F1800 X57.409 Y76.951 E320.05234
G0 F9900 X57.105 Y77.478
G1 F1800 X55.666 Y76.040 E320.10662
G0 F9900 X55.362 Y76.567
G1 F1800 X56.801 Y78.005 E320.16089
G0 F9900 X56.496 Y78.532
G1 F1800 X55.058 Y77.094 E320.21514
G0 F9900 X54.754 Y77.621
G1 F1800 X56.192 Y79.060 E320.26941
G0 F9900 X55.887 Y79.586
G1 F1800 X54.449 Y78.148 E320.32367
G0 F9900 X54.145 Y78.676
G1 F1800 X55.583 Y80.114 E320.37792
G0 F9900 X55.279 Y80.641
G1 F1800 X53.840 Y79.203 E320.43219
G0 F9900 X53.536 Y79.730
G1 F1800 X54.974 Y81.168 E320.48645
G0 F9900 X54.670 Y81.696
G1 F1800 X53.232 Y80.258 E320.54070
G0 F9900 X52.927 Y80.784
G1 F1800 X54.365 Y82.223 E320.59497
G0 F9900 X54.061 Y82.750
G1 F1800 X52.623 Y81.312 E320.64922
G0 F9900 X52.318 Y81.839
G1 F1800 X53.757 Y83.277 E320.70350
G0 F9900 X53.453 Y83.804
G1 F1800 X52.014 Y82.366 E320.75777
G0 F9900 X51.710 Y82.893
G1 F1800 X53.148 Y84.331 E320.81202
G0 F9900 X52.844 Y84.859
G1 F1800 X51.405 Y83.420 E320.86631
G0 F9900 X51.101 Y83.947
G1 F1800 X52.540 Y85.386 E320.92060
G0 F9900 X52.235 Y85.913
G1 F1800 X50.797 Y84.475 E320.97486
G0 F9900 X50.492 Y85.002
G1 F1800 X51.931 Y86.440 E321.02913
G0 F9900 X51.626 Y86.967
G1 F1800 X50.188 Y85.529 E321.08338
G0 F9900 X49.883 Y86.056
G1 F1800 X51.322 Y87.495 E321.13767
G0 F9900 X51.017 Y88.022
G1 F1800 X49.579 Y86.583 E321.19195
G0 F9900 X49.275 Y87.111
G1 F1800 X50.713 Y88.549 E321.24620
G0 F9900 X50.409 Y89.077
G1 F1800 X48.970 Y87.638 E321.30049
G0 F9900 X48.666 Y88.165
G1 F1800 X50.104 Y89.603 E321.35474
G0 F9900 X49.800 Y90.131
G1 F1800 X48.361 Y88.692 E321.40903
G0 F9900 X48.057 Y89.219
G1 F1800 X49.496 Y90.658 E321.46333
G0 F9900 X49.192 Y91.185
G1 F1800 X47.753 Y89.746 E321.51762
G0 F9900 X47.448 Y90.274
G1 F1800 X48.887 Y91.712 E321.57189
G0 F9900 X48.583 Y92.239
G1 F1800 X47.144 Y90.800 E321.62618
G0 F9900 X46.840 Y91.328
G1 F1800 X48.278 Y92.766 E321.68043
G0 F9900 X47.974 Y93.294
G1 F1800 X46.535 Y91.855 E321.73472
G0 F9900 X46.231 Y92.382
G1 F1800 X47.670 Y93.821 E321.78902
G0 F9900 X47.365 Y94.348
G1 F1800 X45.926 Y92.909 E321.84331
G0 F9900 X45.622 Y93.437
G1 F1800 X47.061 Y94.876 E321.89760
G0 F9900 X46.756 Y95.402
G1 F1800 X45.318 Y93.964 E321.95185
G0 F9900 X46.110 Y95.588
G1 F1800 X46.452 Y95.930 E321.96475
G0 F9900 X43.021 Y92.499
G1 F1800 X38.975 Y88.453 E322.11740
G0 F9900 X38.671 Y88.980
G1 F1800 X42.253 Y92.563 E322.25256
G0 F9900 X41.501 Y92.642
G1 F1800 X38.366 Y89.507 E322.37084
G0 F9900 X38.062 Y90.035
G1 F1800 X40.858 Y92.830 E322.47631
G0 F9900 X40.296 Y93.100
G1 F1800 X37.758 Y90.561 E322.57209
G0 F9900 X37.454 Y91.089
G1 F1800 X39.810 Y93.446 E322.66099
G0 F9900 X39.385 Y93.852
G1 F1800 X37.149 Y91.616 E322.74535
G0 F9900 X36.845 Y92.143
G1 F1800 X39.020 Y94.319 E322.82743
G0 F9900 X38.715 Y94.845
G1 F1800 X36.540 Y92.670 E322.90949
G0 F9900 X36.236 Y93.198
G1 F1800 X38.409 Y95.371 E322.99147
G0 F9900 X38.103 Y95.897
G1 F1800 X35.931 Y93.724 E323.07344
G0 F9900 X35.627 Y94.252
G1 F1800 X37.798 Y96.423 E323.15535
G0 F9900 X37.330 Y96.787
G1 F1800 X35.322 Y94.779 E323.23111
G0 F9900 X34.951 Y95.239
G1 F1800 X35.360 Y95.648 E323.24654
G0 F9900 X33.391 Y94.511
G1 F1800 X32.980 Y94.100 E323.26204
G0 F9900 X32.720 Y93.840
G1 F1800 X30.551 Y91.670 E323.34389
G0 F9900 X30.856 Y91.143
G1 F1800 X33.024 Y93.312 E323.42571
G0 F9900 X33.329 Y92.785
G1 F1800 X31.160 Y90.616 E323.50754
G0 F9900 X31.459 Y90.084
G1 F1800 X33.633 Y92.258 E323.58956
G0 F9900 X33.938 Y91.731
G1 F1800 X31.714 Y89.507 E323.67347
G0 F9900 X31.877 Y88.838
G1 F1800 X34.242 Y91.204 E323.76272
G0 F9900 X34.547 Y90.677
G1 F1800 X31.920 Y88.051 E323.86181
G0 F9900 X31.734 Y87.032
G1 F1800 X34.851 Y90.149 E323.97941
G0 F9900 X35.155 Y89.622
G1 F1800 X31.109 Y85.576 E324.13206
G0 F9900 X31.413 Y85.049
G1 F1800 X35.459 Y89.095 E324.28471
G0 F9900 X35.764 Y88.567
G1 F1800 X31.717 Y84.521 E324.43737
G0 F9900 X32.022 Y83.994
G1 F1800 X36.068 Y88.041 E324.59004
G0 F9900 X36.372 Y87.513
G1 F1800 X32.326 Y83.467 E324.74269
G0 F9900 X32.630 Y82.940
G1 F1800 X36.677 Y86.986 E324.89536
G0 F9900 X36.981 Y86.459
G1 F1800 X32.935 Y82.413 E325.04801
G0 F9900 X33.239 Y81.885
G1 F1800 X37.286 Y85.932 E325.20069
G0 F9900 X37.590 Y85.405
G1 F1800 X33.544 Y81.358 E325.35336
G0 F9900 X33.848 Y80.831
G1 F1800 X37.895 Y84.878 E325.50605
G0 F9900 X38.199 Y84.350
G1 F1800 X34.153 Y80.304 E325.65870
G0 F9900 X34.457 Y79.777
G1 F1800 X38.504 Y83.823 E325.81136
G0 F9900 X38.808 Y83.296
G1 F1800 X34.762 Y79.250 E325.96401
G0 F9900 X35.066 Y78.722
G1 F1800 X39.112 Y82.768 E326.11666
G0 F9900 X39.416 Y82.242
G1 F1800 X35.370 Y78.196 E326.26931
G0 F9900 X35.674 Y77.668
G1 F1800 X39.721 Y81.714 E326.42198
G0 F9900 X39.889 Y86.872
G1 F1800 X43.934 Y90.917 E326.57459
G0 F9900 X44.238 Y90.390
G1 F1800 X40.193 Y86.344 E326.72722
G0 F9900 X40.497 Y85.817
G1 F1800 X44.543 Y89.863 E326.87987
G0 F9900 X44.847 Y89.335
G1 F1800 X40.802 Y85.290 E327.03248
G0 F9900 X41.106 Y84.763
G1 F1800 X45.152 Y88.809 E327.18513
G0 F9900 X45.456 Y88.281
G1 F1800 X41.411 Y84.236 E327.33774
G0 F9900 X41.715 Y83.708
G1 F1800 X45.760 Y87.754 E327.49037
G0 F9900 X46.065 Y87.227
G1 F1800 X42.019 Y83.181 E327.64302
G0 F9900 X42.323 Y82.654
G1 F1800 X46.369 Y86.699 E327.79565
G0 F9900 X46.673 Y86.172
G1 F1800 X42.628 Y82.127 E327.94826
G0 F9900 X42.932 Y81.600
G1 F1800 X46.978 Y85.645 E328.10089
G0 F9900 X47.282 Y85.118
G1 F1800 X43.984 Y81.820 E328.22532
G0 F9900 X43.955 Y80.128
G1 F1800 X43.845 Y80.018 E328.22947
G0 F9900 X44.150 Y79.491
G1 F1800 X45.924 Y81.265 E328.29640
G0 F9900 X46.939 Y82.281
G1 F1800 X48.195 Y83.536 E328.34376
G0 F9900 X48.499 Y83.009
G1 F1800 X44.454 Y78.964 E328.49638
G0 F9900 X44.758 Y78.436
G1 F1800 X48.804 Y82.482 E328.64902
G0 F9900 X49.108 Y81.955
G1 F1800 X45.063 Y77.909 E328.80165
G0 F9900 X45.367 Y77.382
G1 F1800 X49.413 Y81.428 E328.95430
G0 F9900 X49.717 Y80.900
G1 F1800 X45.672 Y76.855 E329.10691
G0 F9900 X45.976 Y76.327
G1 F1800 X50.021 Y80.373 E329.25954
G0 F9900 X46.637 Y82.810
G1 F1800 X47.890 Y84.063 E329.30682
G0 F9900 X47.586 Y84.591
G1 F1800 X45.951 Y82.955 E329.36852
G0 F9900 X40.634 Y80.133
G1 F1800 X40.051 Y79.550 E329.39052
G0 F9900 X40.020 Y77.856
G1 F1800 X37.197 Y75.033 E329.49702
G0 F9900 X36.892 Y75.560
G1 F1800 X38.144 Y76.812 E329.54426
G0 F9900 X37.842 Y77.341
G1 F1800 X36.588 Y76.087 E329.59157
G0 F9900 X36.283 Y76.614
G1 F1800 X37.541 Y77.871 E329.63902
G0 F9900 X38.082 Y78.413
G1 F1800 X40.329 Y80.660 E329.72379
G0 F9900 X40.025 Y81.187
G1 F1800 X35.979 Y77.141 E329.87644
G0 F9900 X33.682 Y75.675
G1 F1800 X32.244 Y74.238 E329.93067
G0 F9900 X31.940 Y74.765
G1 F1800 X33.378 Y76.203 E329.98493
G0 F9900 X33.073 Y76.730
G1 F1800 X31.635 Y75.292 E330.03918
G0 F9900 X31.331 Y75.820
G1 F1800 X32.769 Y77.257 E330.09342
G0 F9900 X32.464 Y77.784
G1 F1800 X31.027 Y76.347 E330.14763
G0 F9900 X30.723 Y76.874
G1 F1800 X32.160 Y78.312 E330.20187
G0 F9900 X31.856 Y78.839
G1 F1800 X30.418 Y77.401 E330.25612
G0 F9900 X30.114 Y77.928
G1 F1800 X31.551 Y79.366 E330.31035
G0 F9900 X31.247 Y79.893
G1 F1800 X29.809 Y78.455 E330.36461
G0 F9900 X29.505 Y78.983
G1 F1800 X30.942 Y80.420 E330.41882
G0 F9900 X30.638 Y80.948
G1 F1800 X29.200 Y79.509 E330.47309
G0 F9900 X33.987 Y75.149
G1 F1800 X32.549 Y73.711 E330.52735
G0 F9900 X32.853 Y73.184
G1 F1800 X34.291 Y74.621 E330.58158
G0 F9900 X34.595 Y74.094
G1 F1800 X33.158 Y72.657 E330.63580
G0 F9900 X33.462 Y72.129
G1 F1800 X34.899 Y73.567 E330.69003
G0 F9900 X35.204 Y73.039
G1 F1800 X33.767 Y71.603 E330.74423
G0 F9900 X34.071 Y71.075
G1 F1800 X35.508 Y72.513 E330.79846
G0 F9900 X35.812 Y71.985
G1 F1800 X34.375 Y70.548 E330.85268
G0 F9900 X34.680 Y70.021
G1 F1800 X36.117 Y71.458 E330.90689
G0 F9900 X36.421 Y70.931
G1 F1800 X34.984 Y69.494 E330.96111
G0 F9900 X35.288 Y68.966
G1 F1800 X36.725 Y70.403 E331.01533
G0 F9900 X37.030 Y69.876
G1 F1800 X35.593 Y68.440 E331.06952
G0 F9900 X35.897 Y67.912
G1 F1800 X37.334 Y69.349 E331.12374
G0 F9900 X37.639 Y68.822
G1 F1800 X36.202 Y67.385 E331.17795
G0 F9900 X36.506 Y66.858
G1 F1800 X37.943 Y68.295 E331.23217
G0 F9900 X38.248 Y67.768
G1 F1800 X36.811 Y66.331 E331.28638
G0 F9900 X37.115 Y65.804
G1 F1800 X38.552 Y67.240 E331.34058
G0 F9900 X38.856 Y66.713
G1 F1800 X37.420 Y65.277 E331.39476
G0 F9900 X37.724 Y64.749
G1 F1800 X39.160 Y66.186 E331.44896
G0 F9900 X39.465 Y65.659
G1 F1800 X38.028 Y64.222 E331.50317
G0 F9900 X38.332 Y63.695
G1 F1800 X39.769 Y65.132 E331.55739
G0 F9900 X40.073 Y64.604
G1 F1800 X38.637 Y63.168 E331.61156
G0 F9900 X38.941 Y62.641
G1 F1800 X40.378 Y64.078 E331.66578
G0 F9900 X40.682 Y63.550
G1 F1800 X39.246 Y62.114 E331.71996
G0 F9900 X39.550 Y61.586
G1 F1800 X40.986 Y63.023 E331.77416
G0 F9900 X41.291 Y62.496
G1 F1800 X39.855 Y61.060 E331.82833
G0 F9900 X39.936 Y70.288
G1 F1800 X43.982 Y74.333 E331.98096
G0 F9900 X44.286 Y73.807
G1 F1800 X40.241 Y69.761 E332.13359
G0 F9900 X40.545 Y69.234
G1 F1800 X44.590 Y73.279 E332.28620
G0 F9900 X44.895 Y72.752
G1 F1800 X40.850 Y68.707 E332.43882
G0 F9900 X41.154 Y68.179
G1 F1800 X45.199 Y72.225 E332.59144
G0 F9900 X45.504 Y71.698
G1 F1800 X41.459 Y67.653 E332.74406
G0 F9900 X41.763 Y67.125
G1 F1800 X45.808 Y71.171 E332.89669
G0 F9900 X46.113 Y70.644
G1 F1800 X42.067 Y66.598 E333.04933
G0 F9900 X42.371 Y66.071
G1 F1800 X46.417 Y70.116 E333.20196
G0 F9900 X46.722 Y69.589
G1 F1800 X42.676 Y65.544 E333.35459
G0 F9900 X42.980 Y65.017
G1 F1800 X47.026 Y69.062 E333.50722
G0 F9900 X47.330 Y68.535
G1 F1800 X43.285 Y64.490 E333.65984
G0 F9900 X43.589 Y63.962
G1 F1800 X47.634 Y68.008 E333.81247
G0 F9900 X47.939 Y67.481
G1 F1800 X43.894 Y63.435 E333.96510
G0 F9900 X44.198 Y62.908
G1 F1800 X48.243 Y66.953 E334.11771
G0 F9900 X48.548 Y66.427
G1 F1800 X44.831 Y62.710 E334.25794
G0 F9900 X43.273 Y61.983
G1 F1800 X42.864 Y61.574 E334.27337
G0 F9900 X41.900 Y61.441
G1 F1800 X40.896 Y60.438 E334.31123
G0 F9900 X40.159 Y60.532
G1 F1800 X41.595 Y61.968 E334.36541
G0 F9900 X46.799 Y63.846
G1 F1800 X48.852 Y65.899 E334.44287
G0 F9900 X49.156 Y65.372
G1 F1800 X48.767 Y64.982 E334.45756
G0 F9900 X51.455 Y66.839
G1 F1800 X55.500 Y70.883 E334.61016
G0 F9900 X55.804 Y70.357
G1 F1800 X52.700 Y67.252 E334.72728
G0 F9900 X51.151 Y67.366
G1 F1800 X55.196 Y71.411 E334.87989
G0 F9900 X54.891 Y71.938
G1 F1800 X50.846 Y67.893 E335.03251
G0 F9900 X50.542 Y68.421
G1 F1800 X54.587 Y72.465 E335.18510
G0 F9900 X54.282 Y72.992
G1 F1800 X50.237 Y68.947 E335.33771
G0 F9900 X49.933 Y69.475
G1 F1800 X53.978 Y73.520 E335.49032
G0 F9900 X53.674 Y74.047
G1 F1800 X49.628 Y70.002 E335.64295
G0 F9900 X49.324 Y70.529
G1 F1800 X53.369 Y74.574 E335.79556
G0 F9900 X53.065 Y75.101
G1 F1800 X49.020 Y71.056 E335.94817
G0 F9900 X48.716 Y71.583
G1 F1800 X52.760 Y75.628 E336.10076
G0 F9900 X52.456 Y76.156
G1 F1800 X48.411 Y72.110 E336.25339
G0 F9900 X48.107 Y72.638
G1 F1800 X52.151 Y76.682 E336.40597
G0 F9900 X51.847 Y77.210
G1 F1800 X47.802 Y73.165 E336.55858
G0 F9900 X47.498 Y73.692
G1 F1800 X51.543 Y77.737 E336.71119
G0 F9900 X51.239 Y78.264
G1 F1800 X47.193 Y74.219 E336.86382
G0 F9900 X46.889 Y74.746
G1 F1800 X50.935 Y78.792 E337.01647
G0 F9900 X50.630 Y79.318
G1 F1800 X46.584 Y75.273 E337.16910
G0 F9900 X46.280 Y75.801
G1 F1800 X50.326 Y79.846 E337.32173
G0 F9900 X43.069 Y75.915
G1 F1800 X39.023 Y71.870 E337.47436
G0 F9900 X38.719 Y72.397
G1 F1800 X42.765 Y76.443 E337.62701
G0 F9900 X42.460 Y76.969
G1 F1800 X38.414 Y72.924 E337.77964
G0 F9900 X38.110 Y73.451
G1 F1800 X42.156 Y77.497 E337.93228
G0 F9900 X41.851 Y78.024
G1 F1800 X37.806 Y73.978 E338.08491
G0 F9900 X37.501 Y74.505
G1 F1800 X41.547 Y78.551 E338.23756
G0 F9900 X43.373 Y75.388
G1 F1800 X39.327 Y71.342 E338.39021
G0 F9900 X39.632 Y70.816
G1 F1800 X43.677 Y74.861 E338.54282
G0 F9900 X54.669 Y68.389
G1 F1800 X56.108 Y69.829 E338.59713
G0 F9900 X56.637 Y69.526
G1 F1800 X57.045 Y69.934 E338.61253
G0 F9900 X39.584 Y87.399
G1 F1800 X43.629 Y91.444 E338.76514
G0 F9900 X43.325 Y91.971
G1 F1800 X39.280 Y87.926 E338.91775
G0 F9900 X31.422 Y93.373
G1 F1800 X30.247 Y92.198 E338.96208
G0 F9900 X31.192 Y87.990
G0 X30.329 Y86.042
G0 X28.188 Y84.318
G1 F1800 X27.070 Y83.200 E339.00426
G0 F9900 X26.765 Y83.727
G1 F1800 X27.068 Y84.446 E339.02841
G1 X26.461 Y84.254 E339.04539
G0 F9900 X27.374 Y82.672
G1 F1800 X28.812 Y84.111 E339.09966
G0 F9900 X29.117 Y83.584
G1 F1800 X27.678 Y82.146 E339.15393
G0 F9900 X27.983 Y81.618
G1 F1800 X29.421 Y83.056 E339.20819
G0 F9900 X29.726 Y82.529
G1 F1800 X28.287 Y81.091 E339.26246
G0 F9900 X28.591 Y80.564
G1 F1800 X30.030 Y82.002 E339.31673
G0 F9900 X30.334 Y81.474
G1 F1800 X28.896 Y80.037 E339.37097
G0 F9900 X28.850 Y80.115
;TYPE:SKIN
G1 F1200 X28.798 Y80.417 E339.37684
G1 X28.540 Y80.865 E339.38268
G1 X28.281 Y81.314 E339.38852
G1 X28.022 Y81.762 E339.39435
G1 X27.763 Y82.210 E339.40017
G1 X27.504 Y82.658 E339.40600
G1 X27.246 Y83.107 E339.41185
G1 X26.987 Y83.555 E339.41768
G1 X27.095 Y84.017 E339.42353
G1 X27.663 Y84.231 E339.43046
G1 X28.101 Y84.316 E339.44236
G0 F9900 X28.166 Y83.674
G1 F1200 X28.925 Y84.433 E339.47100
G0 F9900 X28.426 Y83.227
G1 F1200 X30.153 Y84.954 E339.53615
G0 F9900 X31.275 Y86.076
G1 F1200 X31.785 Y86.586 E339.55540
G0 F9900 X31.814 Y85.908
G1 F1200 X28.685 Y82.778 E339.67347
G0 F9900 X28.944 Y82.330
G1 F1200 X32.073 Y85.460 E339.79154
G0 F9900 X32.332 Y85.011
G1 F1200 X29.202 Y81.882 E339.90961
G0 F9900 X29.461 Y81.433
G1 F1200 X32.591 Y84.563 E340.02770
G0 F9900 X32.850 Y84.115
G1 F1200 X29.720 Y80.985 E340.14579
G0 F9900 X29.979 Y80.537
G1 F1200 X33.108 Y83.666 E340.26384
G0 F9900 X33.367 Y83.218
G1 F1200 X30.238 Y80.089 E340.38189
G0 F9900 X30.496 Y79.640
G1 F1200 X33.626 Y82.770 E340.49998
G0 F9900 X33.885 Y82.322
G1 F1200 X30.755 Y79.192 E340.61807
G0 F9900 X31.014 Y78.744
G1 F1200 X34.144 Y81.874 E340.73616
G0 F9900 X34.403 Y81.426
G1 F1200 X31.273 Y78.295 E340.85427
G0 F9900 X31.532 Y77.847
G1 F1200 X34.662 Y80.977 E340.97236
G0 F9900 X34.921 Y80.529
G1 F1200 X31.790 Y77.399 E341.09047
G0 F9900 X32.049 Y76.950
G1 F1200 X35.179 Y80.081 E341.20858
G0 F9900 X38.606 Y82.093
G1 F1200 X41.736 Y85.223 E341.32666
G0 F9900 X41.477 Y85.671
G1 F1200 X38.347 Y82.541 E341.44475
G0 F9900 X38.089 Y82.990
G1 F1200 X41.218 Y86.119 E341.56281
G0 F9900 X40.959 Y86.568
G1 F1200 X37.829 Y83.437 E341.68091
G0 F9900 X37.570 Y83.886
G1 F1200 X40.701 Y87.016 E341.79902
G0 F9900 X40.442 Y87.464
G1 F1200 X37.311 Y84.334 E341.91713
G0 F9900 X37.053 Y84.782
G1 F1200 X40.183 Y87.913 E342.03524
G0 F9900 X41.995 Y84.775
G1 F1200 X38.865 Y81.645 E342.15333
G0 F9900 X39.124 Y81.197
G1 F1200 X42.253 Y84.326 E342.27138
G0 F9900 X42.512 Y83.878
G1 F1200 X39.383 Y80.748 E342.38945
G0 F9900 X39.641 Y80.300
G1 F1200 X42.771 Y83.430 E342.50754
G0 F9900 X43.030 Y82.981
G1 F1200 X37.201 Y77.153 E342.72744
G0 F9900 X36.991 Y76.943
G1 F1200 X33.861 Y73.812 E342.84555
G0 F9900 X34.120 Y73.364
G1 F1200 X37.250 Y76.494 E342.96364
G0 F9900 X37.458 Y76.702
G1 F1200 X43.289 Y82.533 E343.18363
G0 F9900 X44.096 Y82.633
G1 F1200 X37.714 Y76.252 E343.42440
G0 F9900 X37.509 Y76.046
G1 F1200 X34.378 Y72.916 E343.54251
G0 F9900 X34.637 Y72.467
G1 F1200 X37.767 Y75.598 E343.66061
G0 F9900 X38.026 Y75.149
G1 F1200 X34.896 Y72.019 E343.77870
G0 F9900 X35.155 Y71.571
G1 F1200 X38.285 Y74.701 E343.89679
G0 F9900 X38.544 Y74.253
G1 F1200 X35.414 Y71.122 E344.01490
G0 F9900 X35.672 Y70.674
G1 F1200 X38.803 Y73.804 E344.13301
G0 F9900 X39.061 Y73.356
G1 F1200 X35.931 Y70.226 E344.25110
G0 F9900 X36.190 Y69.778
G1 F1200 X39.320 Y72.908 E344.36919
G0 F9900 X39.579 Y72.460
G1 F1200 X36.449 Y69.330 E344.48728
G0 F9900 X36.708 Y68.882
G1 F1200 X39.838 Y72.011 E344.60535
G0 F9900 X40.097 Y71.563
G1 F1200 X36.967 Y68.433 E344.72344
G0 F9900 X37.226 Y67.985
G1 F1200 X40.355 Y71.115 E344.84151
G0 F9900 X40.614 Y70.666
G1 F1200 X37.485 Y67.537 E344.95956
G0 F9900 X37.743 Y67.088
G1 F1200 X40.873 Y70.218 E345.07765
G0 F9900 X41.133 Y69.770
G1 F1200 X38.002 Y66.640 E345.19576
G0 F9900 X38.261 Y66.192
G1 F1200 X41.391 Y69.322 E345.31385
G0 F9900 X41.650 Y68.874
G1 F1200 X38.520 Y65.743 E345.43196
G0 F9900 X38.779 Y65.295
G1 F1200 X41.909 Y68.426 E345.55007
G0 F9900 X42.168 Y67.977
G1 F1200 X39.037 Y64.847 E345.66818
G0 F9900 X39.296 Y64.399
G1 F1200 X42.427 Y67.529 E345.78628
G0 F9900 X42.685 Y67.081
G1 F1200 X39.555 Y63.950 E345.90439
G0 F9900 X39.814 Y63.502
G1 F1200 X42.944 Y66.632 E346.02248
G0 F9900 X43.203 Y66.184
G1 F1200 X40.073 Y63.054 E346.14057
G0 F9900 X40.331 Y62.605
G1 F1200 X43.462 Y65.736 E346.25870
G0 F9900 X43.721 Y65.287
G1 F1200 X40.590 Y62.157 E346.37681
G0 F9900 X40.849 Y61.709
G1 F1200 X43.979 Y64.839 E346.49490
G0 F9900 X44.238 Y64.391
G1 F1200 X40.240 Y60.392 E346.64575
G0 F9900 X39.981 Y60.840
G1 F1200 X40.136 Y60.995 E346.65160
G0 F9900 X41.124 Y60.570
G1 F1200 X44.497 Y63.942 E346.77884
G0 F9900 X44.756 Y63.494
G1 F1200 X42.798 Y61.536 E346.85271
G0 F9900 X44.471 Y62.502
G1 F1200 X46.148 Y64.179 E346.91598
G0 F9900 X46.145 Y63.469
G1 F1200 X47.820 Y65.145 E346.97920
G0 F9900 X48.182 Y65.507
G1 F1200 X51.313 Y68.637 E347.09731
G0 F9900 X51.054 Y69.085
G1 F1200 X47.924 Y65.955 E347.21540
G0 F9900 X47.665 Y66.403
G1 F1200 X50.795 Y69.534 E347.33350
G0 F9900 X50.536 Y69.982
G1 F1200 X47.406 Y66.851 E347.45161
G0 F9900 X47.147 Y67.300
G1 F1200 X50.278 Y70.430 E347.56972
G0 F9900 X50.019 Y70.878
G1 F1200 X46.888 Y67.748 E347.68783
G0 F9900 X46.630 Y68.196
G1 F1200 X49.760 Y71.327 E347.80594
G0 F9900 X49.501 Y71.775
G1 F1200 X46.371 Y68.645 E347.92403
G0 F9900 X46.112 Y69.093
G1 F1200 X49.242 Y72.223 E348.04212
G0 F9900 X48.984 Y72.672
G1 F1200 X45.853 Y69.541 E348.16024
G0 F9900 X45.594 Y69.990
G1 F1200 X48.725 Y73.120 E348.27835
G0 F9900 X48.466 Y73.568
G1 F1200 X45.336 Y70.438 E348.39644
G0 F9900 X45.076 Y70.886
G1 F1200 X48.207 Y74.017 E348.51457
G0 F9900 X47.948 Y74.465
G1 F1200 X44.817 Y71.334 E348.63270
G0 F9900 X44.559 Y71.782
G1 F1200 X47.690 Y74.913 E348.75083
G0 F9900 X47.430 Y75.361
G1 F1200 X44.300 Y72.230 E348.86893
G0 F9900 X44.041 Y72.679
G1 F1200 X47.171 Y75.809 E348.98702
G0 F9900 X46.912 Y76.257
G1 F1200 X43.782 Y73.127 E349.10511
G0 F9900 X43.523 Y73.575
G1 F1200 X46.654 Y76.706 E349.22324
G0 F9900 X46.395 Y77.154
G1 F1200 X43.265 Y74.024 E349.34133
G0 F9900 X43.006 Y74.472
G1 F1200 X46.136 Y77.602 E349.45942
G0 F9900 X45.877 Y78.051
G1 F1200 X42.747 Y74.920 E349.57753
G0 F9900 X42.488 Y75.369
G1 F1200 X45.618 Y78.499 E349.69562
G0 F9900 X45.360 Y78.947
G1 F1200 X42.229 Y75.817 E349.81373
G0 F9900 X41.971 Y76.265
G1 F1200 X45.101 Y79.396 E349.93183
G0 F9900 X44.842 Y79.844
G1 F1200 X41.712 Y76.714 E350.04992
G0 F9900 X41.453 Y77.162
G1 F1200 X47.283 Y82.992 E350.26988
G0 F9900 X47.492 Y83.201
G1 F1200 X50.622 Y86.331 E350.38797
G0 F9900 X50.363 Y86.779
G1 F1200 X47.234 Y83.650 E350.50602
G0 F9900 X47.026 Y83.442
G1 F1200 X41.194 Y77.610 E350.72605
G0 F9900 X44.952 Y79.954
G1 F1200 X47.539 Y82.541 E350.82366
G0 F9900 X47.751 Y82.753
G1 F1200 X50.881 Y85.883 E350.94175
G0 F9900 X51.140 Y85.434
G1 F1200 X48.010 Y82.305 E351.05982
G0 F9900 X47.796 Y82.090
G1 F1200 X46.625 Y80.920 E351.10398
G0 F9900 X48.269 Y81.856
G1 F1200 X51.398 Y84.986 E351.22205
G0 F9900 X51.657 Y84.538
G1 F1200 X48.528 Y81.408 E351.34012
G0 F9900 X48.786 Y80.960
G1 F1200 X51.916 Y84.089 E351.45819
G0 F9900 X52.175 Y83.641
G1 F1200 X49.045 Y80.511 E351.57628
G0 F9900 X49.304 Y80.063
G1 F1200 X52.434 Y83.193 E351.69437
G0 F9900 X52.692 Y82.744
G1 F1200 X49.563 Y79.615 E351.81242
G0 F9900 X49.822 Y79.166
G1 F1200 X52.951 Y82.296 E351.93049
G0 F9900 X53.210 Y81.848
G1 F1200 X50.080 Y78.718 E352.04858
G0 F9900 X50.339 Y78.270
G1 F1200 X53.469 Y81.400 E352.16667
G0 F9900 X53.728 Y80.951
G1 F1200 X50.598 Y77.822 E352.28474
G0 F9900 X50.857 Y77.373
G1 F1200 X53.986 Y80.503 E352.40281
G0 F9900 X54.245 Y80.055
G1 F1200 X51.116 Y76.925 E352.52088
G0 F9900 X51.374 Y76.477
G1 F1200 X54.504 Y79.606 E352.63895
G0 F9900 X54.763 Y79.158
G1 F1200 X51.633 Y76.028 E352.75704
