;Generated by Cura 2 GCodeWriter Version: 2.6.23
;FLAVOR:RepRap
;TIME:7569
;Filament used: 7.21461m
;Layer height: 0.38
;Generated with Cura_SteamEngine 2.6.23
;This G-Code has been generated specifically for the LulzBot Mini with standard extruder
G26                                ; clear potential 'probe fail' condition
G21                                ; set units to Millimetres
M107                               ; disable fans
G90                                ; absolute positioning
M82                                ; set extruder to absolute mode
G92 E0                             ; set extruder position to 0
M140 S110   ; start bed heating up
G28                                ; home all axes
M109 R170  ; wait for extruder to reach wiping temp
G1 Z150 E-30 F75                   ; retract filament
G1 X45 Y174 F11520                 ; move above wiper pad
G1 Z0  F1200                       ; push nozzle into wiper
G1 X45 Y174 Z-.5 F4000             ; wiping
G1 X55 Y172 Z-.5 F4000             ; wiping
G1 X45 Y174 Z0 F4000               ; wiping
G1 X55 Y172 F4000                  ; wiping
G1 X45 Y174 F4000                  ; wiping
G1 X55 Y172 F4000                  ; wiping
G1 X45 Y174 F4000                  ; wiping
G1 X55 Y172 F4000                  ; wiping
G1 X60 Y174 F4000                  ; wiping
G1 X80 Y172 F4000                  ; wiping
G1 X60 Y174 F4000                  ; wiping
G1 X80 Y172 F4000                  ; wiping
G1 X60 Y174 F4000                  ; wiping
G1 X90 Y172 F4000                  ; wiping
G1 X80 Y174 F4000                  ; wiping
G1 X100 Y172 F4000                 ; wiping
G1 X80 Y174 F4000                  ; wiping
G1 X100 Y172 F4000                 ; wiping
G1 X80 Y174 F4000                  ; wiping
G1 X100 Y172 F4000                 ; wiping
G1 X110 Y174 F4000                 ; wiping
G1 X100 Y172 F4000                 ; wiping
G1 X110 Y174 F4000                 ; wiping
G1 X100 Y172 F4000                 ; wiping
G1 X110 Y174 F4000                 ; wiping
G1 X115 Y172 Z-0.5 F1000           ; wiping
G1 Z10                             ; raise extruder
G28 X0 Y0                          ; home X and Y
M109 R170 ; wait for extruder to reach probe temp
M204 S300                          ; set probing acceleration
G29                                ; start auto-leveling sequence
M204 S2000                         ; restore standard acceleration
G1 X5 Y15 Z10 F5000                ; move up off last probe point
G4 S1                              ; pause
M400                               ; wait for moves to finish
M117 Heating...                    ; progress indicator message on LCD
M109 R240 ; wait for extruder to reach printing temp
M190 S110   ; wait for bed to reach printing temp
G1 Z2 E0 F75                       ; prime tiny bit of filment into the nozzle
M117 Mini Printing...              ; progress indicator message on LCD

;LAYER_COUNT:124
;LAYER:0
M107
M204 S2000
M205 X20
G0 F2625 X56.534 Y47.293 Z0.425
;TYPE:SKIRT
G1 F900 X57.124 Y46.637 E0.02939
G1 X57.849 Y45.971 E0.06218
G1 X58.618 Y45.334 E0.09544
G1 X59.323 Y44.803 E0.12484
G1 X60.017 Y44.368 E0.15213
G1 X60.678 Y43.992 E0.17746
G1 X61.465 Y43.591 E0.20688
G1 X62.305 Y43.255 E0.23702
G1 X63.427 Y42.866 E0.27657
G1 X64.099 Y42.66 E0.29999
G1 X104.37 Y31.874 E1.68871
G1 X105.232 Y31.684 E1.71811
G1 X106.108 Y31.574 E1.74752
G1 X106.99 Y31.542 E1.77692
G1 X107.872 Y31.591 E1.80635
G1 X108.745 Y31.72 E1.83574
G1 X109.604 Y31.927 E1.86517
G1 X110.44 Y32.21 E1.89457
G1 X111.247 Y32.569 E1.924
G1 X112.018 Y32.998 E1.95339
G1 X112.747 Y33.496 E1.98279
G1 X113.429 Y34.058 E2.01223
G1 X114.056 Y34.679 E2.04163
G1 X114.625 Y35.354 E2.07103
G1 X115.131 Y36.078 E2.10046
G1 X115.569 Y36.845 E2.12988
G1 X115.935 Y37.648 E2.15927
G1 X116.31 Y38.77 E2.19868
G1 X137.518 Y117.962 E4.92955
G1 X137.708 Y118.824 E4.95895
G1 X137.818 Y119.7 E4.98836
G1 X137.85 Y120.583 E5.0178
G1 X137.801 Y121.464 E5.04719
G1 X137.672 Y122.338 E5.07662
G1 X137.465 Y123.196 E5.10602
G1 X137.181 Y124.032 E5.13543
G1 X136.823 Y124.839 E5.16483
G1 X136.393 Y125.61 E5.19424
G1 X135.896 Y126.34 E5.22366
G1 X135.334 Y127.021 E5.25307
G1 X134.713 Y127.649 E5.28249
G1 X134.038 Y128.217 E5.31188
G1 X133.314 Y128.723 E5.3413
G1 X132.547 Y129.161 E5.37072
G1 X131.744 Y129.528 E5.40013
G1 X130.622 Y129.902 E5.43952
G1 X89.784 Y140.837 E6.84778
G1 X88.922 Y141.027 E6.87718
G1 X88.244 Y141.119 E6.89997
G1 X87.266 Y141.218 E6.93271
G1 X86.384 Y141.267 E6.96214
G1 X85.335 Y141.222 E6.99711
G1 X84.323 Y141.123 E7.03098
G1 X83.449 Y140.997 E7.0604
G1 X82.643 Y140.808 E7.08798
G1 X81.943 Y140.612 E7.11219
G1 X81.105 Y140.336 E7.14158
G1 X80.377 Y140.024 E7.16796
G1 X71.911 Y135.989 E7.48036
G1 X71.132 Y135.574 E7.50976
G1 X70.394 Y135.09 E7.53916
G1 X69.702 Y134.54 E7.5686
G1 X69.064 Y133.931 E7.59798
G1 X68.482 Y133.266 E7.62742
G1 X67.964 Y132.552 E7.6568
G1 X67.512 Y131.793 E7.68623
G1 X67.131 Y130.997 E7.71563
G1 X66.823 Y130.169 E7.74505
G1 X66.689 Y129.714 E7.76085
G1 X54.776 Y85.294 E9.29279
G1 X54.586 Y84.431 E9.32222
G1 X54.461 Y83.354 E9.35834
G1 X52.904 Y57.51 E10.22077
G1 X52.891 Y56.627 E10.25019
G1 X52.965 Y55.684 E10.2817
G1 X53.105 Y54.592 E10.31837
G1 X53.257 Y53.722 E10.34779
G1 X53.43 Y53.054 E10.37077
G1 X53.614 Y52.435 E10.39229
G1 X53.904 Y51.601 E10.4217
G1 X54.307 Y50.72 E10.45397
G1 X54.847 Y49.68 E10.493
G1 X55.289 Y48.916 E10.5224
G1 X55.965 Y47.986 E10.5607
G1 X56.534 Y47.293 E10.59057
G0 F2625 X56.92 Y47.61
G1 F900 X57.496 Y46.972 E10.6192
G1 X58.168 Y46.357 E10.64955
G1 X58.937 Y45.72 E10.68281
G1 X59.624 Y45.202 E10.71147
G1 X60.264 Y44.803 E10.73659
G1 X60.925 Y44.427 E10.76192
G1 X61.692 Y44.037 E10.79058
G1 X62.469 Y43.727 E10.81845
G1 X63.591 Y43.338 E10.85801
G1 X64.228 Y43.143 E10.8802
G1 X104.499 Y32.357 E12.26892
G1 X105.339 Y32.173 E12.29756
G1 X106.193 Y32.068 E12.32623
G1 X107.052 Y32.043 E12.35485
G1 X107.911 Y32.098 E12.38352
G1 X108.76 Y32.233 E12.41216
G1 X109.593 Y32.445 E12.44079
G1 X110.403 Y32.734 E12.46944
G1 X111.183 Y33.097 E12.4981
G1 X111.925 Y33.531 E12.52673
G1 X112.624 Y34.032 E12.55538
G1 X113.274 Y34.596 E12.58404
G1 X113.868 Y35.218 E12.61269
G1 X114.402 Y35.892 E12.64134
G1 X114.871 Y36.613 E12.66999
G1 X115.271 Y37.374 E12.69863
G1 X115.599 Y38.169 E12.72727
G1 X115.827 Y38.899 E12.75275
G1 X137.035 Y118.091 E15.48362
G1 X137.219 Y118.931 E15.51226
G1 X137.324 Y119.785 E15.54092
G1 X137.349 Y120.645 E15.56958
G1 X137.294 Y121.503 E15.59822
G1 X137.159 Y122.352 E15.62686
G1 X136.947 Y123.186 E15.65552
G1 X136.658 Y123.995 E15.68414
G1 X136.294 Y124.775 E15.71281
G1 X135.861 Y125.518 E15.74146
G1 X135.36 Y126.217 E15.7701
G1 X134.796 Y126.866 E15.79874
G1 X134.174 Y127.46 E15.82739
G1 X133.5 Y127.994 E15.85604
G1 X132.779 Y128.463 E15.88469
G1 X132.018 Y128.863 E15.91332
G1 X131.223 Y129.191 E15.94197
G1 X130.493 Y129.419 E15.96745
G1 X89.655 Y140.354 E17.3757
G1 X88.814 Y140.538 E17.40437
G1 X88.194 Y140.622 E17.42522
G1 X87.216 Y140.721 E17.45796
G1 X86.357 Y140.768 E17.48662
G1 X85.383 Y140.724 E17.51909
G1 X84.371 Y140.625 E17.55296
G1 X83.52 Y140.502 E17.58161
G1 X82.778 Y140.326 E17.60701
G1 X82.078 Y140.13 E17.63122
G1 X81.261 Y139.86 E17.65988
G1 X80.592 Y139.573 E17.68413
G1 X72.126 Y135.538 E17.99653
G1 X71.368 Y135.132 E18.02517
G1 X70.651 Y134.658 E18.0538
G1 X69.98 Y134.119 E18.08247
G1 X69.363 Y133.52 E18.11112
G1 X68.804 Y132.867 E18.13975
G1 X68.308 Y132.164 E18.16841
G1 X67.88 Y131.418 E18.19706
G1 X67.523 Y130.636 E18.22569
G1 X67.172 Y129.584 E18.26264
G1 X55.259 Y85.164 E19.79457
G1 X55.075 Y84.324 E19.82322
G1 X54.96 Y83.324 E19.85675
G1 X53.403 Y57.48 E20.71918
G1 X53.391 Y56.62 E20.74783
G1 X53.461 Y55.748 E20.77697
G1 X53.601 Y54.656 E20.81364
G1 X53.75 Y53.809 E20.84229
G1 X53.909 Y53.196 E20.86338
G1 X54.093 Y52.577 E20.88489
G1 X54.377 Y51.765 E20.91355
G1 X54.751 Y50.95 E20.94342
G1 X55.291 Y49.91 E20.98245
G1 X55.722 Y49.166 E21.01109
G1 X56.351 Y48.303 E21.04667
G1 X56.92 Y47.61 E21.07653
G1 F600 E20.07653
G0 F2625 X63.309 Y53.315
G0 X64.374 Y54.274
G0 X64.632 Y54.107
G0 X64.56 Y54.039
;TYPE:WALL-INNER
G1 F600 E21.07653
G1 F900 X64.688 Y53.911 E21.08256
G1 X64.9 Y53.721 E21.09205
G1 X65.169 Y53.513 E21.10337
G1 X65.535 Y53.282 E21.11779
G1 X65.82 Y53.134 E21.12849
G1 X66.082 Y53.022 E21.13798
G1 X66.388 Y52.916 E21.14877
G1 X106.13 Y42.263 E22.51932
G1 X106.371 Y42.199 E22.52763
G1 X106.435 Y42.44 E22.533
G1 X127.141 Y119.715 E25.19786
G1 X127.205 Y119.956 E25.20617
G1 X126.964 Y120.02 E25.21154
G1 X87.212 Y130.67 E26.58239
G1 X86.919 Y130.727 E26.59233
G1 X86.627 Y130.762 E26.60213
G1 X86.32 Y130.778 E26.61237
G1 X86.017 Y130.77 E26.62247
G1 X85.712 Y130.742 E26.63267
G1 X85.417 Y130.693 E26.64263
G1 X85.129 Y130.623 E26.6525
G1 X84.833 Y130.531 E26.66283
G1 X84.557 Y130.421 E26.67272
G1 X76.718 Y126.661 E26.96233
G1 X64.924 Y82.638 E28.48046
G1 X63.389 Y57.317 E29.32546
G1 X63.376 Y56.925 E29.33853
G1 X63.391 Y56.631 E29.34833
G1 X63.448 Y56.195 E29.36298
G1 X63.521 Y55.884 E29.37362
G1 X63.616 Y55.577 E29.38433
G1 X63.787 Y55.157 E29.39943
G1 X63.929 Y54.887 E29.40959
G1 X64.091 Y54.622 E29.41994
G1 X64.185 Y54.486 E29.42545
G1 X64.359 Y54.262 E29.43489
G1 X64.56 Y54.039 E29.4449
G0 F2625 X65.114 Y54.313
G1 F900 X64.926 Y54.502 E29.45378
G1 X64.805 Y54.64 E29.45989
G1 X64.608 Y54.9 E29.47075
G1 X64.429 Y55.188 E29.48205
G1 X64.28 Y55.487 E29.49318
G1 X64.156 Y55.802 E29.50445
G1 X64.042 Y56.211 E29.5186
G1 X63.985 Y56.548 E29.52998
G1 X63.962 Y56.886 E29.54127
G1 X63.969 Y57.219 E29.55236
G1 X64.006 Y57.556 E29.56366
G1 X64.095 Y57.962 E29.5775
G1 X64.15 Y58.146 E29.5839
G1 X64.269 Y58.454 E29.5949
G1 X64.418 Y58.755 E29.60608
G1 X64.594 Y59.039 E29.61721
G1 X64.796 Y59.31 E29.62847
G1 X65.084 Y59.623 E29.64264
G1 X65.342 Y59.849 E29.65407
G1 X65.616 Y60.048 E29.66535
G1 X65.906 Y60.216 E29.67651
G1 X66.207 Y60.36 E29.68762
G1 X66.526 Y60.477 E29.69894
G1 X66.938 Y60.582 E29.71311
G1 X67.279 Y60.63 E29.72458
G1 X67.614 Y60.645 E29.73575
G1 X67.946 Y60.632 E29.74681
G1 X68.283 Y60.586 E29.75814
G1 X68.689 Y60.489 E29.77205
G1 X68.87 Y60.429 E29.7784
G1 X69.174 Y60.305 E29.78934
G1 X69.471 Y60.148 E29.80053
G1 X69.752 Y59.966 E29.81168
G1 X69.884 Y59.862 E29.81728
G1 X70.019 Y59.756 E29.82299
G1 X70.262 Y59.521 E29.83425
G1 X70.319 Y59.466 E29.83689
G1 X70.425 Y59.345 E29.84225
G1 X70.387 Y59.483
G1 X70.351 Y59.612
G1 X70.309 Y59.815
G1 X70.268 Y60.015 E29.84692
G1 X70.247 Y60.185 E29.85188
G1 X70.217 Y60.411 E29.85947
G1 X70.199 Y60.629 E29.86676
G1 X70.191 Y61.036 E29.88032
G1 X70.21 Y61.447 E29.89402
G1 X70.259 Y61.848 E29.90748
G1 X70.335 Y62.252 E29.92117
G1 X85.972 Y120.605 E31.93351
G1 X86.105 Y120.994 E31.94721
G1 X86.268 Y121.373 E31.96095
G1 X86.456 Y121.736 E31.97457
G1 X86.668 Y122.086 E31.9882
G1 X86.903 Y122.417 E32.00172
G1 X86.907 Y122.422 E32.00193
G1 X87.169 Y122.738 E32.01561
G1 X87.26 Y122.834 E32.02001
G1 X87.451 Y123.035 E32.02925
G1 X87.503 Y123.082 E32.03158
G1 X87.443 Y123.064
G1 X87.122 Y122.966
G1 X86.935 Y122.926
G1 X86.837 Y122.912 E32.03228
G1 X86.831 Y122.911 E32.03248
G1 X86.608 Y122.879 E32.03999
G1 X86.272 Y122.864 E32.05119
G1 X85.94 Y122.877 E32.06226
G1 X85.603 Y122.923 E32.07359
G1 X85.195 Y123.02 E32.08756
G1 X85.015 Y123.082 E32.0939
G1 X84.712 Y123.205 E32.10479
G1 X84.415 Y123.362 E32.11598
G1 X84.134 Y123.544 E32.12713
G1 X83.868 Y123.753 E32.1384
G1 X83.567 Y124.042 E32.1523
G1 X83.44 Y124.187 E32.15872
G1 X83.242 Y124.448 E32.16963
G1 X83.066 Y124.733 E32.18079
G1 X82.914 Y125.034 E32.19202
G1 X82.791 Y125.351 E32.20335
G1 X82.679 Y125.75 E32.21716
G1 X82.644 Y125.938 E32.22353
G1 X82.604 Y126.263 E32.23443
G1 X82.597 Y126.6 E32.24566
G1 X82.619 Y126.932 E32.25674
G1 X82.671 Y127.267 E32.26804
G1 X82.781 Y127.679 E32.28224
G1 X82.904 Y128 E32.29369
G1 X83.053 Y128.3 E32.30485
G1 X83.228 Y128.587 E32.31605
G1 X83.432 Y128.858 E32.32735
G1 X83.719 Y129.169 E32.34144
G1 X83.976 Y129.395 E32.35284
G1 X84.25 Y129.594 E32.36412
G1 X84.541 Y129.763 E32.37533
G1 X84.842 Y129.907 E32.38645
G1 X85.161 Y130.024 E32.39777
G1 X85.572 Y130.129 E32.4119
G1 X85.914 Y130.177 E32.4234
G1 X86.249 Y130.192 E32.43457
G1 X86.581 Y130.179 E32.44564
G1 X86.918 Y130.133 E32.45697
G1 X87.324 Y130.036 E32.47087
G1 X87.505 Y129.976 E32.47722
G1 X87.81 Y129.851 E32.4882
G1 X88.106 Y129.694 E32.49936
G1 X88.387 Y129.513 E32.5105
G1 X88.654 Y129.302 E32.52183
G1 X88.954 Y129.014 E32.53569
G1 X89.081 Y128.869 E32.54211
G1 X89.279 Y128.608 E32.55302
G1 X89.455 Y128.323 E32.56418
G1 X89.607 Y128.022 E32.57541
G1 X89.73 Y127.705 E32.58674
G1 X89.844 Y127.299 E32.60078
G1 X89.899 Y126.971 E32.61186
G1 X89.917 Y126.785 E32.61809
G1 X89.924 Y126.458 E32.62898
G1 X89.904 Y126.123 E32.64016
G1 X89.85 Y125.79 E32.6514
G1 X89.739 Y125.373 E32.66577
G1 X89.617 Y125.055 E32.67712
G1 X89.51 Y124.841 E32.68509
G1 X89.468 Y124.756 E32.68824
G1 X89.293 Y124.471 E32.69939
G1 X89.1 Y124.214 E32.71009
G1 X89.089 Y124.199 E32.71071
G1 X89.014 Y124.117 E32.71441
G1 X89.106 Y124.162
G1 X89.143 Y124.18
G1 X89.372 Y124.271
G1 X89.523 Y124.332 E32.71489
G1 X89.596 Y124.355
G1 X89.686 Y124.384 E32.71781
G1 X89.914 Y124.458 E32.72579
G1 X90.314 Y124.554 E32.7395
G1 X90.718 Y124.622 E32.75314
G1 X91.128 Y124.661 E32.76686
G1 X91.539 Y124.67 E32.78055
G1 X91.948 Y124.651 E32.79419
G1 X92.353 Y124.602 E32.80778
G1 X92.757 Y124.526 E32.82148
G1 X112.473 Y119.242 E33.5014
G1 X112.861 Y119.108 E33.51507
G1 X113.239 Y118.947 E33.52876
G1 X113.604 Y118.758 E33.54245
G1 X113.955 Y118.545 E33.55613
G1 X114.288 Y118.307 E33.56976
G1 X114.605 Y118.045 E33.58346
G1 X114.902 Y117.763 E33.5971
G1 X115.178 Y117.459 E33.61078
G1 X115.432 Y117.135 E33.62449
G1 X115.662 Y116.795 E33.63817
G1 X115.867 Y116.439 E33.65185
G1 X116.046 Y116.071 E33.66548
G1 X116.199 Y115.69 E33.67916
G1 X116.324 Y115.299 E33.69283
G1 X116.421 Y114.9 E33.70651
G1 X116.489 Y114.495 E33.72019
G1 X116.529 Y114.084 E33.73395
G1 X116.535 Y113.658 E33.74814
G1 X116.517 Y113.26 E33.76141
G1 X116.47 Y112.864 E33.77469
G1 X116.432 Y112.642 E33.78219
G1 X116.257 Y111.94 E33.80629
G1 X100.814 Y54.309 E35.79373
G1 X100.69 Y53.907 E35.80774
G1 X100.546 Y53.529 E35.82122
G1 X100.368 Y53.152 E35.83511
G1 X100.166 Y52.793 E35.84883
G1 X99.944 Y52.456 E35.86227
G1 X99.694 Y52.129 E35.87598
G1 X99.419 Y51.819 E35.88978
G1 X99.125 Y51.532 E35.90347
G1 X98.813 Y51.27 E35.91704
G1 X98.489 Y51.033 E35.93041
G1 X98.312 Y50.917 E35.93746
G1 X97.577 Y50.476 E35.96601
G1 X97.556 Y50.503 E35.96715
G1 X97.227 Y50.327 E35.97958
G1 X97.191 Y50.376 E35.98161
G1 X97.01 Y50.311 E35.98801
G1 X96.612 Y50.2 E36.00178
G1 X96.213 Y50.118 E36.01535
G1 X95.803 Y50.064 E36.02912
G1 X95.402 Y50.04 E36.0425
G1 X95.182 Y50.039 E36.04983
G1 X94.776 Y50.06 E36.06337
G1 X94.373 Y50.108 E36.07689
G1 X93.968 Y50.185 E36.09062
G1 X74.256 Y55.468 E36.77041
G1 X73.867 Y55.601 E36.7841
G1 X73.486 Y55.766 E36.79794
G1 X73.134 Y55.948 E36.81113
G1 X72.944 Y56.056 E36.81841
G1 X72.602 Y56.283 E36.83209
G1 X72.287 Y56.526 E36.84534
G1 X72.12 Y56.667 E36.85262
G1 X71.823 Y56.95 E36.86629
G1 X71.665 Y57.125 E36.87414
G1 X71.602 Y57.195 E36.87728
G1 X71.551 Y57.251 E36.8798
G1 X71.451 Y57.379 E36.88521
G1 X71.296 Y57.575 E36.89353
G1 X71.281 Y57.597 E36.89442
G1 X71.221 Y57.685 E36.89797
G1 X71.242 Y57.572
G1 X71.282 Y57.247
G1 X71.289 Y56.912 E36.89931
G1 X71.284 Y56.818 E36.90222
G1 X71.269 Y56.576 E36.91029
G1 X71.215 Y56.244 E36.9215
G1 X71.104 Y55.825 E36.93594
G1 X70.982 Y55.509 E36.94722
G1 X70.833 Y55.21 E36.95835
G1 X70.658 Y54.924 E36.96952
G1 X70.454 Y54.652 E36.98084
G1 X70.167 Y54.34 E36.99496
G1 X69.909 Y54.114 E37.00639
G1 X69.635 Y53.915 E37.01767
G1 X69.345 Y53.747 E37.02883
G1 X69.044 Y53.603 E37.03995
G1 X68.725 Y53.486 E37.05126
G1 X68.314 Y53.381 E37.0654
G1 X67.975 Y53.333 E37.0768
G1 X67.637 Y53.316 E37.08807
G1 X67.303 Y53.332 E37.09921
G1 X66.968 Y53.377 E37.11047
G1 X66.555 Y53.476 E37.12462
G1 X66.234 Y53.59 E37.13596
G1 X65.926 Y53.733 E37.14728
G1 X65.637 Y53.903 E37.15844
G1 X65.366 Y54.097 E37.16955
G1 X65.114 Y54.313 E37.1806
