;Generated by Cura LulzBot Edition GCodeWriter Version: 2.6.66
;FLAVOR:RepRap
;TIME:10805
;Filament used: 8.29893m
;Layer height: 0.378
;Generated with Cura_SteamEngine 2.6.66
;This G-Code has been generated specifically for the LulzBot Mini with Aerostruder
G26 ; clear potential 'probe fail' condition
G21 ; set units to Millimetres
M107 ; disable fans
G90 ; absolute positioning
M82 ; set extruder to absolute mode
G92 E0 ; set extruder position to 0
M140 S115 ; start bed heating up
G28 ; home all axes
G0 X0 Y187 Z156 F200 ; move away from endstops
M109 R170 ; soften filament before retraction
G1 E-15 F75 ; retract filament
M109 R170 ; wait for extruder to reach wiping temp
G1 X45 Y173 F11520 ; move above wiper pad
G1 Z0 F1200 ; push nozzle into wiper
G1 X42 Y173 Z-.5 F4000 ; wiping
G1 X52 Y171 Z-.5 F4000 ; wiping
G1 X42 Y173 Z0 F4000 ; wiping
G1 X52 Y171 F4000 ; wiping
G1 X42 Y173 F4000 ; wiping
G1 X52 Y171 F4000 ; wiping
G1 X42 Y173 F4000 ; wiping
G1 X52 Y171 F4000 ; wiping
G1 X57 Y173 F4000 ; wiping
G1 X77 Y171 F4000 ; wiping
G1 X57 Y173 F4000 ; wiping
G1 X77 Y171 F4000 ; wiping
G1 X57 Y173 F4000 ; wiping
G1 X87 Y171 F4000 ; wiping
G1 X77 Y173 F4000 ; wiping
G1 X97 Y171 F4000 ; wiping
G1 X77 Y173 F4000 ; wiping
G1 X97 Y171 F4000 ; wiping
G1 X77 Y173 F4000 ; wiping
G1 X97 Y171 F4000 ; wiping
G1 X107 Y173 F4000 ; wiping
G1 X97 Y171 F4000 ; wiping
G1 X107 Y173 F4000 ; wiping
G1 X97 Y171 F4000 ; wiping
G1 X107 Y173 F4000 ; wiping
G1 X112 Y171 Z-0.5 F1000 ; wiping
G1 Z10 ; raise extruder
G28 X0 Y0 ; home X and Y
G0 X0 Y187 F200 ; move away from endstops
M109 R170 ; wait for extruder to reach probe temp
M204 S300 ; set probing acceleration
G29 ; start auto-leveling sequence
M204 S2000 ; restore standard acceleration
G28 X0 Y0 ; re-home to account for build variance of earlier mini builds
G0 X0 Y187 F200 ; move away from endstops
G0 Y152 F4000 ; move in front of wiper pad
G4 S1 ; pause
M400 ; wait for moves to finish
M117 Heating... ; progress indicator message on LCD
M109 R245 ; wait for extruder to reach printing temp
M190 S116 ; wait for bed to reach printing temp
G1 Z2 E0 F75 ; prime tiny bit of filament into the nozzle
M117 Mini Printing... ; progress indicator message on LCD


M221 S100
;LAYER_COUNT:124
;LAYER:0
M107
M204 S800
M205 X2
G0 F2250 X54.039 Y36.503 Z0.42
;TYPE:SKIRT
G1 F900 X54.392 Y35.998 E0.02434
G1 X54.73 Y35.59 E0.04527
G1 X55.403 Y34.897 E0.08343
G1 X55.834 Y34.524 E0.10594
G1 X56.455 Y34.074 E0.13624
G1 X56.881 Y33.812 E0.15599
G1 X57.489 Y33.499 E0.18301
G1 X57.965 Y33.299 E0.2034
G1 X58.838 Y33.011 E0.23972
G1 X59.328 Y32.89 E0.25965
G1 X60.022 Y32.774 E0.28745
G1 X60.565 Y32.729 E0.30897
G1 X102.989 Y32.71 E1.98481
G1 X103.5 Y32.75 E2.00506
G1 X104 Y32.868 E2.02535
G1 X104.475 Y33.063 E2.04564
G1 X104.914 Y33.329 E2.06591
G1 X105.307 Y33.66 E2.08621
G1 X105.643 Y34.048 E2.10648
G1 X105.915 Y34.483 E2.12675
G1 X106.117 Y34.955 E2.14703
G1 X106.243 Y35.453 E2.16732
G1 X106.29 Y36.01 E2.1894
G1 X106.29 Y117.986 E5.42763
G1 X106.25 Y118.498 E5.44792
G1 X106.131 Y118.997 E5.46818
G1 X105.936 Y119.472 E5.48847
G1 X105.67 Y119.911 E5.50874
G1 X105.339 Y120.304 E5.52904
G1 X104.951 Y120.64 E5.54932
G1 X104.516 Y120.912 E5.56958
G1 X104.043 Y121.113 E5.58988
G1 X103.546 Y121.239 E5.61014
G1 X102.99 Y121.286 E5.63218
G1 X61.16 Y121.292 E7.28455
G1 X60.875 Y121.28 E7.29582
G1 X59.723 Y121.18 E7.3415
G1 X59.054 Y121.051 E7.36841
G1 X58.289 Y120.82 E7.39998
G1 X57.809 Y120.633 E7.42033
G1 X56.928 Y120.208 E7.45897
G1 X56.485 Y119.95 E7.47922
G1 X56.228 Y119.753 E7.49201
G1 X48.887 Y113.527 E7.87225
G1 X48.522 Y113.165 E7.89255
G1 X48.218 Y112.751 E7.91284
G1 X47.982 Y112.296 E7.93309
G1 X47.819 Y111.809 E7.95338
G1 X47.734 Y111.302 E7.97368
G1 X47.721 Y111.011 E7.98519
G1 X47.71 Y65.022 E9.80186
G1 X47.777 Y64.361 E9.8281
G1 X52.92 Y39.15 E10.8445
G1 X52.978 Y38.911 E10.85422
G1 X53.081 Y38.547 E10.86916
G1 X53.262 Y38.057 E10.88979
G1 X53.75 Y37.005 E10.9356
G1 X53.792 Y36.932 E10.93893
G0 F810 X54.039 Y36.503
G1 F420 E9.93893
G0 F2250 X55.891 Y38.564
G0 X55.944 Y38.624
G0 X58.874 Y41.884
G0 X58.927 Y41.944
G0 X58.986 Y42.009
G0 X57.237 Y43.32
;TYPE:WALL-INNER
G1 F420 E10.95848
G1 F900 X57.468 Y43.66 E10.97472
G1 X57.738 Y43.984 E10.99138
G1 X58.099 Y44.333 E11.01122
G1 X58.422 Y44.59 E11.02752
G1 X58.757 Y44.806 E11.04327
G1 X59.113 Y44.999 E11.05926
G1 X59.479 Y45.149 E11.07489
G1 X59.712 Y45.229 E11.08462
G1 X60.186 Y45.344 E11.10389
G1 X60.596 Y45.401 E11.12024
G1 X60.997 Y45.42 E11.1361
G1 X61.401 Y45.402 E11.15207
G1 X61.709 Y45.36 E11.16435
G1 X61.601 Y45.853 E11.18429
G1 X61.538 Y46.305 E11.20231
G1 X61.504 Y46.765 E11.22053
G1 X61.5 Y106.942 E13.59766
G1 X61.515 Y107.459 E13.61809
G1 X61.566 Y107.926 E13.63664
G1 X61.647 Y108.383 E13.65498
G1 X61.714 Y108.642 E13.66555
G1 X61.404 Y108.599 E13.67791
G1 X61.003 Y108.58 E13.69377
G1 X60.599 Y108.598 E13.70974
G1 X60.179 Y108.655 E13.72649
G1 X59.696 Y108.778 E13.74617
G1 X59.307 Y108.917 E13.76249
G1 X58.94 Y109.09 E13.77852
G1 X58.589 Y109.294 E13.79456
G1 X58.258 Y109.533 E13.81068
G1 X57.944 Y109.805 E13.82709
G1 X57.602 Y110.175 E13.847
G1 X57.351 Y110.505 E13.86337
G1 X57.141 Y110.848 E13.87926
G1 X56.958 Y111.209 E13.89525
G1 X56.82 Y111.569 E13.91048
G1 X56.749 Y111.79 E13.91965
G1 X56.672 Y112.109 E13.93261
G1 X56.609 Y112.497 E13.94814
G1 X56.583 Y112.897 E13.96397
G1 X56.59 Y113.299 E13.97986
G1 X56.634 Y113.689 E13.99536
G1 X56.673 Y113.895 E14.00364
G1 X52.5 Y110.313 E14.22088
G1 X52.5 Y65.156 E16.00468
G1 X57.021 Y43.01 E16.89754
G0 F810 X57.034 Y42.944
G0 X57.237 Y43.32
G1 F420 E15.89754
G0 F2250 X59.089 Y42.194
G0 X63.249 Y40.845
G0 X65.41 Y40.701
G1 F420 E16.9171
G1 F900 X65.366 Y40.311 E16.9326
G1 X65.323 Y40.083 E16.94176
G1 X65.245 Y39.772 E16.95443
G1 X65.117 Y39.396 E16.97012
G1 X64.956 Y39.034 E16.98577
G1 X64.763 Y38.68 E17.0017
G1 X64.532 Y38.34 E17.01793
G1 X64.262 Y38.016 E17.03459
G1 X63.901 Y37.667 E17.05443
G1 X63.696 Y37.504 E17.06478
G1 X95.303 Y37.501 E18.31332
G1 X94.944 Y37.805 E18.3319
G1 X94.602 Y38.175 E18.35181
G1 X94.351 Y38.505 E18.36818
G1 X94.141 Y38.848 E18.38407
G1 X93.958 Y39.209 E18.40006
G1 X93.82 Y39.569 E18.41529
G1 X93.749 Y39.79 E18.42446
G1 X93.672 Y40.109 E18.43742
G1 X93.609 Y40.497 E18.45295
G1 X93.583 Y40.897 E18.46878
G1 X93.59 Y41.299 E18.48467
G1 X93.634 Y41.689 E18.50017
G1 X93.677 Y41.917 E18.50933
G1 X93.755 Y42.228 E18.522
G1 X93.883 Y42.604 E18.53769
G1 X94.044 Y42.966 E18.55334
G1 X94.237 Y43.32 E18.56927
G1 X94.468 Y43.66 E18.5855
G1 X94.738 Y43.984 E18.60216
G1 X95.099 Y44.333 E18.622
G1 X95.422 Y44.59 E18.6383
G1 X95.757 Y44.806 E18.65405
G1 X96.113 Y44.999 E18.67005
G1 X96.479 Y45.149 E18.68567
G1 X96.712 Y45.229 E18.6954
G1 X97.186 Y45.344 E18.71467
G1 X97.596 Y45.401 E18.73102
G1 X97.997 Y45.42 E18.74688
G1 X98.401 Y45.402 E18.76285
G1 X98.821 Y45.345 E18.7796
G1 X99.304 Y45.222 E18.79929
G1 X99.693 Y45.083 E18.8156
G1 X100.06 Y44.91 E18.83163
G1 X100.411 Y44.706 E18.84767
G1 X100.742 Y44.467 E18.8638
G1 X101.056 Y44.195 E18.88021
G1 X101.398 Y43.825 E18.90011
G1 X101.5 Y43.691 E18.90676
G1 X101.5 Y110.302 E21.53804
G1 X101.262 Y110.016 E21.55274
G1 X100.901 Y109.667 E21.57257
G1 X100.578 Y109.41 E21.58888
G1 X100.243 Y109.194 E21.60462
G1 X99.887 Y109.001 E21.62062
G1 X99.521 Y108.851 E21.63624
G1 X99.288 Y108.771 E21.64598
G1 X98.814 Y108.656 E21.66524
G1 X98.404 Y108.599 E21.6816
G1 X98.003 Y108.58 E21.69745
G1 X97.599 Y108.598 E21.71343
G1 X97.179 Y108.655 E21.73017
G1 X96.696 Y108.778 E21.74986
G1 X96.307 Y108.917 E21.76618
G1 X95.94 Y109.09 E21.7822
G1 X95.589 Y109.294 E21.79824
G1 X95.258 Y109.533 E21.81437
G1 X94.944 Y109.805 E21.83078
G1 X94.602 Y110.175 E21.85068
G1 X94.351 Y110.505 E21.86706
G1 X94.141 Y110.848 E21.88295
G1 X93.958 Y111.209 E21.89894
G1 X93.82 Y111.569 E21.91417
G1 X93.749 Y111.79 E21.92333
G1 X93.672 Y112.109 E21.9363
G1 X93.609 Y112.497 E21.95183
G1 X93.583 Y112.897 E21.96766
G1 X93.59 Y113.299 E21.98354
G1 X93.634 Y113.689 E21.99905
G1 X93.677 Y113.917 E22.00821
G1 X93.755 Y114.228 E22.02088
G1 X93.883 Y114.604 E22.03657
G1 X94.044 Y114.966 E22.05222
G1 X94.237 Y115.32 E22.06814
G1 X94.468 Y115.66 E22.08438
G1 X94.738 Y115.984 E22.10104
G1 X95.099 Y116.333 E22.12088
G1 X95.308 Y116.5 E22.13144
G1 X63.7 Y116.497 E23.38003
G1 X63.742 Y116.467 E23.38207
G1 X64.056 Y116.195 E23.39848
G1 X64.398 Y115.825 E23.41838
G1 X64.649 Y115.495 E23.43476
G1 X64.859 Y115.152 E23.45065
G1 X65.042 Y114.791 E23.46663
G1 X65.18 Y114.431 E23.48186
G1 X65.251 Y114.21 E23.49103
G1 X65.328 Y113.891 E23.504
G1 X65.391 Y113.503 E23.51952
G1 X65.417 Y113.103 E23.53536
G1 X65.415 Y112.962 E23.54093
G1 X65.728 Y113.092 E23.55432
G1 X66.168 Y113.237 E23.57262
G1 X66.617 Y113.353 E23.59094
G1 X67.075 Y113.434 E23.60931
G1 X67.536 Y113.484 E23.62763
G1 X67.973 Y113.5 E23.6449
G1 X88.231 Y113.498 E24.44513
G1 X88.692 Y113.464 E24.46339
G1 X89.151 Y113.399 E24.48171
G1 X89.606 Y113.301 E24.50009
G1 X90.053 Y113.168 E24.51851
G1 X90.486 Y113.007 E24.53676
G1 X90.907 Y112.815 E24.55504
G1 X91.314 Y112.592 E24.57337
G1 X91.705 Y112.343 E24.59169
G1 X92.075 Y112.065 E24.60997
G1 X92.428 Y111.761 E24.62837
G1 X92.756 Y111.432 E24.64672
G1 X93.059 Y111.082 E24.66501
G1 X93.337 Y110.712 E24.68329
G1 X93.589 Y110.32 E24.7017
G1 X93.813 Y109.91 E24.72015
G1 X94.005 Y109.489 E24.73843
G1 X94.165 Y109.063 E24.75641
G1 X94.245 Y108.799 E24.7673
G1 X94.356 Y108.373 E24.78469
G1 X94.619 Y106.889 E24.84423
G1 X94.497 Y106.824 E24.84969
G1 X94.5 Y46.992 E27.21318
G1 X94.485 Y46.538 E27.23113
G1 X94.436 Y46.089 E27.24897
G1 X94.396 Y45.835 E27.25913
G1 X94.301 Y45.396 E27.27687
G1 X94.168 Y44.945 E27.29544
G1 X94.005 Y44.512 E27.31372
G1 X93.818 Y44.097 E27.3317
G1 X93.594 Y43.686 E27.35019
G1 X93.342 Y43.293 E27.36863
G1 X93.07 Y42.933 E27.38645
G1 X92.905 Y42.735 E27.39664
G1 X92.6 Y42.407 E27.41433
G1 X92.265 Y42.094 E27.43244
G1 X91.898 Y41.798 E27.45106
G1 X91.514 Y41.53 E27.46956
G1 X91.116 Y41.295 E27.48782
G1 X90.7 Y41.087 E27.50619
G1 X90.274 Y40.91 E27.52442
G1 X89.833 Y40.763 E27.54278
G1 X89.381 Y40.646 E27.56122
G1 X88.924 Y40.565 E27.57956
G1 X88.475 Y40.517 E27.59739
G1 X88.216 Y40.503 E27.60764
G1 X67.769 Y40.502 E28.41534
G1 X67.305 Y40.536 E28.43372
G1 X66.846 Y40.602 E28.45204
G1 X66.393 Y40.699 E28.47034
G1 X65.954 Y40.83 E28.48843
G1 X65.713 Y40.916 E28.49854
G1 X65.561 Y40.979 E28.50504
G0 F810 X65.416 Y41.039
G0 X65.41 Y40.701
G1 F420 E27.50504
G0 F2250 X66.638 Y42.884
G0 X68.864 Y42.63
G0 X68.944 Y42.621
G0 X96.211 Y39.524
G0 X96.291 Y39.515
G0 X99.316 Y39.172
G0 X100.901 Y37.667
G1 F420 E28.52459
G1 F900 X100.691 Y37.5 E28.53519
G1 X101.5 Y37.5 E28.56715
G1 X101.5 Y38.302 E28.59883
G1 X101.262 Y38.016 E28.61353
G1 X101.141 Y37.899 E28.62018
G0 F810 X100.901 Y37.667
G1 F420 E27.62018
G0 F2250 X99.673 Y39.491
G0 X99.679 Y42.513
G0 X99.679 Y42.593
G0 X99.854 Y111.612
G0 X99.854 Y111.692
G0 X99.862 Y114.268
G0 X101.5 Y115.691
G1 F420 E28.63341
G1 F900 X101.5 Y116.5 E28.66537
G1 X100.696 Y116.5 E28.69713
G1 X100.742 Y116.467 E28.69936
G1 X101.056 Y116.195 E28.71577
G1 X101.335 Y115.894 E28.73199
G0 F810 X101.398 Y115.825
G0 X101.5 Y115.691
G0 F2250 X100.938 Y115.439
G1 F420 E28.74234
G1 F900 X101.153 Y115.156 E28.75638
G1 X101.335 Y114.859 E28.77014
G1 X101.493 Y114.547 E28.78395
G1 X101.614 Y114.232 E28.79728
G1 X101.673 Y114.048 E28.80491
G1 X101.739 Y113.773 E28.81608
G1 X101.794 Y113.435 E28.82961
G1 X101.817 Y113.088 E28.84335
G1 X101.811 Y112.74 E28.8571
G1 X101.772 Y112.4 E28.87062
G1 X101.737 Y112.211 E28.87821
G1 X101.669 Y111.942 E28.88917
G1 X101.558 Y111.615 E28.90281
G1 X101.418 Y111.3 E28.91643
G1 X101.25 Y110.993 E28.93025
G1 X101.052 Y110.701 E28.94419
G1 X100.822 Y110.425 E28.95838
G1 X100.505 Y110.119 E28.97579
G1 X100.227 Y109.898 E28.98981
G1 X99.937 Y109.71 E29.00347
G1 X99.63 Y109.544 E29.01725
G1 X99.31 Y109.413 E29.03091
G1 X99.12 Y109.348 E29.03884
G1 X98.701 Y109.246 E29.05588
G1 X98.349 Y109.197 E29.06992
G1 X98.002 Y109.181 E29.08364
G1 X97.653 Y109.196 E29.09744
G1 X97.294 Y109.245 E29.11175
G1 X96.871 Y109.353 E29.129
G1 X96.536 Y109.472 E29.14304
G1 X96.219 Y109.622 E29.15689
G1 X95.916 Y109.798 E29.17074
G1 X95.631 Y110.004 E29.18463
G1 X95.362 Y110.237 E29.19868
G1 X95.062 Y110.561 E29.21613
G1 X94.847 Y110.844 E29.23017
G1 X94.665 Y111.141 E29.24393
G1 X94.507 Y111.453 E29.25774
G1 X94.386 Y111.768 E29.27107
G1 X94.327 Y111.952 E29.2787
G1 X94.261 Y112.227 E29.28988
G1 X94.206 Y112.565 E29.3034
G1 X94.183 Y112.912 E29.31714
G1 X94.189 Y113.26 E29.33089
G1 X94.228 Y113.6 E29.34441
G1 X94.263 Y113.789 E29.352
G1 X94.331 Y114.058 E29.36296
G1 X94.442 Y114.385 E29.3766
G1 X94.582 Y114.7 E29.39022
G1 X94.75 Y115.007 E29.40404
G1 X94.948 Y115.299 E29.41798
G1 X95.178 Y115.575 E29.43217
G1 X95.495 Y115.881 E29.44958
G1 X95.773 Y116.102 E29.4636
G1 X96.063 Y116.29 E29.47726
G1 X96.37 Y116.456 E29.49104
G1 X96.69 Y116.587 E29.5047
G1 X96.88 Y116.652 E29.51263
G1 X97.299 Y116.754 E29.52967
G1 X97.651 Y116.803 E29.54371
G1 X97.998 Y116.819 E29.55743
G1 X98.347 Y116.804 E29.57123
G1 X98.706 Y116.755 E29.58554
G1 X99.129 Y116.647 E29.60279
G1 X99.464 Y116.528 E29.61683
G1 X99.781 Y116.378 E29.63068
G1 X100.084 Y116.202 E29.64453
G1 X100.369 Y115.996 E29.65842
G1 X100.598 Y115.798 E29.67038
G0 F810 X100.638 Y115.763
G0 X100.938 Y115.439
G0 F2250 X102.1 Y117.1
G1 F420 E29.68993
G1 F900 X60.858 Y117.097 E31.31908
G1 X60.562 Y117.076 E31.3308
G1 X60.267 Y117.034 E31.34257
G1 X60.01 Y116.979 E31.35295
G1 X59.703 Y116.888 E31.3656
G1 X59.437 Y116.79 E31.3768
G1 X59.184 Y116.676 E31.38776
G1 X58.919 Y116.532 E31.39967
G1 X58.678 Y116.378 E31.41097
G1 X58.433 Y116.196 E31.42303
G1 X51.9 Y110.589 E31.76311
G1 X51.9 Y65.095 E33.56022
G1 X57.015 Y40.038 E34.57044
G1 X57.137 Y39.626 E34.58741
G1 X57.252 Y39.34 E34.59959
G1 X57.389 Y39.056 E34.61205
G1 X57.619 Y38.682 E34.62939
G1 X57.785 Y38.457 E34.64044
G1 X57.976 Y38.233 E34.65206
G1 X58.187 Y38.018 E34.66396
G1 X58.288 Y37.926 E34.66936
G1 X58.53 Y37.729 E34.68169
G1 X58.883 Y37.488 E34.69857
G1 X59.138 Y37.348 E34.71006
G1 X59.432 Y37.212 E34.72286
G1 X59.553 Y37.164 E34.728
G1 X59.824 Y37.072 E34.73931
G1 X60.126 Y36.994 E34.75163
G1 X60.252 Y36.969 E34.7567
G1 X60.568 Y36.924 E34.76931
G1 X60.842 Y36.904 E34.78016
G1 X102.1 Y36.9 E36.40994
G1 X102.1 Y116.605 E39.55846
G0 F810 X102.1 Y117.1
G1 F420 E38.55846
G0 F2250 X102.1 Y118.665
G0 X102.084 Y118.65
G0 X102.024 Y118.598
G0 X98.25 Y115.307
G0 X98.204 Y115.245
G0 X95.751 Y113.155
G0 X95.68 Y113.066
G0 X91.619 Y109.524
G0 X91.559 Y109.472
G0 X91.56 Y109.474
G0 X92.844 Y110.369
G1 F420 E39.57802
G1 F900 X93.073 Y110.013 E39.59474
G1 X93.276 Y109.642 E39.61144
G1 X93.45 Y109.259 E39.62806
G1 X93.596 Y108.87 E39.64447
G1 X93.667 Y108.636 E39.65413
G1 X93.769 Y108.245 E39.6701
G1 X93.952 Y107.215 E39.71142
G1 X93.897 Y107.186 E39.71388
G1 X93.9 Y47.002 E42.09127
G1 X93.886 Y46.581 E42.10791
G1 X93.841 Y46.168 E42.12433
G1 X93.806 Y45.945 E42.13324
G1 X93.719 Y45.544 E42.14945
G1 X93.599 Y45.136 E42.16625
G1 X93.45 Y44.741 E42.18293
G1 X93.28 Y44.364 E42.19926
G1 X93.077 Y43.992 E42.216
G1 X92.849 Y43.636 E42.2327
G1 X92.6 Y43.306 E42.24903
G1 X92.455 Y43.132 E42.25798
G1 X92.175 Y42.831 E42.27422
G1 X91.871 Y42.547 E42.29065
G1 X91.538 Y42.278 E42.30756
G1 X91.189 Y42.035 E42.32436
G1 X90.829 Y41.822 E42.34089
G1 X90.45 Y41.633 E42.35762
G1 X90.064 Y41.472 E42.37414
G1 X89.663 Y41.339 E42.39083
G1 X89.253 Y41.233 E42.40755
G1 X88.839 Y41.159 E42.42417
G1 X88.427 Y41.115 E42.44053
G1 X88.2 Y41.103 E42.44951
G1 X67.791 Y41.102 E43.25571
G1 X67.37 Y41.133 E43.27239
G1 X66.952 Y41.193 E43.28907
G1 X66.542 Y41.281 E43.30564
G1 X66.141 Y41.4 E43.32216
G1 X65.929 Y41.476 E43.33105
G1 X65.552 Y41.632 E43.34717
G1 X65.178 Y41.818 E43.36367
G1 X64.981 Y41.93 E43.37262
G1 X64.659 Y42.137 E43.38774
G1 X64.648 Y42.126 E43.38836
G1 X64.673 Y42.048 E43.39159
G1 X64.739 Y41.773 E43.40277
G1 X64.794 Y41.435 E43.41629
G1 X64.817 Y41.088 E43.43003
G1 X64.811 Y40.74 E43.44378
G1 X64.772 Y40.4 E43.4573
G1 X64.737 Y40.211 E43.46489
G1 X64.669 Y39.942 E43.47585
