;This Gcode has been generated specifically for the LulzBot Mini
;Basic settings: Layer height: 0.35 Walls: 1 Fill: 60
;Filament Diameter: 2.89
;Nozzle Size: 0.5
G21                          ; metric values
G90                          ; absolute positioning
M82                          ; set extruder to absolute mode
M107                         ; start with the fan off
G92 E0                       ; set extruder position to 0
M140 S110; get bed heating up
G28                          ; home all
M907 X675                    ; reduce extruder torque for safety
M109 S180                    ; set to cleaning temp and wait
G1 Z150 E-30 F55             ; suck up XXmm of filament
M109 S180                    ; heat up rest of way
G1 X45 Y174 F11520           ; move behind scraper
G1 Z0  F1200                 ; CRITICAL: set Z to height of top of scraper
G1 X45 Y174 Z-.5 F4000       ; wiping ; plunge into wipe pad
G1 X55 Y172 Z-.5 F4000       ; wiping
G1 X45 Y174 Z0 F4000         ; wiping
G1 X55 Y172 F4000            ; wiping
G1 X45 Y174 F4000            ; wiping
G1 X55 Y172 F4000            ; wiping
G1 X45 Y174 F4000            ; wiping
G1 X55 Y172 F4000            ; wiping
G1 X60 Y174 F4000            ; wiping
G1 X80 Y172 F4000            ; wiping
G1 X60 Y174 F4000            ; wiping
G1 X80 Y172 F4000            ; wiping
G1 X60 Y174 F4000            ; wiping
G1 X90 Y172 F4000            ; wiping
G1 X80 Y174 F4000            ; wiping
G1 X100 Y172 F4000           ; wiping
G1 X80 Y174 F4000            ; wiping
G1 X100 Y172 F4000           ; wiping
G1 X80 Y174 F4000            ; wiping
G1 X100 Y172 F4000           ; wiping
G1 X110 Y174 F4000           ; wiping
G1 X100 Y172 F4000           ; wiping
G1 X110 Y174 F4000           ; wiping
G1 X100 Y172 F4000           ; wiping
G1 X110 Y174 F4000           ; wiping
G1 X115 Y172 Z-0.5 F1000     ; wipe slower and bury noz in cleanish area
G1 Z10                       ; raise z
G28 X0 Y0                    ; home x and y
M109 S180                    ; set to probing temp
M204 S300                    ; Set probing acceleration
G29                          ; Probe
M204 S2000                   ; Restore standard acceleration
G1 X5 Y15 Z10 F5000          ; get out the way
G4 S1                        ; pause
M400                         ; clear buffer
M109 S245    ; set extruder temp and wait
G1 Z2 E0 F45                 ; extrude filament back into nozzle
M140 S110; get bed temping up during first layer

;Layer count: 60
;LAYER:0
M107
G0 F10500 X67.637 Y21.733 Z0.425
;TYPE:SKIRT
G1 F1500 X67.954 Y20.927 E0.03507
G1 X68.350 Y20.162 E0.06995
G1 X68.815 Y19.454 E0.10425
G1 X69.253 Y18.906 E0.13266
G1 X69.835 Y18.300 E0.16668
G1 X70.492 Y17.746 E0.20148
G1 X71.203 Y17.258 E0.23640
G1 X71.976 Y16.842 E0.27195
G1 X72.737 Y16.531 E0.30524
G1 X73.167 Y16.392 E0.32354
G1 X73.396 Y16.328 E0.33317
G1 X73.613 Y16.273 E0.34223
G1 X73.825 Y16.227 E0.35102
G1 X74.030 Y16.186 E0.35948
G1 X74.250 Y16.149 E0.36851
G1 X74.485 Y16.116 E0.37812
G1 X74.910 Y16.072 E0.39543
G1 X75.564 Y16.047 E0.42193
G1 X76.361 Y16.090 E0.45425
G1 X76.810 Y16.149 E0.47259
G1 X77.051 Y16.190 E0.48248
G1 X77.255 Y16.232 E0.49092
G1 X77.481 Y16.282 E0.50029
G1 X91.621 Y20.068 E1.09304
G1 X94.244 Y20.773 E1.20302
G1 X94.294 Y20.586 E1.21086
G1 X98.429 Y21.692 E1.38418
G1 X112.353 Y25.423 E1.96790
G1 X113.000 Y25.607 E1.99514
G1 X113.785 Y25.907 E2.02917
G1 X114.556 Y26.299 E2.06419
G1 X115.284 Y26.769 E2.09928
G1 X115.959 Y27.314 E2.13441
G1 X116.573 Y27.924 E2.16946
G1 X117.119 Y28.596 E2.20452
G1 X117.581 Y29.301 E2.23865
G1 X117.909 Y29.916 E2.26688
G1 X118.225 Y30.671 E2.30002
G1 X118.414 Y31.265 E2.32526
G1 X118.481 Y31.524 E2.33609
G1 X118.531 Y31.741 E2.34511
G1 X118.572 Y31.944 E2.35350
G1 X118.609 Y32.148 E2.36189
G1 X118.646 Y32.385 E2.37161
G1 X118.695 Y32.821 E2.38937
G1 X118.725 Y33.477 E2.41596
G1 X118.688 Y34.274 E2.44827
G1 X118.632 Y34.723 E2.46659
G1 X118.594 Y34.952 E2.47599
G1 X118.554 Y35.166 E2.48481
G1 X118.506 Y35.385 E2.49389
G1 X118.439 Y35.656 E2.50519
G1 X118.199 Y36.419 E2.53758
G1 X117.854 Y37.213 E2.57264
G1 X117.428 Y37.967 E2.60770
G1 X116.926 Y38.673 E2.64278
G1 X116.354 Y39.322 E2.67781
G1 X115.727 Y39.899 E2.71232
G1 X115.148 Y40.338 E2.74174
G1 X114.672 Y40.698 E2.76591
G1 X114.197 Y41.073 E2.79041
G1 X113.793 Y41.406 E2.81161
G1 X113.382 Y41.760 E2.83358
G1 X112.974 Y42.126 E2.85577
G1 X112.514 Y42.556 E2.88127
G1 X112.163 Y42.900 E2.90117
G1 X111.752 Y43.318 E2.92491
G1 X111.359 Y43.735 E2.94811
G1 X110.977 Y44.157 E2.97116
G1 X110.623 Y44.568 E2.99313
G1 X110.289 Y44.970 E3.01429
G1 X109.911 Y45.445 E3.03887
G1 X109.567 Y45.897 E3.06187
G1 X109.265 Y46.313 E3.08269
G1 X108.910 Y46.822 E3.10782
G1 X108.635 Y47.235 E3.12791
G1 X108.319 Y47.732 E3.15176
G1 X108.020 Y48.225 E3.17511
G1 X107.748 Y48.696 E3.19713
G1 X107.465 Y49.209 E3.22085
G1 X107.210 Y49.697 E3.24315
G1 X106.968 Y50.181 E3.26506
G1 X106.741 Y50.664 E3.28667
G1 X106.499 Y51.204 E3.31063
G1 X106.267 Y51.757 E3.33492
G1 X106.078 Y52.237 E3.35581
G1 X105.877 Y52.774 E3.37903
G1 X105.682 Y53.334 E3.40304
G1 X105.530 Y53.801 E3.42292
G1 X105.369 Y54.335 E3.44551
G1 X105.205 Y54.918 E3.47003
G1 X105.060 Y55.486 E3.49377
G1 X104.949 Y55.957 E3.51337
G1 X104.824 Y56.547 E3.53779
G1 X104.716 Y57.112 E3.56108
G1 X104.631 Y57.613 E3.58166
G1 X104.543 Y58.205 E3.60589
G1 X104.472 Y58.780 E3.62935
G1 X104.446 Y59.005 E3.63852
G1 X104.388 Y59.623 E3.66366
G1 X104.349 Y60.151 E3.68510
G1 X104.320 Y60.737 E3.70886
G1 X104.303 Y61.265 E3.73025
G1 X104.298 Y61.800 E3.75191
G1 X104.304 Y62.419 E3.77698
G1 X104.321 Y62.952 E3.79857
G1 X104.349 Y63.484 E3.82015
G1 X104.393 Y64.070 E3.84394
G1 X104.448 Y64.647 E3.86741
G1 X104.505 Y65.149 E3.88787
G1 X104.581 Y65.704 E3.91055
G1 X104.678 Y66.313 E3.93552
G1 X104.773 Y66.840 E3.95721
G1 X104.888 Y67.405 E3.98056
G1 X105.002 Y67.911 E4.00156
G1 X105.140 Y68.473 E4.02499
G1 X105.290 Y69.030 E4.04835
G1 X105.453 Y69.588 E4.07189
G1 X105.602 Y70.062 E4.09201
G1 X105.796 Y70.635 E4.11651
G1 X105.972 Y71.125 E4.13759
G1 X106.186 Y71.681 E4.16171
G1 X106.399 Y72.200 E4.18443
G1 X106.671 Y72.826 E4.21207
G1 X106.944 Y73.562 E4.24386
G1 X107.149 Y74.358 E4.27714
G1 X107.237 Y74.853 E4.29750
G1 X107.305 Y75.483 E4.32316
G1 X107.324 Y76.152 E4.35026
G1 X107.273 Y76.988 E4.38418
G1 X107.130 Y77.843 E4.41928
G1 X106.901 Y78.677 E4.45430
G1 X106.583 Y79.485 E4.48946
G1 X106.187 Y80.249 E4.52431
G1 X105.713 Y80.974 E4.55938
G1 X105.159 Y81.649 E4.59474
G1 X104.544 Y82.256 E4.62973
G1 X103.874 Y82.793 E4.66450
G1 X103.146 Y83.265 E4.69963
G1 X102.364 Y83.659 E4.73509
G1 X101.676 Y83.920 E4.76489
G1 X101.751 Y84.007 E4.76954
G1 X102.245 Y84.721 E4.80470
G1 X102.641 Y85.443 E4.83804
G1 X102.856 Y85.921 E4.85927
G1 X103.111 Y86.630 E4.88978
G1 X103.188 Y86.896 E4.90099
G1 X103.244 Y87.112 E4.91003
G1 X103.294 Y87.329 E4.91904
G1 X103.335 Y87.532 E4.92743
G1 X103.371 Y87.734 E4.93574
G1 X103.409 Y87.977 E4.94570
G1 X103.459 Y88.435 E4.96435
G1 X103.487 Y89.252 E4.99746
G1 X103.430 Y90.057 E5.03013
G1 X103.391 Y90.336 E5.04154
G1 X103.355 Y90.553 E5.05045
G1 X103.315 Y90.757 E5.05887
G1 X103.272 Y90.959 E5.06723
G1 X103.203 Y91.242 E5.07903
G1 X102.962 Y92.006 E5.11147
G1 X102.618 Y92.800 E5.14650
G1 X102.190 Y93.556 E5.18168
G1 X101.689 Y94.260 E5.21667
G1 X101.118 Y94.909 E5.25168
G1 X100.489 Y95.489 E5.28632
G1 X99.911 Y95.926 E5.31566
G1 X99.439 Y96.283 E5.33963
G1 X98.957 Y96.663 E5.36448
G1 X98.573 Y96.980 E5.38464
G1 X98.130 Y97.361 E5.40831
G1 X97.737 Y97.714 E5.42970
G1 X97.296 Y98.127 E5.45416
G1 X96.901 Y98.511 E5.47647
G1 X96.515 Y98.906 E5.49883
G1 X96.122 Y99.323 E5.52204
G1 X95.740 Y99.745 E5.54509
G1 X95.386 Y100.156 E5.56705
G1 X95.052 Y100.558 E5.58821
G1 X94.674 Y101.033 E5.61280
G1 X94.330 Y101.485 E5.63580
G1 X94.028 Y101.901 E5.65661
G1 X93.673 Y102.410 E5.68174
G1 X93.398 Y102.823 E5.70183
G1 X93.082 Y103.320 E5.72568
G1 X92.783 Y103.813 E5.74903
G1 X92.513 Y104.281 E5.77091
G1 X92.217 Y104.816 E5.79567
G1 X91.992 Y105.246 E5.81532
G1 X91.716 Y105.802 E5.84045
G1 X91.504 Y106.252 E5.86060
G1 X91.262 Y106.792 E5.88456
G1 X91.056 Y107.282 E5.90608
G1 X90.828 Y107.858 E5.93117
G1 X90.636 Y108.372 E5.95339
G1 X90.445 Y108.922 E5.97696
G1 X90.293 Y109.389 E5.99685
G1 X90.132 Y109.923 E6.01943
G1 X89.968 Y110.506 E6.04396
G1 X89.823 Y111.074 E6.06770
G1 X89.712 Y111.546 E6.08733
G1 X89.581 Y112.162 E6.11283
G1 X89.481 Y112.684 E6.13435
G1 X89.384 Y113.263 E6.15813
G1 X89.307 Y113.787 E6.17957
G1 X89.235 Y114.368 E6.20328
G1 X89.209 Y114.593 E6.21245
G1 X89.151 Y115.211 E6.23759
G1 X89.112 Y115.739 E6.25902
G1 X89.083 Y116.324 E6.28274
G1 X89.066 Y116.853 E6.30417
G1 X89.061 Y117.388 E6.32584
G1 X89.067 Y118.020 E6.35143
G1 X89.082 Y118.521 E6.37173
G1 X89.112 Y119.072 E6.39407
G1 X89.158 Y119.685 E6.41897
G1 X89.204 Y120.179 E6.43906
G1 X89.275 Y120.787 E6.46384
G1 X89.344 Y121.292 E6.48448
G1 X89.441 Y121.901 E6.50945
G1 X89.535 Y122.421 E6.53085
G1 X89.640 Y122.942 E6.55237
G1 X89.776 Y123.546 E6.57744
G1 X89.903 Y124.061 E6.59892
G1 X90.060 Y124.642 E6.62329
G1 X90.210 Y125.158 E6.64505
G1 X90.367 Y125.655 E6.66616
G1 X90.566 Y126.245 E6.69137
G1 X90.732 Y126.707 E6.71125
G1 X90.959 Y127.294 E6.73673
G1 X91.148 Y127.755 E6.75691
G1 X91.434 Y128.414 E6.78600
G1 X91.707 Y129.149 E6.81775
G1 X91.912 Y129.945 E6.85103
G1 X92.004 Y130.466 E6.87246
G1 X92.076 Y131.236 E6.90377
G1 X92.086 Y131.754 E6.92475
G1 X92.037 Y132.576 E6.95810
G1 X91.893 Y133.431 E6.99321
G1 X91.664 Y134.264 E7.02819
G1 X91.347 Y135.073 E7.06337
G1 X90.949 Y135.840 E7.09836
G1 X90.485 Y136.546 E7.13257
G1 X90.047 Y137.094 E7.16098
G1 X89.466 Y137.699 E7.19495
G1 X88.810 Y138.254 E7.22974
G1 X88.095 Y138.743 E7.26482
G1 X87.324 Y139.158 E7.30027
G1 X86.563 Y139.469 E7.33356
G1 X86.133 Y139.608 E7.35186
G1 X85.907 Y139.671 E7.36136
G1 X85.691 Y139.726 E7.37039
G1 X85.474 Y139.774 E7.37939
G1 X85.268 Y139.814 E7.38788
G1 X85.050 Y139.851 E7.39684
G1 X84.815 Y139.884 E7.40645
G1 X84.390 Y139.928 E7.42375
G1 X83.736 Y139.953 E7.45025
G1 X82.939 Y139.910 E7.48257
G1 X82.490 Y139.851 E7.50091
G1 X82.249 Y139.810 E7.51081
G1 X82.045 Y139.768 E7.51924
G1 X81.819 Y139.718 E7.52862
G1 X67.680 Y135.932 E8.12132
G1 X65.761 Y135.416 E8.20179
G1 X65.706 Y135.619 E8.21030
G1 X61.571 Y134.513 E8.38363
G1 X47.647 Y130.782 E8.96735
G1 X47.000 Y130.598 E8.99459
G1 X46.215 Y130.298 E9.02862
G1 X45.442 Y129.905 E9.06373
G1 X44.716 Y129.435 E9.09875
G1 X44.043 Y128.893 E9.13374
G1 X43.427 Y128.281 E9.16890
G1 X42.881 Y127.609 E9.20397
G1 X42.419 Y126.904 E9.23810
G1 X42.091 Y126.289 E9.26632
G1 X41.775 Y125.533 E9.29950
G1 X41.586 Y124.938 E9.32478
G1 X41.520 Y124.683 E9.33545
G1 X41.470 Y124.467 E9.34442
G1 X41.428 Y124.261 E9.35294
G1 X41.391 Y124.057 E9.36133
G1 X41.354 Y123.819 E9.37109
G1 X41.305 Y123.382 E9.38889
G1 X41.275 Y122.728 E9.41540
G1 X41.312 Y121.931 E9.44771
G1 X41.368 Y121.484 E9.46595
G1 X41.405 Y121.254 E9.47539
G1 X41.446 Y121.035 E9.48441
G1 X41.494 Y120.818 E9.49341
G1 X41.561 Y120.549 E9.50463
G1 X41.801 Y119.786 E9.53702
G1 X42.136 Y119.014 E9.57110
G1 X42.471 Y118.401 E9.59939
G1 X42.943 Y117.701 E9.63357
G1 X43.470 Y117.071 E9.66683
G1 X43.834 Y116.699 E9.68791
G1 X44.419 Y116.188 E9.71936
G1 X45.088 Y115.690 E9.75313
G1 X45.554 Y115.330 E9.77698
G1 X45.994 Y114.975 E9.79987
G1 X46.431 Y114.607 E9.82301
G1 X46.818 Y114.266 E9.84389
G1 X47.260 Y113.861 E9.86817
G1 X47.664 Y113.475 E9.89079
G1 X48.058 Y113.083 E9.91330
G1 X48.452 Y112.672 E9.93635
G1 X48.815 Y112.279 E9.95802
G1 X49.194 Y111.850 E9.98120
G1 X49.564 Y111.415 E10.00432
G1 X49.893 Y111.008 E10.02551
G1 X50.271 Y110.522 E10.05045
G1 X50.572 Y110.118 E10.07085
G1 X50.933 Y109.610 E10.09608
G1 X51.227 Y109.181 E10.11714
G1 X51.518 Y108.733 E10.13877
G1 X51.829 Y108.232 E10.16265
G1 X52.121 Y107.739 E10.18585
G1 X52.391 Y107.261 E10.20808
G1 X52.668 Y106.744 E10.23183
G1 X52.930 Y106.231 E10.25516
G1 X53.158 Y105.760 E10.27635
G1 X53.390 Y105.253 E10.29893
G1 X53.602 Y104.762 E10.32058
G1 X53.824 Y104.222 E10.34423
G1 X54.036 Y103.669 E10.36821
G1 X54.224 Y103.145 E10.39075
G1 X54.403 Y102.612 E10.41352
G1 X54.555 Y102.128 E10.43406
G1 X54.727 Y101.534 E10.45910
G1 X54.854 Y101.057 E10.47909
G1 X54.998 Y100.478 E10.50325
G1 X55.127 Y99.898 E10.52731
G1 X55.224 Y99.412 E10.54738
G1 X55.329 Y98.832 E10.57125
G1 X55.420 Y98.253 E10.59498
G1 X55.490 Y97.742 E10.61586
G1 X55.561 Y97.134 E10.64065
G1 X55.608 Y96.633 E10.66103
G1 X55.651 Y96.056 E10.68446
G1 X55.680 Y95.468 E10.70830
G1 X55.697 Y94.939 E10.72973
G1 X55.702 Y94.404 E10.75139
G1 X55.696 Y93.766 E10.77723
G1 X55.679 Y93.253 E10.79801
G1 X55.651 Y92.721 E10.81959
G1 X55.607 Y92.134 E10.84342
G1 X55.551 Y91.544 E10.86742
G1 X55.491 Y91.030 E10.88837
G1 X55.419 Y90.501 E10.90999
G1 X55.320 Y89.879 E10.93550
G1 X55.227 Y89.365 E10.95665
G1 X55.108 Y88.782 E10.98074
G1 X54.998 Y88.294 E11.00100
G1 X54.860 Y87.732 E11.02443
G1 X54.710 Y87.175 E11.04779
G1 X54.545 Y86.611 E11.07159
G1 X54.389 Y86.116 E11.09260
G1 X54.196 Y85.545 E11.11701
G1 X54.030 Y85.084 E11.13685
G1 X53.803 Y84.496 E11.16237
G1 X53.616 Y84.039 E11.18237
G1 X53.329 Y83.379 E11.21151
G1 X53.056 Y82.642 E11.24334
G1 X52.851 Y81.848 E11.27654
G1 X52.763 Y81.352 E11.29694
G1 X52.695 Y80.721 E11.32264
G1 X52.676 Y80.053 E11.34970
G1 X52.727 Y79.216 E11.38366
G1 X52.870 Y78.362 E11.41872
G1 X53.099 Y77.528 E11.45374
G1 X53.417 Y76.717 E11.48901
G1 X53.814 Y75.955 E11.52381
G1 X54.286 Y75.233 E11.55874
G1 X54.840 Y74.557 E11.59413
G1 X55.440 Y73.964 E11.62829
G1 X55.975 Y73.523 E11.65636
G1 X56.672 Y73.048 E11.69052
G1 X57.439 Y72.636 E11.72577
G1 X57.923 Y72.437 E11.74696
G1 X57.418 Y71.816 E11.77938
G1 X56.943 Y71.092 E11.81444
G1 X56.547 Y70.322 E11.84950
G1 X56.251 Y69.561 E11.88257
G1 X56.115 Y69.118 E11.90133
G1 X56.057 Y68.888 E11.91093
G1 X56.009 Y68.684 E11.91942
G1 X55.965 Y68.468 E11.92835
G1 X55.926 Y68.253 E11.93720
G1 X55.891 Y68.017 E11.94686
G1 X55.843 Y67.590 E11.96426
G1 X55.814 Y66.939 E11.99064
G1 X55.849 Y66.143 E12.02291
G1 X55.905 Y65.690 E12.04139
G1 X55.945 Y65.447 E12.05136
G1 X55.985 Y65.243 E12.05978
G1 X56.028 Y65.041 E12.06814
G1 X56.097 Y64.758 E12.07994
G1 X56.338 Y63.994 E12.11238
G1 X56.682 Y63.200 E12.14742
G1 X57.110 Y62.444 E12.18260
G1 X57.611 Y61.740 E12.21759
G1 X58.182 Y61.091 E12.25259
G1 X58.811 Y60.511 E12.28723
G1 X59.389 Y60.074 E12.31658
G1 X59.861 Y59.717 E12.34054
G1 X60.343 Y59.337 E12.36539
G1 X60.727 Y59.020 E12.38556
G1 X61.170 Y58.639 E12.40922
G1 X61.566 Y58.283 E12.43078
G1 X62.004 Y57.873 E12.45507
G1 X62.399 Y57.489 E12.47738
G1 X62.785 Y57.094 E12.49975
G1 X63.178 Y56.677 E12.52295
G1 X63.560 Y56.255 E12.54600
G1 X63.914 Y55.844 E12.56796
G1 X64.258 Y55.429 E12.58979
G1 X64.637 Y54.953 E12.61443
G1 X64.985 Y54.496 E12.63769
G1 X65.273 Y54.099 E12.65755
G1 X65.628 Y53.590 E12.68268
G1 X65.908 Y53.168 E12.70319
G1 X66.227 Y52.667 E12.72724
G1 X66.502 Y52.213 E12.74873
G1 X66.807 Y51.686 E12.77339
G1 X67.067 Y51.215 E12.79517
G1 X67.315 Y50.741 E12.81683
G1 X67.584 Y50.198 E12.84137
G1 X67.807 Y49.726 E12.86251
G1 X68.039 Y49.204 E12.88564
G1 X68.255 Y48.692 E12.90814
G1 X68.459 Y48.177 E12.93057
G1 X68.671 Y47.607 E12.95520
G1 X68.840 Y47.126 E12.97585
G1 X69.010 Y46.601 E12.99819
G1 X69.188 Y46.012 E13.02311
G1 X69.340 Y45.466 E13.04606
G1 X69.470 Y44.961 E13.06717
G1 X69.588 Y44.454 E13.08825
G1 X69.719 Y43.838 E13.11375
G1 X69.819 Y43.316 E13.13528
G1 X69.916 Y42.737 E13.15905
G1 X69.996 Y42.195 E13.18123
G1 X70.067 Y41.627 E13.20441
G1 X70.091 Y41.407 E13.21337
G1 X70.149 Y40.789 E13.23851
G1 X70.167 Y40.568 E13.24749
G1 X70.205 Y39.952 E13.27248
G1 X70.227 Y39.417 E13.29416
G1 X70.238 Y38.876 E13.31607
G1 X70.240 Y38.609 E13.32688
G1 X70.233 Y37.979 E13.35240
G1 X70.218 Y37.479 E13.37265
G1 X70.184 Y36.864 E13.39759
G1 X70.147 Y36.355 E13.41826
G1 X70.089 Y35.752 E13.44279
G1 X70.033 Y35.263 E13.46272
G1 X69.952 Y34.678 E13.48663
G1 X69.858 Y34.091 E13.51071
G1 X69.765 Y33.579 E13.53178
G1 X69.659 Y33.053 E13.55351
G1 X69.529 Y32.473 E13.57757
G1 X69.386 Y31.894 E13.60172
G1 X69.252 Y31.395 E13.62265
G1 X69.083 Y30.818 E13.64699
G1 X68.923 Y30.312 E13.66848
G1 X68.734 Y29.753 E13.69238
G1 X68.566 Y29.288 E13.71240
G1 X68.340 Y28.701 E13.73787
G1 X68.155 Y28.250 E13.75761
G1 X67.866 Y27.585 E13.78697
G1 X67.594 Y26.851 E13.81867
G1 X67.377 Y26.013 E13.85372
G1 X67.249 Y25.151 E13.88901
G1 X67.213 Y24.293 E13.92378
G1 X67.263 Y23.428 E13.95887
G1 X67.407 Y22.569 E13.99413
G1 X67.637 Y21.733 E14.02924
G1 F420 E12.02924
G1 Z0.525
G0 F10500 X71.672 Y23.083
;TYPE:WALL-INNER
G1 Z0.425
G1 F420 E14.02924
G1 F1500 X71.828 Y22.686 E14.04652
G1 X72.025 Y22.306 E14.06385
G1 X72.256 Y21.954 E14.08090
G1 X72.747 Y21.402 E14.11081
G1 X73.065 Y21.133 E14.12768
G1 X73.418 Y20.892 E14.14499
G1 X73.800 Y20.686 E14.16256
G1 X74.185 Y20.529 E14.17940
G1 X74.603 Y20.406 E14.19704
G1 X74.996 Y20.335 E14.21321
G1 X75.217 Y20.312 E14.22221
G1 X75.523 Y20.300 E14.23461
G1 X76.182 Y20.352 E14.26138
G1 X76.479 Y20.412 E14.27365
G1 X90.742 Y24.232 E14.87156
G1 X77.240 Y74.625 E16.98412
G1 X63.321 Y70.895 E17.56763
G1 X62.872 Y70.768 E17.58652
G1 X62.482 Y70.618 E17.60344
G1 X62.098 Y70.423 E17.62088
G1 X61.755 Y70.201 E17.63743
G1 X61.415 Y69.927 E17.65511
G1 X61.123 Y69.637 E17.67178
G1 X60.849 Y69.300 E17.68936
G1 X60.615 Y68.943 E17.70665
G1 X60.428 Y68.578 E17.72325
G1 X60.208 Y67.973 E17.74932
G1 X60.103 Y67.451 E17.77088
G1 X60.082 Y67.259 E17.77870
G1 X60.067 Y66.936 E17.79180
G1 X60.109 Y66.313 E17.81708
G1 X60.190 Y65.905 E17.83393
G1 X60.323 Y65.486 E17.85173
G1 X60.491 Y65.097 E17.86889
G1 X60.701 Y64.727 E17.88611
G1 X60.948 Y64.380 E17.90336
G1 X61.223 Y64.067 E17.92023
G1 X61.541 Y63.773 E17.93777
G1 X62.471 Y63.071 E17.98495
G1 X62.981 Y62.669 E18.01125
G1 X63.476 Y62.260 E18.03725
G1 X63.975 Y61.831 E18.06390
G1 X64.458 Y61.397 E18.09019
G1 X64.932 Y60.954 E18.11646
G1 X65.398 Y60.499 E18.14283
G1 X65.846 Y60.042 E18.16875
G1 X66.298 Y59.562 E18.19545
G1 X66.733 Y59.080 E18.22174
G1 X67.158 Y58.588 E18.24806
G1 X67.566 Y58.096 E18.27395
G1 X67.976 Y57.581 E18.30060
G1 X68.371 Y57.064 E18.32695
G1 X68.753 Y56.538 E18.35327
G1 X69.119 Y56.013 E18.37919
G1 X69.485 Y55.464 E18.40590
G1 X69.833 Y54.915 E18.43223
G1 X70.164 Y54.368 E18.45811
G1 X70.490 Y53.806 E18.48442
G1 X70.808 Y53.230 E18.51107
G1 X71.110 Y52.652 E18.53747
G1 X71.394 Y52.079 E18.56337
G1 X71.672 Y51.492 E18.58967
G1 X71.940 Y50.891 E18.61632
G1 X72.192 Y50.292 E18.64263
G1 X72.428 Y49.697 E18.66855
G1 X72.657 Y49.079 E18.69524
G1 X72.872 Y48.465 E18.72158
G1 X73.072 Y47.847 E18.74788
G1 X73.258 Y47.235 E18.77379
G1 X73.435 Y46.600 E18.80048
G1 X73.597 Y45.970 E18.82682
G1 X73.743 Y45.347 E18.85273
G1 X73.878 Y44.712 E18.87902
G1 X74.001 Y44.065 E18.90569
G1 X74.108 Y43.434 E18.93160
G1 X74.204 Y42.781 E18.95833
G1 X74.284 Y42.148 E18.98417
G1 X74.380 Y41.179 E19.02360
G1 X74.447 Y40.203 E19.06321
G1 X74.474 Y39.555 E19.08947
G1 X74.487 Y38.909 E19.11564
G1 X74.489 Y38.570 E19.12936
G1 X74.482 Y37.922 E19.15561
G1 X74.462 Y37.281 E19.18157
G1 X74.426 Y36.623 E19.20826
G1 X74.380 Y35.985 E19.23416
G1 X74.318 Y35.339 E19.26044
G1 X74.244 Y34.693 E19.28677
G1 X74.155 Y34.049 E19.31309
G1 X74.052 Y33.407 E19.33942
G1 X73.936 Y32.769 E19.36568
G1 X73.807 Y32.132 E19.39200
G1 X73.665 Y31.498 E19.41831
G1 X73.509 Y30.867 E19.44463
G1 X73.341 Y30.240 E19.47091
G1 X73.159 Y29.616 E19.49723
G1 X72.964 Y28.997 E19.52351
G1 X72.756 Y28.382 E19.54980
G1 X72.535 Y27.771 E19.57611
G1 X72.302 Y27.165 E19.60240
G1 X72.055 Y26.563 E19.62875
G1 X71.811 Y26.004 E19.65345
G1 X71.653 Y25.576 E19.67193
G1 X71.546 Y25.165 E19.68912
G1 X71.485 Y24.748 E19.70619
G1 X71.467 Y24.318 E19.72362
G1 X71.491 Y23.906 E19.74033
G1 X71.561 Y23.484 E19.75765
G1 X71.672 Y23.083 E19.77450
G0 F10500 X71.923 Y23.036
G1 F1500 X71.743 Y23.716 E19.80298
G1 X71.687 Y24.368 E19.82948
G1 X71.755 Y25.074 E19.85820
G1 X71.927 Y25.697 E19.88437
G1 X72.191 Y26.267 E19.90981
G1 X72.604 Y26.852 E19.93881
G1 X73.138 Y27.369 E19.96890
G1 X73.765 Y27.774 E19.99913
G1 X74.452 Y28.048 E20.02908
G1 X75.081 Y28.176 E20.05507
G1 X75.581 Y28.201 E20.07534
G1 X76.100 Y28.159 E20.09643
G1 X76.683 Y28.024 E20.12066
G1 X77.027 Y27.895 E20.13554
G1 X77.292 Y27.772 E20.14737
G1 X77.871 Y27.404 E20.17515
G1 X78.349 Y26.969 E20.20132
G1 X78.728 Y26.485 E20.22621
G1 X78.970 Y26.059 E20.24605
G1 X79.135 Y25.680 E20.26279
G1 X79.308 Y25.024 E20.29026
G1 X79.356 Y24.629 E20.30637
G1 X79.367 Y24.334 E20.31833
G1 X79.301 Y23.650 E20.34615
G1 X79.129 Y23.027 E20.37232
G1 X78.870 Y22.469 E20.39723
G1 X78.586 Y22.041 E20.41803
G1 X78.340 Y21.747 E20.43356
G1 X77.901 Y21.343 E20.45772
G1 X77.477 Y21.055 E20.47847
G1 X76.818 Y20.744 E20.50798
G1 X76.139 Y20.573 E20.53633
G1 X75.722 Y20.529 E20.55331
G1 X75.461 Y20.524 E20.56388
G1 X74.956 Y20.565 E20.58440
G1 X74.373 Y20.700 E20.60863
G1 X74.001 Y20.839 E20.62471
G1 X73.395 Y21.169 E20.65265
G1 X72.895 Y21.568 E20.67856
G1 X72.528 Y21.963 E20.70039
G1 X72.147 Y22.544 E20.72852
G1 X71.923 Y23.036 E20.75041
G0 F10500 X72.034 Y25.657
G0 X78.313 Y44.585
G1 F1500 X77.749 Y44.816 E20.77509
G1 X77.309 Y45.076 E20.79579
G1 X76.771 Y45.523 E20.82411
G1 X76.352 Y46.018 E20.85037
G1 X76.043 Y46.537 E20.87483
G1 X75.875 Y46.925 E20.89195
G1 X75.697 Y47.596 E20.92006
G1 X75.641 Y48.247 E20.94652
G1 X75.709 Y48.955 E20.97532
G1 X75.881 Y49.577 E21.00146
G1 X76.140 Y50.136 E21.02640
G1 X76.437 Y50.584 E21.04817
G1 X76.918 Y51.102 E21.07679
G1 X77.517 Y51.543 E21.10691
G1 X78.192 Y51.860 E21.13711
G1 X78.870 Y52.032 E21.16543
G1 X79.290 Y52.076 E21.18253
G1 X79.550 Y52.081 E21.19306
G1 X80.061 Y52.040 E21.21382
G1 X80.749 Y51.869 E21.24253
G1 X81.424 Y51.556 E21.27266
G1 X82.021 Y51.122 E21.30255
G1 X82.472 Y50.653 E21.32889
G1 X82.808 Y50.158 E21.35312
G1 X82.934 Y49.919 E21.36406
G1 X83.129 Y49.446 E21.38478
G1 X83.283 Y48.777 E21.41257
G1 X83.317 Y48.385 E21.42851
G1 X83.318 Y48.202 E21.43592
G1 X83.254 Y47.531 E21.46321
G1 X83.082 Y46.908 E21.48938
G1 X82.818 Y46.338 E21.51482
G1 X82.413 Y45.765 E21.54323
G1 X82.053 Y45.394 E21.56417
G1 X81.730 Y45.130 E21.58106
G1 X81.126 Y44.773 E21.60947
G1 X80.441 Y44.525 E21.63897
G1 X79.921 Y44.428 E21.66039
G1 X79.430 Y44.404 E21.68030
G1 X78.910 Y44.446 E21.70142
G1 X78.313 Y44.585 E21.72624
G0 F10500 X76.445 Y46.084
G0 X75.754 Y48.247
G0 X66.094 Y63.605
G1 F1500 X65.418 Y63.287 E21.75649
G1 X64.740 Y63.116 E21.78481
G1 X64.321 Y63.072 E21.80187
G1 X64.061 Y63.067 E21.81240
G1 X63.557 Y63.108 E21.83287
G1 X62.974 Y63.243 E21.85711
G1 X62.602 Y63.382 E21.87319
G1 X61.995 Y63.712 E21.90116
G1 X61.495 Y64.111 E21.92707
G1 X61.129 Y64.506 E21.94887
G1 X60.746 Y65.087 E21.97705
G1 X60.527 Y65.573 E21.99864
G1 X60.358 Y66.170 E22.02376
G1 X60.288 Y66.897 E22.05334
G1 X60.339 Y67.528 E22.07897
G1 X60.518 Y68.213 E22.10764
G1 X60.789 Y68.802 E22.13389
G1 X61.129 Y69.300 E22.15831
G1 X61.409 Y69.616 E22.17541
G1 X61.949 Y70.067 E22.20390
G1 X62.599 Y70.429 E22.23402
G1 X63.287 Y70.650 E22.26329
G1 X63.697 Y70.720 E22.28013
G1 X64.181 Y70.744 E22.29975
G1 X64.701 Y70.702 E22.32088
G1 X65.284 Y70.567 E22.34511
G1 X65.656 Y70.428 E22.36119
G1 X66.262 Y70.098 E22.38913
G1 X66.769 Y69.694 E22.41538
G1 X67.204 Y69.208 E22.44179
G1 X67.570 Y68.608 E22.47025
G1 X67.776 Y68.108 E22.49215
G1 X67.930 Y67.440 E22.51991
G1 X67.965 Y67.049 E22.53580
G1 X67.966 Y66.864 E22.54330
G1 X67.902 Y66.193 E22.57059
G1 X67.727 Y65.562 E22.59711
G1 X67.433 Y64.953 E22.62449
G1 X67.328 Y64.785 E22.63251
G1 X67.164 Y64.554 E22.64398
G1 X66.693 Y64.046 E22.67204
G1 X66.094 Y63.605 E22.70216
G0 F10500 X65.772 Y64.145
;TYPE:WALL-OUTER
G1 F1500 X65.207 Y63.878 E22.72746
G1 X64.631 Y63.733 E22.75151
G1 X64.283 Y63.696 E22.76568
G1 X64.080 Y63.693 E22.77390
G1 X63.653 Y63.727 E22.79125
G1 X63.156 Y63.843 E22.81192
G1 X62.862 Y63.952 E22.82461
G1 X62.342 Y64.235 E22.84859
G1 X61.921 Y64.571 E22.87040
G1 X61.623 Y64.893 E22.88816
G1 X61.296 Y65.389 E22.91222
G1 X61.116 Y65.788 E22.92994
G1 X60.975 Y66.286 E22.95090
G1 X60.916 Y66.902 E22.97596
G1 X60.957 Y67.423 E22.99712
G1 X61.109 Y68.001 E23.02132
G1 X61.334 Y68.493 E23.04323
G1 X61.623 Y68.915 E23.06394
G1 X61.846 Y69.167 E23.07757
G1 X62.304 Y69.549 E23.10172
G1 X62.849 Y69.853 E23.12699
G1 X63.436 Y70.042 E23.15196
G1 X63.765 Y70.098 E23.16547
G1 X64.172 Y70.118 E23.18197
G1 X64.605 Y70.083 E23.19957
G1 X65.102 Y69.967 E23.22023
G1 X65.396 Y69.858 E23.23293
G1 X65.915 Y69.575 E23.25687
G1 X66.338 Y69.238 E23.27877
G1 X66.700 Y68.833 E23.30076
G1 X67.011 Y68.325 E23.32488
G1 X67.178 Y67.918 E23.34270
G1 X67.311 Y67.342 E23.36663
G1 X67.340 Y67.017 E23.37985
G1 X67.341 Y66.891 E23.38495
G1 X67.285 Y66.307 E23.40870
G1 X67.140 Y65.784 E23.43068
G1 X66.885 Y65.255 E23.45446
G1 X66.678 Y64.949 E23.46942
G1 X66.275 Y64.514 E23.49343
G1 X65.772 Y64.145 E23.51869
G0 F10500 X65.948 Y63.773
G0 X63.826 Y61.678
G0 X63.562 Y61.361
G1 F1500 X64.036 Y60.936 E23.54447
G1 X64.500 Y60.502 E23.57020
G1 X64.956 Y60.057 E23.59600
G1 X65.395 Y59.609 E23.62140
G1 X65.838 Y59.139 E23.64755
G1 X66.265 Y58.667 E23.67333
G1 X66.681 Y58.185 E23.69911
G1 X67.081 Y57.702 E23.72450
G1 X67.483 Y57.197 E23.75064
G1 X67.869 Y56.690 E23.77644
G1 X68.244 Y56.175 E23.80224
G1 X68.603 Y55.661 E23.82763
G1 X68.961 Y55.123 E23.85380
G1 X69.302 Y54.585 E23.87959
G1 X69.626 Y54.050 E23.90492
G1 X69.946 Y53.499 E23.93072
G1 X70.258 Y52.934 E23.95685
G1 X70.553 Y52.369 E23.98266
G1 X70.832 Y51.807 E24.00807
G1 X71.104 Y51.231 E24.03386
G1 X71.366 Y50.642 E24.05997
G1 X71.614 Y50.055 E24.08577
G1 X71.844 Y49.473 E24.11111
G1 X72.070 Y48.867 E24.13730
G1 X72.280 Y48.266 E24.16308
G1 X72.476 Y47.660 E24.18887
G1 X72.658 Y47.060 E24.21426
G1 X72.831 Y46.438 E24.24040
G1 X72.990 Y45.821 E24.26620
G1 X73.133 Y45.211 E24.29157
G1 X73.265 Y44.589 E24.31732
G1 X73.386 Y43.954 E24.34350
G1 X73.490 Y43.336 E24.36887
G1 X73.585 Y42.696 E24.39507
G1 X73.663 Y42.075 E24.42042
G1 X73.758 Y41.125 E24.45908
G1 X73.823 Y40.171 E24.49780
G1 X73.849 Y39.536 E24.52353
G1 X73.862 Y38.900 E24.54929
G1 X73.864 Y38.571 E24.56262
G1 X73.857 Y37.935 E24.58837
G1 X73.838 Y37.308 E24.61377
G1 X73.802 Y36.663 E24.63993
G1 X73.757 Y36.038 E24.66530
G1 X73.696 Y35.404 E24.69110
G1 X73.624 Y34.772 E24.71685
G1 X73.537 Y34.141 E24.74265
G1 X73.436 Y33.513 E24.76840
G1 X73.322 Y32.886 E24.79421
G1 X73.196 Y32.263 E24.81995
G1 X73.057 Y31.641 E24.84575
G1 X72.904 Y31.023 E24.87153
G1 X72.739 Y30.409 E24.89728
G1 X72.561 Y29.797 E24.92309
G1 X72.370 Y29.191 E24.94882
G1 X72.166 Y28.588 E24.97459
G1 X71.949 Y27.989 E25.00039
G1 X71.721 Y27.396 E25.02612
G1 X71.479 Y26.807 E25.05190
G1 X71.231 Y26.235 E25.07715
G1 X71.055 Y25.760 E25.09766
G1 X70.934 Y25.295 E25.11712
G1 X70.862 Y24.807 E25.13709
G1 X70.841 Y24.313 E25.15711
G1 X70.869 Y23.839 E25.17634
G1 X70.950 Y23.352 E25.19633
G1 X71.081 Y22.876 E25.21632
G1 X71.258 Y22.428 E25.23583
G1 X71.481 Y21.996 E25.25552
G1 X71.750 Y21.586 E25.27537
G1 X71.983 Y21.294 E25.29050
G1 X72.319 Y20.945 E25.31012
G1 X72.690 Y20.632 E25.32977
G1 X73.086 Y20.361 E25.34920
G1 X73.527 Y20.123 E25.36950
G1 X74.218 Y19.861 E25.39942
G1 X74.323 Y19.831 E25.40384
G1 X74.809 Y19.730 E25.42394
G1 X75.158 Y19.689 E25.43817
G1 X75.533 Y19.675 E25.45337
G1 X76.036 Y19.702 E25.47376
G1 X76.379 Y19.751 E25.48779
G1 X91.508 Y23.790 E26.12187
G1 X77.683 Y75.390 E28.28503
G1 X63.147 Y71.496 E28.89439
G1 X62.681 Y71.364 E28.91400
G1 X62.225 Y71.188 E28.93380
G1 X61.796 Y70.971 E28.95326
G1 X61.380 Y70.702 E28.97332
G1 X60.998 Y70.394 E28.99319
G1 X60.656 Y70.054 E29.01272
G1 X60.346 Y69.673 E29.03261
G1 X60.077 Y69.263 E29.05247
G1 X59.858 Y68.836 E29.07190
G1 X59.673 Y68.362 E29.09250
G1 X59.577 Y68.028 E29.10658
G1 X59.459 Y67.311 E29.13600
G1 X59.442 Y66.937 E29.15116
G1 X59.492 Y66.212 E29.18059
G1 X59.591 Y65.725 E29.20071
G1 X59.737 Y65.266 E29.22022
G1 X59.928 Y64.823 E29.23975
G1 X60.175 Y64.386 E29.26008
G1 X60.456 Y63.993 E29.27964
G1 X60.780 Y63.625 E29.29949
G1 X61.132 Y63.300 E29.31889
G1 X62.089 Y62.576 E29.36749
G1 X62.589 Y62.182 E29.39326
G1 X63.073 Y61.783 E29.41866
G1 X63.562 Y61.361 E29.44482
G0 F10500 X63.826 Y61.678
G0 X76.627 Y50.476
G0 X76.930 Y50.196
G1 F1500 X77.336 Y50.634 E29.46900
G1 X77.839 Y51.003 E29.49426
G1 X78.403 Y51.269 E29.51951
G1 X78.980 Y51.415 E29.54362
G1 X79.328 Y51.452 E29.55779
G1 X79.531 Y51.455 E29.56601
G1 X79.960 Y51.421 E29.58343
G1 X80.540 Y51.277 E29.60763
G1 X81.106 Y51.014 E29.63291
G1 X81.609 Y50.649 E29.65807
G1 X81.984 Y50.258 E29.68001
G1 X82.271 Y49.836 E29.70068
G1 X82.367 Y49.653 E29.70904
G1 X82.531 Y49.255 E29.72647
G1 X82.664 Y48.680 E29.75037
G1 X82.692 Y48.355 E29.76358
G1 X82.693 Y48.229 E29.76868
G1 X82.637 Y47.645 E29.79244
G1 X82.493 Y47.124 E29.81433
G1 X82.274 Y46.652 E29.83540
G1 X81.931 Y46.165 E29.85952
G1 X81.629 Y45.855 E29.87704
G1 X81.371 Y45.644 E29.89054
G1 X80.859 Y45.341 E29.91463
G1 X80.276 Y45.130 E29.93974
G1 X79.848 Y45.050 E29.95737
G1 X79.439 Y45.030 E29.97395
G1 X79.006 Y45.065 E29.99154
G1 X78.504 Y45.182 E30.01241
G1 X78.029 Y45.377 E30.03321
G1 X77.670 Y45.589 E30.05009
G1 X77.212 Y45.969 E30.07419
G1 X76.863 Y46.382 E30.09608
G1 X76.601 Y46.823 E30.11685
G1 X76.467 Y47.131 E30.13045
G1 X76.315 Y47.704 E30.15446
G1 X76.269 Y48.244 E30.17640
G1 X76.326 Y48.841 E30.20069
G1 X76.470 Y49.361 E30.22254
G1 X76.687 Y49.830 E30.24346
G1 X76.930 Y50.196 E30.26125
G0 F10500 X76.627 Y50.476
G0 X75.821 Y48.934
G0 X76.143 Y46.590
G0 X75.553 Y27.987
G0 X75.572 Y27.575
G1 F1500 X76.004 Y27.540 E30.27880
G1 X76.501 Y27.424 E30.29947
G1 X76.785 Y27.318 E30.31175
G1 X76.992 Y27.222 E30.32098
G1 X77.490 Y26.906 E30.34487
G1 X77.890 Y26.542 E30.36677
G1 X78.208 Y26.135 E30.38768
G1 X78.411 Y25.780 E30.40424
G1 X78.543 Y25.474 E30.41774
G1 X78.693 Y24.906 E30.44153
G1 X78.732 Y24.580 E30.45482
G1 X78.741 Y24.353 E30.46402
G1 X78.684 Y23.764 E30.48798
G1 X78.540 Y23.243 E30.50987
G1 X78.323 Y22.775 E30.53076
G1 X78.084 Y22.416 E30.54822
G1 X77.886 Y22.179 E30.56073
G1 X77.511 Y21.834 E30.58136
G1 X77.166 Y21.599 E30.59826
G1 X76.607 Y21.335 E30.62330
G1 X76.030 Y21.190 E30.64739
G1 X75.683 Y21.153 E30.66152
G1 X75.480 Y21.150 E30.66974
G1 X75.052 Y21.184 E30.68713
G1 X74.555 Y21.300 E30.70779
G1 X74.261 Y21.409 E30.72049
G1 X73.742 Y21.692 E30.74443
G1 X73.321 Y22.028 E30.76624
G1 X73.022 Y22.350 E30.78403
G1 X72.696 Y22.846 E30.80807
G1 X72.514 Y23.247 E30.82590
G1 X72.361 Y23.823 E30.85003
G1 X72.315 Y24.365 E30.87206
G1 X72.372 Y24.960 E30.89626
G1 X72.516 Y25.481 E30.91815
G1 X72.735 Y25.953 E30.93922
G1 X73.081 Y26.444 E30.96354
G1 X73.529 Y26.877 E30.98877
G1 X74.053 Y27.217 E31.01407
G1 X74.631 Y27.447 E31.03926
G1 X75.159 Y27.554 E31.06107
G1 X75.572 Y27.575 E31.07782
G0 F10500 X75.698 Y28.411
;TYPE:SKIN
G1 F1500 X86.501 Y39.214 E31.69646
G0 F10500 X86.314 Y39.911
G1 F1500 X74.731 Y28.328 E32.35978
G0 F10500 X73.169 Y27.650
G1 F1500 X86.127 Y40.608 E33.10183
G0 F10500 X85.941 Y41.305
G1 F1500 X72.972 Y28.336 E33.84452
G0 F10500 X73.395 Y29.644
G1 F1500 X85.754 Y42.002 E34.55224
G0 F10500 X85.567 Y42.700
G1 F1500 X73.732 Y30.865 E35.22999
G0 F10500 X74.006 Y32.022
G1 F1500 X85.380 Y43.396 E35.88133
G0 F10500 X85.193 Y44.093
G1 F1500 X74.222 Y33.123 E36.50957
G0 F10500 X74.393 Y34.177
G1 F1500 X85.006 Y44.790 E37.11734
G0 F10500 X84.820 Y45.488
G1 F1500 X74.520 Y35.188 E37.70718
G0 F10500 X74.611 Y36.162
G1 F1500 X84.633 Y46.185 E38.28113
G0 F10500 X84.446 Y46.882
G1 F1500 X74.671 Y37.106 E38.84094
G0 F10500 X74.700 Y38.020
G1 F1500 X81.304 Y44.624 E39.21912
G0 F10500 X80.019 Y44.223
G1 F1500 X74.705 Y38.908 E39.52346
G0 F10500 X74.683 Y39.770
G1 F1500 X79.121 Y44.209 E39.77764
G0 F10500 X78.375 Y44.346
G1 F1500 X74.637 Y40.608 E39.99170
G0 F10500 X74.573 Y41.428
G1 F1500 X77.730 Y44.585 E40.17249
G0 F10500 X77.167 Y44.906
G1 F1500 X74.493 Y42.232 E40.32562
G0 F10500 X74.390 Y43.013
G1 F1500 X76.685 Y45.308 E40.45705
G0 F10500 X76.269 Y45.775
G1 F1500 X74.270 Y43.776 E40.57152
G0 F10500 X74.135 Y44.526
G1 F1500 X75.921 Y46.311 E40.67377
G0 F10500 X75.648 Y46.922
G1 F1500 X73.984 Y45.259 E40.76903
G0 F10500 X73.819 Y45.977
G1 F1500 X75.473 Y47.632 E40.86378
G0 F10500 X75.444 Y48.486
G1 F1500 X73.638 Y46.680 E40.96720
G0 F10500 X73.445 Y47.371
G1 F1500 X75.654 Y49.580 E41.09370
G0 F10500 X73.017 Y48.711
G1 F1500 X81.645 Y57.339 E41.58780
G0 F10500 X81.458 Y58.036
G1 F1500 X72.785 Y49.363 E42.08447
G0 F10500 X72.541 Y50.003
G1 F1500 X81.271 Y58.732 E42.58437
G0 F10500 X81.084 Y59.430
G1 F1500 X72.285 Y50.630 E43.08828
G0 F10500 X72.019 Y51.248
G1 F1500 X80.897 Y60.127 E43.59672
G0 F10500 X80.711 Y60.824
G1 F1500 X71.741 Y51.854 E44.11040
G0 F10500 X71.453 Y52.450
G1 F1500 X80.524 Y61.521 E44.62986
G0 F10500 X80.337 Y62.219
G1 F1500 X71.155 Y53.036 E45.15571
G0 F10500 X70.847 Y53.612
G1 F1500 X80.151 Y62.916 E45.68851
G0 F10500 X79.964 Y63.613
G1 F1500 X70.526 Y54.175 E46.22899
G0 F10500 X70.198 Y54.730
G1 F1500 X79.777 Y64.309 E46.77755
G0 F10500 X79.590 Y65.007
G1 F1500 X69.860 Y55.277 E47.33475
G0 F10500 X69.513 Y55.814
G1 F1500 X79.403 Y65.704 E47.90111
G0 F10500 X79.217 Y66.401
G1 F1500 X69.156 Y56.340 E48.47726
G0 F10500 X68.789 Y56.857
G1 F1500 X79.030 Y67.098 E49.06373
G0 F10500 X78.843 Y67.795
G1 F1500 X68.413 Y57.366 E49.66098
G0 F10500 X68.028 Y57.864
G1 F1500 X78.657 Y68.493 E50.26967
G0 F10500 X78.469 Y69.189
G1 F1500 X67.634 Y58.354 E50.89015
G0 F10500 X67.232 Y58.836
G1 F1500 X78.283 Y69.886 E51.52297
G0 F10500 X78.096 Y70.584
G1 F1500 X66.820 Y59.308 E52.16870
G0 F10500 X66.399 Y59.771
G1 F1500 X77.909 Y71.281 E52.82783
G0 F10500 X77.723 Y71.978
G1 F1500 X65.970 Y60.226 E53.50086
G0 F10500 X65.533 Y60.672
G1 F1500 X77.536 Y72.675 E54.18822
G0 F10500 X77.349 Y73.372
G1 F1500 X65.087 Y61.110 E54.89042
G0 F10500 X64.630 Y61.537
G1 F1500 X77.163 Y74.070 E55.60814
G0 F10500 X76.376 Y74.167
G1 F1500 X68.022 Y65.813 E56.08654
G0 F10500 X68.184 Y66.859
G1 F1500 X75.168 Y73.843 E56.48649
G0 F10500 X73.960 Y73.519
G1 F1500 X68.102 Y67.661 E56.82195
G0 F10500 X67.911 Y68.353
G1 F1500 X72.752 Y73.195 E57.09921
G0 F10500 X71.545 Y72.871
G1 F1500 X67.619 Y68.946 E57.32400
G0 F10500 X67.260 Y69.471
G1 F1500 X70.337 Y72.547 E57.50018
G0 F10500 X69.130 Y72.224
G1 F1500 X66.830 Y69.924 E57.63190
G0 F10500 X66.330 Y70.309
G1 F1500 X67.922 Y71.900 E57.72303
G0 F10500 X66.714 Y71.576
G1 F1500 X65.758 Y70.620 E57.77778
G0 F10500 X65.507 Y71.253
G1 F1500 X65.090 Y70.836 E57.80166
G0 F10500 X67.113 Y69.140
G0 X67.853 Y66.869
G0 X67.076 Y64.625
G0 X65.219 Y63.010
G1 F1500 X64.164 Y61.955 E57.86208
G0 F10500 X63.690 Y62.365
G1 F1500 X63.770 Y62.887 E57.88976
G1 X63.207 Y62.766 E57.91308
G0 F10500 X69.027 Y55.949
G0 X72.089 Y50.248
G0 X73.237 Y48.047
G1 F1500 X81.832 Y56.642 E58.40528
G0 F10500 X82.018 Y55.944
G1 F1500 X78.149 Y52.075 E58.62684
G0 F10500 X79.250 Y52.292
G1 F1500 X82.205 Y55.247 E58.79606
G0 F10500 X82.392 Y54.550
G1 F1500 X80.098 Y52.256 E58.92743
G0 F10500 X80.806 Y52.081
G1 F1500 X82.578 Y53.853 E59.02891
G0 F10500 X82.766 Y53.156
G1 F1500 X81.412 Y51.803 E59.10642
G0 F10500 X81.942 Y51.449
G1 F1500 X82.952 Y52.459 E59.16426
G0 F10500 X83.139 Y51.762
G1 F1500 X82.608 Y50.789 E59.20605
G1 X83.419 Y50.716 E59.23570
G1 X83.419 Y49.832 E59.25701
G1 X83.630 Y49.159 E59.27556
G1 X83.795 Y48.440 E59.29664
G1 X83.488 Y47.691 E59.32942
G0 F10500 X84.260 Y47.579
G1 F1500 X83.093 Y46.413 E59.39622
G0 F10500 X86.687 Y38.516
G1 F1500 X76.469 Y28.298 E59.98136
G0 F10500 X77.139 Y28.084
G1 F1500 X86.875 Y37.820 E60.53891
G0 F10500 X87.061 Y37.123
G1 F1500 X77.706 Y27.767 E61.07466
G0 F10500 X78.211 Y27.389
G1 F1500 X87.248 Y36.425 E61.59215
G0 F10500 X87.435 Y35.728
G1 F1500 X78.647 Y26.941 E62.09537
G0 F10500 X79.013 Y26.423
G1 F1500 X87.621 Y35.031 E62.58832
G0 F10500 X87.808 Y34.334
G1 F1500 X79.306 Y25.832 E63.07520
G0 F10500 X79.502 Y25.144
G1 F1500 X87.995 Y33.637 E63.56156
G0 F10500 X88.181 Y32.939
G1 F1500 X79.585 Y24.343 E64.05382
G0 F10500 X79.432 Y23.306
G1 F1500 X88.369 Y32.243 E64.56561
G0 F10500 X88.555 Y31.546
G1 F1500 X78.133 Y21.124 E65.16244
G0 F10500 X79.283 Y21.389
G1 F1500 X88.742 Y30.848 E65.70412
G0 F10500 X88.929 Y30.151
G1 F1500 X80.490 Y21.713 E66.18736
G0 F10500 X81.697 Y22.036
G1 F1500 X89.115 Y29.454 E66.61216
G0 F10500 X89.302 Y28.757
G1 F1500 X82.904 Y22.359 E66.97855
G0 F10500 X84.111 Y22.682
G1 F1500 X89.489 Y28.060 E67.28653
G0 F10500 X89.676 Y27.363
G1 F1500 X85.318 Y23.005 E67.53609
G0 F10500 X86.525 Y23.328
G1 F1500 X89.863 Y26.666 E67.72725
G0 F10500 X90.050 Y25.969
G1 F1500 X87.733 Y23.652 E67.85993
G0 F10500 X88.940 Y23.975
G1 F1500 X90.236 Y25.271 E67.93415
G0 F10500 X90.423 Y24.574
G1 F1500 X90.147 Y24.299 E67.94993
G1 F420 E65.94993
G1 Z0.525
G0 F10500 X97.297 Y25.787
;TYPE:WALL-INNER
G1 Z0.425
G1 F420 E67.94993
G1 F1500 X111.230 Y29.521 E68.53403
G1 X111.656 Y29.642 E68.55196
G1 X112.058 Y29.796 E68.56939
G1 X112.437 Y29.988 E68.58660
G1 X112.786 Y30.214 E68.60343
G1 X113.121 Y30.483 E68.62083
G1 X113.414 Y30.775 E68.63758
G1 X113.686 Y31.109 E68.65502
G1 X113.925 Y31.473 E68.67266
G1 X114.066 Y31.739 E68.68485
G1 X114.233 Y32.137 E68.70233
G1 X114.375 Y32.626 E68.72295
G1 X114.434 Y32.954 E68.73644
G1 X114.471 Y33.476 E68.75763
G1 X114.428 Y34.099 E68.78292
G1 X114.344 Y34.518 E68.80022
G1 X114.216 Y34.921 E68.81734
G1 X114.044 Y35.318 E68.83486
G1 X113.837 Y35.684 E68.85189
G1 X113.592 Y36.030 E68.86906
G1 X113.310 Y36.349 E68.88630
G1 X113.000 Y36.635 E68.90338
G1 X112.585 Y36.949 E68.92445
G1 X112.066 Y37.341 E68.95079
G1 X111.557 Y37.744 E68.97708
G1 X111.062 Y38.151 E69.00303
G1 X110.563 Y38.581 E69.02970
G1 X110.079 Y39.015 E69.05603
G1 X109.604 Y39.459 E69.08235
G1 X109.140 Y39.914 E69.10867
G1 X108.692 Y40.369 E69.13453
G1 X108.239 Y40.850 E69.16128
G1 X107.804 Y41.332 E69.18757
G1 X107.379 Y41.824 E69.21390
G1 X106.971 Y42.316 E69.23978
G1 X106.560 Y42.832 E69.26649
G1 X106.167 Y43.349 E69.29279
G1 X105.785 Y43.874 E69.31908
G1 X105.419 Y44.399 E69.34500
G1 X105.053 Y44.948 E69.37171
G1 X104.705 Y45.496 E69.39800
G1 X104.373 Y46.044 E69.42395
G1 X104.048 Y46.606 E69.45023
G1 X103.730 Y47.183 E69.47691
G1 X103.428 Y47.759 E69.50325
G1 X103.143 Y48.333 E69.52920
G1 X102.866 Y48.920 E69.55548
G1 X102.597 Y49.521 E69.58214
G1 X102.345 Y50.121 E69.60850
G1 X102.110 Y50.716 E69.63440
G1 X101.880 Y51.333 E69.66107
G1 X101.666 Y51.947 E69.68739
G1 X101.465 Y52.565 E69.71371
G1 X101.280 Y53.177 E69.73960
G1 X101.102 Y53.812 E69.76630
G1 X100.941 Y54.442 E69.79263
G1 X100.795 Y55.064 E69.81851
G1 X100.659 Y55.701 E69.84488
G1 X100.536 Y56.347 E69.87151
G1 X100.429 Y56.979 E69.89747
G1 X100.332 Y57.632 E69.92420
G1 X100.255 Y58.263 E69.94994
G1 X100.156 Y59.236 E69.98954
G1 X100.108 Y59.893 E70.01622
G1 X100.076 Y60.533 E70.04217
G1 X100.054 Y61.191 E70.06883
G1 X100.049 Y61.832 E70.09478
G1 X100.055 Y62.489 E70.12139
G1 X100.076 Y63.131 E70.14740
G1 X100.111 Y63.789 E70.17408
G1 X100.158 Y64.427 E70.19998
G1 X100.220 Y65.073 E70.22626
G1 X100.294 Y65.719 E70.25259
G1 X100.383 Y66.363 E70.27892
G1 X100.485 Y67.004 E70.30520
G1 X100.601 Y67.644 E70.33154
G1 X100.731 Y68.281 E70.35787
G1 X100.873 Y68.913 E70.38410
G1 X101.028 Y69.545 E70.41045
G1 X101.197 Y70.173 E70.43678
G1 X101.379 Y70.796 E70.46306
G1 X101.574 Y71.416 E70.48938
G1 X101.782 Y72.030 E70.51563
G1 X102.002 Y72.641 E70.54193
G1 X102.236 Y73.249 E70.56831
G1 X102.483 Y73.848 E70.59454
G1 X102.731 Y74.421 E70.61983
G1 X102.886 Y74.838 E70.63784
G1 X102.992 Y75.251 E70.65511
G1 X103.062 Y75.773 E70.67643
G1 X103.071 Y76.092 E70.68936
G1 X103.046 Y76.506 E70.70615
G1 X102.976 Y76.928 E70.72347
G1 X102.864 Y77.333 E70.74049
G1 X102.710 Y77.726 E70.75758
G1 X102.516 Y78.099 E70.77461
G1 X102.284 Y78.454 E70.79178
G1 X102.015 Y78.782 E70.80896
G1 X101.718 Y79.074 E70.82582
G1 X101.374 Y79.351 E70.84371
G1 X101.036 Y79.570 E70.86001
G1 X100.647 Y79.766 E70.87765
G1 X100.162 Y79.945 E70.89859
G1 X99.629 Y80.064 E70.92070
G1 X99.328 Y80.099 E70.93297
G1 X99.014 Y80.111 E70.94570
G1 X98.355 Y80.059 E70.97246
G1 X98.276 Y80.046 E70.97571
G1 X83.794 Y76.179 E71.58268
G1 X97.297 Y25.787 E73.69520
G0 F10500 X107.078 Y31.596
G1 F1500 X106.898 Y31.953 E73.71139
G1 X106.678 Y32.601 E73.73910
G1 X106.587 Y33.137 E73.76112
G1 X106.570 Y33.525 E73.77684
G1 X106.619 Y34.131 E73.80146
G1 X106.798 Y34.815 E73.83009
G1 X107.068 Y35.404 E73.85633
G1 X107.410 Y35.903 E73.88083
G1 X107.685 Y36.214 E73.89764
G1 X108.150 Y36.614 E73.92248
G1 X108.764 Y36.977 E73.95136
G1 X109.450 Y37.225 E73.98090
G1 X109.970 Y37.322 E74.00232
G1 X110.461 Y37.346 E74.02222
G1 X110.981 Y37.304 E74.04335
G1 X111.578 Y37.165 E74.06817
G1 X112.149 Y36.931 E74.09316
G1 X112.682 Y36.604 E74.11848
G1 X113.210 Y36.134 E74.14710
G1 X113.608 Y35.632 E74.17304
G1 X113.856 Y35.197 E74.19332
G1 X114.056 Y34.710 E74.21464
G1 X114.212 Y34.035 E74.24269
G1 X114.249 Y33.495 E74.26461
G1 X114.182 Y32.795 E74.29308
G1 X114.007 Y32.166 E74.31952
G1 X113.713 Y31.555 E74.34698
G1 X113.453 Y31.168 E74.36586
G1 X113.141 Y30.809 E74.38512
G1 X112.775 Y30.484 E74.40494
G1 X112.357 Y30.199 E74.42542
G1 X111.698 Y29.890 E74.45490
G1 X111.021 Y29.718 E74.48318
G1 X110.608 Y29.675 E74.50000
G1 X110.430 Y29.669 E74.50721
G1 X109.836 Y29.709 E74.53131
G1 X109.141 Y29.881 E74.56031
G1 X108.473 Y30.191 E74.59013
G1 X107.936 Y30.568 E74.61670
G1 X107.438 Y31.074 E74.64544
G1 X107.078 Y31.596 E74.67112
G0 F10500 X97.197 Y48.983
G1 F1500 X96.583 Y48.644 E74.69952
G1 X95.889 Y48.422 E74.72903
G1 X95.374 Y48.343 E74.75012
G1 X95.013 Y48.332 E74.76475
G1 X94.944 Y48.335 E74.76755
G1 X94.874 Y48.332 E74.77038
G1 X94.161 Y48.434 E74.79955
G1 X93.457 Y48.677 E74.82971
G1 X92.819 Y49.048 E74.85959
G1 X92.322 Y49.470 E74.88599
G1 X91.934 Y49.936 E74.91055
G1 X91.723 Y50.265 E74.92637
G1 X91.602 Y50.494 E74.93686
G1 X91.408 Y50.967 E74.95756
G1 X91.254 Y51.633 E74.98524
G1 X91.219 Y52.025 E75.00118
G1 X91.218 Y52.210 E75.00867
G1 X91.282 Y52.881 E75.03597
G1 X91.455 Y53.505 E75.06219
G1 X91.720 Y54.074 E75.08760
G1 X92.126 Y54.652 E75.11621
G1 X92.575 Y55.101 E75.14192
G1 X92.916 Y55.357 E75.15919
G1 X93.529 Y55.693 E75.18749
G1 X94.222 Y55.917 E75.21698
G1 X94.736 Y55.995 E75.23804
G1 X95.116 Y56.007 E75.25343
G1 X95.627 Y55.966 E75.27419
G1 X96.216 Y55.829 E75.29868
G1 X96.686 Y55.646 E75.31910
G1 X97.222 Y55.341 E75.34407
G1 X97.772 Y54.885 E75.37300
G1 X98.244 Y54.309 E75.40316
G1 X98.595 Y53.660 E75.43303
G1 X98.794 Y53.048 E75.45909
G1 X98.874 Y52.559 E75.47916
G1 X98.894 Y52.154 E75.49558
G1 X98.845 Y51.546 E75.52028
G1 X98.667 Y50.862 E75.54890
G1 X98.393 Y50.267 E75.57542
G1 X97.985 Y49.686 E75.60417
G1 X97.535 Y49.238 E75.62988
G1 X97.197 Y48.983 E75.64703
G0 F10500 X98.560 Y50.901
G0 X98.684 Y53.021
G0 X98.942 Y72.212
G1 F1500 X98.437 Y72.253 E75.66755
G1 X97.854 Y72.388 E75.69178
G1 X97.482 Y72.527 E75.70786
G1 X96.876 Y72.857 E75.73580
G1 X96.376 Y73.256 E75.76170
G1 X96.020 Y73.640 E75.78291
G1 X95.732 Y74.050 E75.80320
G1 X95.453 Y74.599 E75.82813
G1 X95.251 Y75.263 E75.85624
G1 X95.188 Y75.688 E75.87363
G1 X95.170 Y76.074 E75.88928
G1 X95.236 Y76.762 E75.91727
G1 X95.411 Y77.393 E75.94378
G1 X95.713 Y78.018 E75.97189
G1 X95.959 Y78.381 E75.98965
G1 X96.287 Y78.758 E76.00988
G1 X96.830 Y79.212 E76.03855
G1 X97.481 Y79.573 E76.06869
G1 X98.168 Y79.794 E76.09791
G1 X98.578 Y79.864 E76.11475
G1 X99.062 Y79.888 E76.13438
G1 X99.581 Y79.846 E76.15546
G1 X100.184 Y79.706 E76.18053
G1 X100.821 Y79.434 E76.20858
G1 X101.175 Y79.219 E76.22535
G1 X101.586 Y78.898 E76.24646
G1 X102.065 Y78.377 E76.27512
G1 X102.449 Y77.756 E76.30469
G1 X102.651 Y77.268 E76.32607
G1 X102.774 Y76.800 E76.34567
G1 X102.829 Y76.432 E76.36074
G1 X102.848 Y76.035 E76.37683
G1 X102.800 Y75.433 E76.40128
G1 X102.650 Y74.826 E76.42660
G1 X102.392 Y74.244 E76.45238
G1 X102.344 Y74.143 E76.45691
G1 X101.938 Y73.566 E76.48548
G1 X101.478 Y73.108 E76.51176
G1 X100.967 Y72.747 E76.53710
G1 X100.299 Y72.431 E76.56702
G1 X99.620 Y72.261 E76.59537
G1 X99.203 Y72.217 E76.61235
G1 X98.942 Y72.212 E76.62292
G0 F10500 X98.961 Y72.838
;TYPE:WALL-OUTER
G1 F1500 X98.533 Y72.872 E76.64030
G1 X98.036 Y72.988 E76.66097
G1 X97.742 Y73.097 E76.67367
G1 X97.223 Y73.380 E76.69760
G1 X96.802 Y73.716 E76.71941
G1 X96.507 Y74.034 E76.73698
G1 X96.269 Y74.373 E76.75375
G1 X96.035 Y74.833 E76.77465
G1 X95.863 Y75.400 E76.79864
G1 X95.811 Y75.749 E76.81293
G1 X95.796 Y76.059 E76.82550
G1 X95.853 Y76.648 E76.84946
G1 X95.998 Y77.171 E76.87144
G1 X96.256 Y77.705 E76.89545
G1 X96.455 Y78.000 E76.90986
G1 X96.726 Y78.310 E76.92653
G1 X97.185 Y78.694 E76.95077
G1 X97.730 Y78.997 E76.97602
G1 X98.317 Y79.186 E77.00099
G1 X98.646 Y79.242 E77.01450
G1 X99.053 Y79.262 E77.03100
G1 X99.485 Y79.227 E77.04855
G1 X99.989 Y79.110 E77.06951
G1 X100.534 Y78.877 E77.09351
G1 X100.819 Y78.704 E77.10701
G1 X101.160 Y78.437 E77.12454
G1 X101.565 Y77.997 E77.14876
G1 X101.891 Y77.471 E77.17382
G1 X102.057 Y77.068 E77.19147
G1 X102.161 Y76.674 E77.20797
G1 X102.206 Y76.371 E77.22037
G1 X102.222 Y76.045 E77.23359
G1 X102.181 Y75.534 E77.25435
G1 X102.056 Y75.030 E77.27538
G1 X101.824 Y74.505 E77.29862
G1 X101.458 Y73.970 E77.32487
G1 X101.075 Y73.588 E77.34677
G1 X100.651 Y73.289 E77.36778
G1 X100.088 Y73.023 E77.39299
G1 X99.511 Y72.878 E77.41708
G1 X99.164 Y72.841 E77.43121
G1 X98.961 Y72.838 E77.43944
G0 F10500 X98.968 Y72.426
G0 X101.986 Y71.969
G0 X102.372 Y71.824
G1 F1500 X102.588 Y72.423 E77.46522
G1 X102.817 Y73.017 E77.49100
G1 X103.059 Y73.605 E77.51675
G1 X103.305 Y74.172 E77.54177
G1 X103.481 Y74.646 E77.56225
G1 X103.647 Y75.362 E77.59201
G1 X103.686 Y75.726 E77.60683
G1 X103.697 Y76.099 E77.62195
G1 X103.668 Y76.573 E77.64117
G1 X103.587 Y77.060 E77.66117
G1 X103.456 Y77.536 E77.68116
G1 X103.282 Y77.979 E77.70043
G1 X103.053 Y78.419 E77.72052
G1 X102.786 Y78.827 E77.74026
G1 X102.478 Y79.203 E77.75994
G1 X102.128 Y79.548 E77.77984
G1 X101.755 Y79.847 E77.79920
G1 X101.338 Y80.118 E77.81934
G1 X100.903 Y80.337 E77.83906
G1 X100.324 Y80.548 E77.86401
G1 X99.607 Y80.699 E77.89368
G1 X99.381 Y80.722 E77.90288
G1 X99.004 Y80.736 E77.91816
G1 X98.502 Y80.709 E77.93852
G1 X97.915 Y80.608 E77.96264
G1 X83.029 Y76.621 E78.58666
G1 X96.854 Y25.022 E80.74978
G1 X111.387 Y28.916 E81.35902
G1 X111.860 Y29.050 E81.37893
G1 X112.310 Y29.222 E81.39844
G1 X112.747 Y29.444 E81.41829
G1 X113.154 Y29.707 E81.43791
G1 X113.539 Y30.018 E81.45795
G1 X113.881 Y30.358 E81.47748
G1 X114.191 Y30.739 E81.49737
G1 X114.463 Y31.154 E81.51746
G1 X114.625 Y31.458 E81.53141
G1 X114.825 Y31.935 E81.55235
G1 X114.987 Y32.501 E81.57619
G1 X115.079 Y33.096 E81.60057
G1 X115.096 Y33.476 E81.61598
G1 X115.045 Y34.200 E81.64537
G1 X114.951 Y34.667 E81.66466
G1 X114.797 Y35.155 E81.68538
G1 X114.609 Y35.588 E81.70449
G1 X114.362 Y36.026 E81.72485
G1 X114.082 Y36.420 E81.74443
G1 X113.757 Y36.787 E81.76428
G1 X113.405 Y37.112 E81.78368
G1 X112.448 Y37.836 E81.83227
G1 X111.949 Y38.230 E81.85802
G1 X111.465 Y38.629 E81.88342
G1 X110.975 Y39.051 E81.90960
G1 X110.501 Y39.476 E81.93538
G1 X110.036 Y39.911 E81.96116
G1 X109.582 Y40.356 E81.98691
G1 X109.142 Y40.803 E82.01231
G1 X108.699 Y41.273 E82.03846
G1 X108.272 Y41.745 E82.06423
G1 X107.856 Y42.227 E82.09001
G1 X107.456 Y42.710 E82.11541
G1 X107.054 Y43.215 E82.14155
G1 X106.669 Y43.722 E82.16732
G1 X106.294 Y44.237 E82.19312
G1 X105.935 Y44.751 E82.21851
G1 X105.577 Y45.289 E82.24468
G1 X105.236 Y45.826 E82.27043
G1 X104.911 Y46.362 E82.29582
G1 X104.592 Y46.914 E82.32163
G1 X104.280 Y47.479 E82.34777
G1 X103.985 Y48.043 E82.37354
G1 X103.705 Y48.605 E82.39897
G1 X103.434 Y49.181 E82.42474
G1 X103.171 Y49.770 E82.45087
G1 X102.924 Y50.357 E82.47665
G1 X102.694 Y50.940 E82.50203
G1 X102.468 Y51.545 E82.52818
G1 X102.258 Y52.146 E82.55396
G1 X102.061 Y52.752 E82.57977
G1 X101.880 Y53.352 E82.60514
G1 X101.706 Y53.974 E82.63130
G1 X101.548 Y54.591 E82.65709
G1 X101.405 Y55.201 E82.68246
G1 X101.272 Y55.824 E82.70825
G1 X101.151 Y56.458 E82.73439
G1 X101.047 Y57.077 E82.75981
G1 X100.952 Y57.716 E82.78597
G1 X100.875 Y58.337 E82.81131
G1 X100.779 Y59.288 E82.85001
G1 X100.732 Y59.932 E82.87616
G1 X100.700 Y60.559 E82.90158
G1 X100.679 Y61.204 E82.92771
G1 X100.674 Y61.831 E82.95310
G1 X100.680 Y62.476 E82.97922
G1 X100.700 Y63.104 E83.00466
G1 X100.735 Y63.749 E83.03082
G1 X100.781 Y64.374 E83.05620
G1 X100.842 Y65.008 E83.08199
G1 X100.914 Y65.640 E83.10775
G1 X101.001 Y66.271 E83.13354
G1 X101.101 Y66.899 E83.15929
G1 X101.215 Y67.526 E83.18509
G1 X101.342 Y68.150 E83.21088
G1 X101.481 Y68.770 E83.23661
G1 X101.633 Y69.389 E83.26242
G1 X101.799 Y70.003 E83.28818
G1 X101.977 Y70.615 E83.31398
G1 X102.168 Y71.222 E83.33975
G1 X102.372 Y71.824 E83.36549
G0 F10500 X101.986 Y71.969
G0 X96.122 Y55.634
G0 X96.030 Y55.231
G1 F1500 X96.417 Y55.080 E83.38231
G1 X96.865 Y54.825 E83.40319
G1 X97.327 Y54.442 E83.42749
G1 X97.722 Y53.960 E83.45272
G1 X98.018 Y53.413 E83.47791
G1 X98.185 Y52.900 E83.49975
G1 X98.252 Y52.493 E83.51645
G1 X98.268 Y52.164 E83.52979
G1 X98.227 Y51.651 E83.55063
G1 X98.076 Y51.073 E83.57482
G1 X97.849 Y50.580 E83.59680
G1 X97.505 Y50.090 E83.62104
G1 X97.124 Y49.711 E83.64280
G1 X96.856 Y49.509 E83.65639
G1 X96.334 Y49.221 E83.68054
G1 X95.746 Y49.032 E83.70554
G1 X95.317 Y48.967 E83.72311
G1 X95.016 Y48.958 E83.73531
G1 X94.942 Y48.961 E83.73831
G1 X94.904 Y48.959 E83.73985
G1 X94.308 Y49.044 E83.76423
G1 X93.718 Y49.248 E83.78951
G1 X93.181 Y49.560 E83.81465
G1 X92.767 Y49.912 E83.83666
G1 X92.439 Y50.306 E83.85742
G1 X92.263 Y50.580 E83.87061
G1 X92.169 Y50.759 E83.87879
G1 X92.006 Y51.157 E83.89621
G1 X91.873 Y51.732 E83.92011
G1 X91.844 Y52.057 E83.93332
G1 X91.843 Y52.183 E83.93842
G1 X91.899 Y52.767 E83.96218
G1 X92.043 Y53.288 E83.98407
G1 X92.263 Y53.760 E84.00515
G1 X92.606 Y54.249 E84.02934
G1 X92.986 Y54.628 E84.05107
G1 X93.255 Y54.831 E84.06472
G1 X93.777 Y55.117 E84.08882
G1 X94.365 Y55.307 E84.11384
G1 X94.794 Y55.371 E84.13141
G1 X95.101 Y55.381 E84.14384
G1 X95.531 Y55.347 E84.16131
G1 X96.030 Y55.231 E84.18206
G0 F10500 X96.122 Y55.634
G0 X97.691 Y54.805
G0 X98.684 Y53.021
G0 X108.305 Y36.459
G0 X108.515 Y36.104
G1 F1500 X109.031 Y36.409 E84.20633
G1 X109.614 Y36.620 E84.23143
G1 X110.043 Y36.700 E84.24911
G1 X110.452 Y36.720 E84.26569
G1 X110.885 Y36.685 E84.28328
G1 X111.387 Y36.568 E84.30415
G1 X111.865 Y36.372 E84.32507
G1 X112.308 Y36.100 E84.34612
G1 X112.754 Y35.703 E84.37030
G1 X113.088 Y35.281 E84.39209
G1 X113.293 Y34.922 E84.40883
G1 X113.458 Y34.520 E84.42643
G1 X113.592 Y33.942 E84.45045
G1 X113.622 Y33.503 E84.46827
G1 X113.565 Y32.909 E84.49243
G1 X113.420 Y32.387 E84.51437
G1 X113.165 Y31.857 E84.53819
G1 X112.961 Y31.555 E84.55295
G1 X112.696 Y31.249 E84.56934
G1 X112.390 Y30.977 E84.58592
G1 X112.047 Y30.744 E84.60271
G1 X111.487 Y30.481 E84.62776
G1 X110.911 Y30.335 E84.65182
G1 X110.441 Y30.295 E84.67092
G1 X109.933 Y30.329 E84.69154
G1 X109.350 Y30.473 E84.71586
G1 X108.787 Y30.735 E84.74100
G1 X108.342 Y31.047 E84.76301
G1 X107.922 Y31.474 E84.78726
G1 X107.617 Y31.916 E84.80901
G1 X107.476 Y32.196 E84.82170
G1 X107.285 Y32.754 E84.84558
G1 X107.210 Y33.203 E84.86402
G1 X107.196 Y33.514 E84.87662
G1 X107.237 Y34.025 E84.89738
G1 X107.389 Y34.603 E84.92158
G1 X107.614 Y35.095 E84.94349
G1 X107.903 Y35.518 E84.96424
G1 X108.124 Y35.768 E84.97775
G1 X108.515 Y36.104 E84.99862
G0 F10500 X108.305 Y36.459
G0 X109.493 Y37.457
;TYPE:SKIN
G1 F1500 X110.435 Y38.400 E85.05260
G0 F10500 X109.969 Y38.817
G1 F1500 X97.398 Y26.246 E85.77249
G0 F10500 X97.211 Y26.943
G1 F1500 X109.511 Y39.243 E86.47686
G0 F10500 X109.064 Y39.680
G1 F1500 X97.024 Y27.640 E87.16635
G0 F10500 X96.837 Y28.337
G1 F1500 X108.624 Y40.124 E87.84135
G0 F10500 X108.195 Y40.578
G1 F1500 X96.650 Y29.034 E88.50246
G0 F10500 X96.464 Y29.731
G1 F1500 X107.772 Y41.039 E89.15002
G0 F10500 X107.359 Y41.510
G1 F1500 X96.277 Y30.428 E89.78465
G0 F10500 X96.090 Y31.126
G1 F1500 X106.955 Y41.990 E90.40681
G0 F10500 X106.560 Y42.480
G1 F1500 X95.904 Y31.823 E91.01707
G0 F10500 X95.717 Y32.520
G1 F1500 X106.174 Y42.977 E91.61590
G0 F10500 X105.798 Y43.484
G1 F1500 X95.530 Y33.217 E92.20388
G0 F10500 X95.343 Y33.914
G1 F1500 X105.429 Y44.000 E92.78147
G0 F10500 X105.071 Y44.525
G1 F1500 X95.156 Y34.611 E93.34924
G0 F10500 X94.970 Y35.308
G1 F1500 X104.722 Y45.061 E93.90773
G0 F10500 X104.383 Y45.606
G1 F1500 X94.783 Y36.005 E94.45751
G0 F10500 X94.596 Y36.703
G1 F1500 X104.053 Y46.159 E94.99905
G0 F10500 X103.732 Y46.722
G1 F1500 X94.410 Y37.400 E95.53288
G0 F10500 X94.222 Y38.096
G1 F1500 X103.422 Y47.296 E96.05973
G0 F10500 X103.122 Y47.880
G1 F1500 X94.036 Y38.793 E96.58008
G0 F10500 X93.849 Y39.491
G1 F1500 X102.833 Y48.475 E97.09456
G0 F10500 X102.554 Y49.080
G1 F1500 X93.662 Y40.188 E97.60377
G0 F10500 X93.475 Y40.885
G1 F1500 X102.286 Y49.696 E98.10835
G0 F10500 X102.029 Y50.323
G1 F1500 X93.289 Y41.582 E98.60888
G0 F10500 X93.102 Y42.280
G1 F1500 X101.783 Y50.961 E99.10601
G0 F10500 X101.550 Y51.611
G1 F1500 X92.915 Y42.976 E99.60050
G0 F10500 X92.728 Y43.673
G1 F1500 X101.328 Y52.273 E100.09299
G0 F10500 X101.119 Y52.948
G1 F1500 X98.800 Y50.629 E100.22579
G0 F10500 X99.084 Y51.796
G1 F1500 X100.923 Y53.636 E100.33113
G0 F10500 X100.741 Y54.338
G1 F1500 X99.076 Y52.673 E100.42648
G0 F10500 X98.911 Y53.392
G1 F1500 X100.573 Y55.054 E100.52166
G0 F10500 X100.419 Y55.783
G1 F1500 X98.649 Y54.014 E100.62299
G0 F10500 X98.316 Y54.564
G1 F1500 X100.282 Y56.531 E100.73560
G0 F10500 X100.160 Y57.293
G1 F1500 X97.916 Y55.048 E100.86414
G0 F10500 X97.433 Y55.449
G1 F1500 X100.057 Y58.073 E101.01440
G0 F10500 X99.972 Y58.873
G1 F1500 X96.884 Y55.784 E101.19127
G0 F10500 X96.259 Y56.043
G1 F1500 X99.903 Y59.687 E101.39995
G0 F10500 X99.856 Y60.524
G1 F1500 X95.525 Y56.193 E101.64797
G0 F10500 X94.651 Y56.203
G1 F1500 X99.832 Y61.384 E101.94467
G0 F10500 X99.833 Y62.269
G1 F1500 X93.468 Y55.904 E102.30916
G0 F10500 X91.336 Y53.772
G1 F1500 X90.300 Y52.736 E102.36849
G0 F10500 X90.113 Y53.433
G1 F1500 X99.858 Y63.177 E102.92652
G0 F10500 X99.916 Y64.119
G1 F1500 X89.927 Y54.130 E103.49856
G0 F10500 X89.740 Y54.827
G1 F1500 X100.001 Y65.089 E104.08619
G0 F10500 X100.124 Y66.095
G1 F1500 X89.553 Y55.524 E104.69155
G0 F10500 X89.366 Y56.222
G1 F1500 X100.286 Y67.141 E105.31687
G0 F10500 X100.498 Y68.237
G1 F1500 X89.180 Y56.919 E105.96501
G0 F10500 X88.992 Y57.615
G1 F1500 X100.763 Y69.386 E106.63909
G0 F10500 X101.092 Y70.598
G1 F1500 X88.806 Y58.312 E107.34266
G0 F10500 X88.619 Y59.010
G1 F1500 X101.503 Y71.893 E108.08045
G0 F10500 X101.816 Y73.090
G1 F1500 X88.432 Y59.707 E108.84687
G0 F10500 X91.033 Y52.585
G1 F1500 X90.757 Y51.867 E108.87812
G1 X90.928 Y51.154 E108.89831
G1 X91.148 Y50.490 E108.91667
G1 X91.140 Y49.598 E108.93892
G1 X91.972 Y49.546 E108.96965
G1 X91.421 Y48.553 E109.01563
G0 F10500 X91.607 Y47.856
G1 F1500 X92.652 Y48.900 E109.07545
G0 F10500 X93.204 Y48.569
G1 F1500 X91.795 Y47.159 E109.15617
G0 F10500 X91.981 Y46.462
G1 F1500 X93.833 Y48.313 E109.26219
G0 F10500 X94.557 Y48.154
G1 F1500 X92.168 Y45.765 E109.39900
G0 F10500 X92.355 Y45.068
G1 F1500 X95.414 Y48.127 E109.57418
G0 F10500 X96.586 Y48.415
G1 F1500 X92.541 Y44.370 E109.80582
G0 F10500 X88.246 Y60.404
G1 F1500 X99.962 Y72.120 E110.47675
G0 F10500 X98.951 Y71.993
G1 F1500 X88.059 Y61.101 E111.10050
G0 F10500 X87.872 Y61.799
G1 F1500 X98.164 Y72.090 E111.68985
G0 F10500 X97.481 Y72.291
G1 F1500 X87.686 Y62.496 E112.25077
G0 F10500 X87.498 Y63.192
G1 F1500 X96.899 Y72.593 E112.78913
G0 F10500 X96.387 Y72.965
G1 F1500 X87.312 Y63.889 E113.30885
G0 F10500 X87.125 Y64.587
G1 F1500 X95.940 Y73.402 E113.81365
G0 F10500 X95.563 Y73.908
G1 F1500 X86.938 Y65.284 E114.30755
G0 F10500 X86.752 Y65.981
G1 F1500 X95.261 Y74.490 E114.79483
G0 F10500 X95.051 Y75.164
G1 F1500 X86.565 Y66.678 E115.28079
G0 F10500 X86.378 Y67.375
G1 F1500 X94.955 Y75.953 E115.77199
G0 F10500 X95.057 Y76.938
G1 F1500 X86.191 Y68.072 E116.27971
G0 F10500 X86.004 Y68.769
G1 F1500 X96.016 Y78.781 E116.85306
G0 F10500 X96.236 Y79.001
G1 F1500 X96.441 Y79.206 E116.86480
G0 F10500 X95.403 Y79.052
G1 F1500 X85.818 Y69.466 E117.41372
G0 F10500 X85.631 Y70.164
G1 F1500 X94.197 Y78.730 E117.90427
G0 F10500 X92.992 Y78.408
G1 F1500 X85.444 Y70.861 E118.33648
G0 F10500 X85.257 Y71.558
G1 F1500 X91.785 Y78.086 E118.71032
G0 F10500 X90.580 Y77.764
G1 F1500 X85.071 Y72.255 E119.02580
G0 F10500 X84.883 Y72.952
G1 F1500 X89.374 Y77.443 E119.28298
G0 F10500 X88.169 Y77.121
G1 F1500 X84.697 Y73.649 E119.48181
G0 F10500 X84.510 Y74.346
G1 F1500 X86.962 Y76.798 E119.62222
G0 F10500 X85.757 Y76.477
G1 F1500 X84.323 Y75.043 E119.70434
G0 F10500 X84.137 Y75.741
G1 F1500 X84.551 Y76.155 E119.72805
G0 F10500 X107.465 Y41.896
G0 X110.911 Y37.991
G1 F1500 X110.875 Y37.513 E119.75246
G1 X111.395 Y37.591 E119.77375
G0 F10500 X108.216 Y36.522
G0 X106.471 Y34.436
G1 F1500 X98.325 Y26.289 E120.24027
G0 F10500 X99.533 Y26.613
G1 F1500 X106.353 Y33.433 E120.63083
G0 F10500 X106.447 Y32.644
G1 F1500 X100.740 Y26.936 E120.95768
G0 F10500 X101.947 Y27.260
G1 F1500 X106.659 Y31.972 E121.22751
G0 F10500 X106.956 Y31.385
G1 F1500 X103.155 Y27.584 E121.44518
G0 F10500 X104.362 Y27.907
G1 F1500 X107.328 Y30.873 E121.61503
G0 F10500 X107.766 Y30.427
G1 F1500 X105.570 Y28.231 E121.74079
G0 F10500 X106.777 Y28.554
G1 F1500 X108.279 Y30.056 E121.82680
G0 F10500 X108.870 Y29.763
G1 F1500 X107.985 Y28.878 E121.87748
G0 F10500 X109.192 Y29.202
G1 F1500 X109.545 Y29.554 E121.89767
G1 F420 E119.89767
G1 Z0.525
G0 F10500 X95.993 Y85.108
;TYPE:WALL-INNER
G1 Z0.425
G1 F420 E121.89767
G1 F1500 X96.421 Y85.229 E121.91568
G1 X96.824 Y85.385 E121.93318
G1 X97.106 Y85.522 E121.94588
G1 X97.460 Y85.739 E121.96269
G1 X97.808 Y86.005 E121.98043
G1 X98.109 Y86.290 E121.99721
G1 X98.382 Y86.606 E122.01412
G1 X98.629 Y86.963 E122.03170
G1 X98.911 Y87.508 E122.05655
G1 X99.088 Y88.011 E122.07814
G1 X99.195 Y88.530 E122.09960
G1 X99.219 Y88.749 E122.10852
G1 X99.233 Y89.166 E122.12541
G1 X99.191 Y89.687 E122.14658
G1 X99.110 Y90.095 E122.16342
G1 X98.977 Y90.514 E122.18122
G1 X98.810 Y90.901 E122.19829
G1 X98.599 Y91.273 E122.21561
G1 X98.352 Y91.620 E122.23286
G1 X98.077 Y91.933 E122.24973
G1 X97.759 Y92.227 E122.26727
G1 X96.829 Y92.929 E122.31445
G1 X96.319 Y93.331 E122.34075
G1 X95.824 Y93.740 E122.36675
G1 X95.325 Y94.169 E122.39339
G1 X94.842 Y94.603 E122.41969
G1 X94.368 Y95.046 E122.44596
G1 X93.902 Y95.501 E122.47233
G1 X93.454 Y95.958 E122.49825
G1 X93.002 Y96.438 E122.52494
G1 X92.567 Y96.920 E122.55124
G1 X92.142 Y97.412 E122.57756
G1 X91.734 Y97.904 E122.60344
G1 X91.323 Y98.420 E122.63016
G1 X90.930 Y98.937 E122.65645
G1 X90.548 Y99.462 E122.68274
G1 X90.182 Y99.987 E122.70866
G1 X89.816 Y100.536 E122.73538
G1 X89.468 Y101.084 E122.76166
G1 X89.136 Y101.632 E122.78761
G1 X88.811 Y102.194 E122.81390
G1 X88.493 Y102.770 E122.84054
G1 X88.190 Y103.347 E122.86693
G1 X87.905 Y103.921 E122.89288
G1 X87.629 Y104.508 E122.91915
G1 X87.360 Y105.109 E122.94581
G1 X87.108 Y105.709 E122.97216
G1 X86.873 Y106.303 E122.99803
G1 X86.642 Y106.921 E123.02474
G1 X86.429 Y107.535 E123.05106
G1 X86.228 Y108.153 E123.07738
G1 X86.043 Y108.765 E123.10327
G1 X85.865 Y109.400 E123.12997
G1 X85.704 Y110.030 E123.15630
G1 X85.558 Y110.652 E123.18217
G1 X85.422 Y111.288 E123.20851
G1 X85.299 Y111.935 E123.23518
G1 X85.192 Y112.566 E123.26109
G1 X85.095 Y113.220 E123.28787
G1 X85.018 Y113.851 E123.31361
G1 X84.919 Y114.824 E123.35321
G1 X84.871 Y115.481 E123.37988
G1 X84.839 Y116.120 E123.40579
G1 X84.817 Y116.779 E123.43249
G1 X84.812 Y117.420 E123.45845
G1 X84.818 Y118.077 E123.48505
G1 X84.838 Y118.719 E123.51106
G1 X84.874 Y119.377 E123.53775
G1 X84.921 Y120.015 E123.56365
G1 X84.982 Y120.661 E123.58993
G1 X85.057 Y121.307 E123.61626
G1 X85.146 Y121.951 E123.64259
G1 X85.248 Y122.592 E123.66887
G1 X85.364 Y123.231 E123.69517
G1 X85.493 Y123.868 E123.72149
G1 X85.636 Y124.502 E123.74780
G1 X85.791 Y125.133 E123.77412
G1 X85.960 Y125.760 E123.80041
G1 X86.141 Y126.384 E123.82672
G1 X86.337 Y127.003 E123.85301
G1 X86.544 Y127.618 E123.87929
G1 X86.765 Y128.230 E123.90564
G1 X86.999 Y128.836 E123.93194
G1 X87.246 Y129.436 E123.95822
G1 X87.494 Y130.009 E123.98350
G1 X87.649 Y130.426 E124.00151
G1 X87.755 Y130.838 E124.01874
G1 X87.790 Y131.036 E124.02688
G1 X87.831 Y131.473 E124.04465
G1 X87.834 Y131.673 E124.05275
G1 X87.809 Y132.094 E124.06983
G1 X87.739 Y132.516 E124.08715
G1 X87.627 Y132.921 E124.10417
G1 X87.473 Y133.315 E124.12130
G1 X87.278 Y133.690 E124.13841
G1 X87.044 Y134.046 E124.15566
G1 X86.850 Y134.289 E124.16826
G1 X86.552 Y134.599 E124.18567
G1 X86.232 Y134.870 E124.20265
G1 X85.887 Y135.105 E124.21955
G1 X85.500 Y135.314 E124.23736
G1 X85.115 Y135.471 E124.25420
G1 X84.816 Y135.565 E124.26689
G1 X84.502 Y135.634 E124.27991
G1 X84.083 Y135.688 E124.29701
G1 X83.777 Y135.700 E124.30942
G1 X83.118 Y135.648 E124.33618
G1 X82.821 Y135.588 E124.34845
G1 X68.558 Y131.767 E124.94638
G1 X82.059 Y81.375 E127.05888
G1 X95.993 Y85.108 E127.64301
G0 F10500 X96.013 Y85.350
G1 F1500 X95.603 Y85.280 E127.65986
G1 X95.119 Y85.256 E127.67948
G1 X94.599 Y85.298 E127.70060
G1 X93.996 Y85.438 E127.72567
G1 X93.339 Y85.720 E127.75462
G1 X92.736 Y86.127 E127.78408
G1 X92.341 Y86.500 E127.80608
G1 X91.911 Y87.065 E127.83483
G1 X91.584 Y87.726 E127.86469
G1 X91.408 Y88.336 E127.89040
G1 X91.350 Y88.736 E127.90677
G1 X91.333 Y89.113 E127.92205
G1 X91.381 Y89.712 E127.94638
G1 X91.531 Y90.319 E127.97170
G1 X91.789 Y90.901 E127.99748
G1 X92.117 Y91.422 E128.02241
G1 X92.449 Y91.804 E128.04290
G1 X92.992 Y92.257 E128.07154
G1 X93.642 Y92.619 E128.10167
G1 X94.330 Y92.840 E128.13093
G1 X94.740 Y92.910 E128.14777
G1 X95.224 Y92.934 E128.16739
G1 X95.744 Y92.892 E128.18852
G1 X96.347 Y92.752 E128.21359
G1 X97.004 Y92.470 E128.24254
G1 X97.607 Y92.063 E128.27200
G1 X97.997 Y91.696 E128.29368
G1 X98.381 Y91.207 E128.31886
G1 X98.715 Y90.576 E128.34777
G1 X98.929 Y89.886 E128.37702
G1 X98.990 Y89.481 E128.39361
G1 X99.011 Y89.081 E128.40983
G1 X98.962 Y88.477 E128.43436
G1 X98.812 Y87.871 E128.45964
G1 X98.554 Y87.289 E128.48542
G1 X98.226 Y86.768 E128.51035
G1 X97.894 Y86.386 E128.53085
G1 X97.351 Y85.933 E128.55948
G1 X96.701 Y85.571 E128.58961
G1 X96.013 Y85.350 E128.61887
G0 F10500 X93.394 Y85.820
G0 X92.007 Y87.125
G0 X91.446 Y89.110
G0 X82.311 Y104.837
G1 F1500 X81.778 Y104.454 E128.64545
G1 X81.108 Y104.140 E128.67541
G1 X80.430 Y103.968 E128.70373
G1 X80.013 Y103.924 E128.72071
G1 X79.752 Y103.919 E128.73128
G1 X79.240 Y103.960 E128.75208
G1 X78.575 Y104.126 E128.77984
G1 X78.178 Y104.286 E128.79717
G1 X77.580 Y104.638 E128.82527
G1 X77.096 Y105.049 E128.85098
G1 X76.824 Y105.357 E128.86762
G1 X76.547 Y105.749 E128.88705
G1 X76.311 Y106.195 E128.90749
G1 X76.086 Y106.858 E128.93584
G1 X75.992 Y107.475 E128.96111
G1 X75.980 Y107.786 E128.97371
G1 X76.046 Y108.469 E129.00150
G1 X76.221 Y109.100 E129.02802
G1 X76.529 Y109.738 E129.05670
G1 X76.913 Y110.270 E129.08327
G1 X77.431 Y110.765 E129.11228
G1 X78.056 Y111.169 E129.14242
G1 X78.743 Y111.443 E129.17237
G1 X79.372 Y111.571 E129.19836
G1 X79.873 Y111.596 E129.21867
G1 X80.390 Y111.554 E129.23968
G1 X80.993 Y111.414 E129.26474
G1 X81.630 Y111.142 E129.29279
G1 X81.995 Y110.920 E129.31009
G1 X82.535 Y110.473 E129.33848
G1 X83.002 Y109.904 E129.36828
G1 X83.312 Y109.352 E129.39392
G1 X83.549 Y108.667 E129.42327
G1 X83.636 Y108.150 E129.44450
G1 X83.657 Y107.744 E129.46096
G1 X83.608 Y107.133 E129.48578
G1 X83.429 Y106.451 E129.51434
G1 X83.159 Y105.860 E129.54065
G1 X82.804 Y105.343 E129.56604
G1 X82.311 Y104.837 E129.59465
G0 F10500 X83.497 Y107.153
G0 X83.208 Y109.305
G0 X83.720 Y127.799
G1 F1500 X83.200 Y127.841 E129.61577
G1 X82.617 Y127.976 E129.64001
G1 X82.273 Y128.105 E129.65488
G1 X82.008 Y128.228 E129.66671
G1 X81.441 Y128.588 E129.69391
G1 X81.116 Y128.866 E129.71123
G1 X80.646 Y129.408 E129.74028
G1 X80.329 Y129.940 E129.76535
G1 X80.125 Y130.435 E129.78703
G1 X79.971 Y131.102 E129.81475
G1 X79.936 Y131.493 E129.83065
G1 X79.935 Y131.678 E129.83814
G1 X79.999 Y132.350 E129.86548
G1 X80.174 Y132.981 E129.89199
G1 X80.468 Y133.590 E129.91938
G1 X80.573 Y133.758 E129.92740
G1 X80.737 Y133.989 E129.93887
G1 X81.185 Y134.473 E129.96558
G1 X81.414 Y134.667 E129.97773
G1 X81.823 Y134.945 E129.99775
G1 X82.482 Y135.256 E130.02726
G1 X83.161 Y135.427 E130.05562
G1 X83.580 Y135.471 E130.07268
G1 X83.840 Y135.476 E130.08321
G1 X84.344 Y135.435 E130.10368
G1 X84.927 Y135.300 E130.12791
G1 X85.299 Y135.161 E130.14399
G1 X85.906 Y134.831 E130.17197
G1 X86.406 Y134.432 E130.19787
G1 X86.772 Y134.037 E130.21968
G1 X87.155 Y133.456 E130.24786
G1 X87.374 Y132.970 E130.26944
G1 X87.543 Y132.373 E130.29457
G1 X87.613 Y131.645 E130.32418
G1 X87.562 Y131.014 E130.34982
G1 X87.383 Y130.330 E130.37845
G1 X87.113 Y129.741 E130.40469
G1 X86.776 Y129.248 E130.42887
G1 X86.575 Y129.014 E130.44136
G1 X86.057 Y128.551 E130.46949
G1 X85.420 Y128.169 E130.49957
G1 X84.731 Y127.920 E130.52923
G1 X84.211 Y127.823 E130.55065
G1 X83.720 Y127.799 E130.57056
G0 F10500 X83.729 Y128.425
;TYPE:WALL-OUTER
G1 F1500 X83.296 Y128.460 E130.58815
G1 X82.799 Y128.576 E130.60882
G1 X82.515 Y128.682 E130.62109
G1 X82.308 Y128.778 E130.63033
G1 X81.814 Y129.092 E130.65403
G1 X81.558 Y129.311 E130.66768
G1 X81.154 Y129.775 E130.69259
G1 X80.889 Y130.220 E130.71356
G1 X80.723 Y130.625 E130.73129
G1 X80.590 Y131.201 E130.75522
G1 X80.561 Y131.524 E130.76836
G1 X80.560 Y131.651 E130.77350
G1 X80.616 Y132.236 E130.79730
G1 X80.761 Y132.759 E130.81927
G1 X81.016 Y133.288 E130.84305
G1 X81.223 Y133.594 E130.85801
G1 X81.619 Y134.021 E130.88159
G1 X81.794 Y134.170 E130.89090
G1 X82.134 Y134.401 E130.90755
G1 X82.693 Y134.665 E130.93258
G1 X83.270 Y134.810 E130.95667
G1 X83.618 Y134.847 E130.97084
G1 X83.821 Y134.850 E130.97906
G1 X84.248 Y134.816 E130.99641
G1 X84.745 Y134.700 E131.01707
G1 X85.039 Y134.591 E131.02977
G1 X85.559 Y134.308 E131.05374
G1 X85.980 Y133.972 E131.07555
G1 X86.278 Y133.650 E131.09332
G1 X86.605 Y133.154 E131.11738
G1 X86.785 Y132.755 E131.13510
G1 X86.926 Y132.257 E131.15606
G1 X86.985 Y131.640 E131.18116
G1 X86.944 Y131.120 E131.20228
G1 X86.792 Y130.542 E131.22648
G1 X86.567 Y130.050 E131.24839
G1 X86.279 Y129.629 E131.26904
G1 X86.127 Y129.452 E131.27849
G1 X85.685 Y129.057 E131.30249
G1 X85.151 Y128.736 E131.32772
G1 X84.567 Y128.525 E131.35287
G1 X84.138 Y128.445 E131.37054
G1 X83.729 Y128.425 E131.38712
G0 F10500 X83.748 Y128.013
G0 X86.748 Y127.558
G0 X87.134 Y127.412
G1 F1500 X87.351 Y128.011 E131.41292
G1 X87.580 Y128.604 E131.43866
G1 X87.821 Y129.193 E131.46443
G1 X88.074 Y129.775 E131.49013
G1 X88.244 Y130.234 E131.50995
G1 X88.408 Y130.937 E131.53918
G1 X88.455 Y131.443 E131.55976
G1 X88.460 Y131.686 E131.56960
G1 X88.431 Y132.161 E131.58887
G1 X88.350 Y132.648 E131.60886
G1 X88.221 Y133.116 E131.62852
G1 X88.041 Y133.576 E131.64852
G1 X87.817 Y134.007 E131.66819
G1 X87.550 Y134.414 E131.68790
G1 X87.317 Y134.706 E131.70303
G1 X86.985 Y135.050 E131.72239
G1 X86.612 Y135.366 E131.74218
G1 X86.207 Y135.643 E131.76205
G1 X85.773 Y135.877 E131.78202
G1 X85.082 Y136.139 E131.81194
G1 X84.733 Y136.226 E131.82650
G1 X84.371 Y136.287 E131.84137
G1 X84.142 Y136.311 E131.85069
G1 X83.767 Y136.325 E131.86589
G1 X83.264 Y136.298 E131.88629
G1 X82.921 Y136.249 E131.90032
G1 X67.793 Y132.210 E132.53436
G1 X81.617 Y80.610 E134.69750
G1 X96.150 Y84.503 E135.30674
G1 X96.619 Y84.636 E135.32648
G1 X97.077 Y84.812 E135.34634
G1 X97.402 Y84.971 E135.36099
G1 X97.821 Y85.228 E135.38090
G1 X98.201 Y85.518 E135.40025
G1 X98.567 Y85.864 E135.42065
G1 X98.880 Y86.227 E135.44006
G1 X99.161 Y86.634 E135.46009
G1 X99.390 Y87.050 E135.47931
G1 X99.493 Y87.278 E135.48945
G1 X99.664 Y87.755 E135.50996
G1 X99.797 Y88.331 E135.53390
G1 X99.841 Y88.681 E135.54819
G1 X99.859 Y89.189 E135.56877
G1 X99.824 Y89.674 E135.58846
G1 X99.710 Y90.270 E135.61303
G1 X99.563 Y90.734 E135.63274
G1 X99.372 Y91.177 E135.65228
G1 X99.125 Y91.614 E135.67260
G1 X98.844 Y92.007 E135.69217
G1 X98.520 Y92.375 E135.71202
G1 X98.168 Y92.700 E135.73142
G1 X97.211 Y93.424 E135.78001
G1 X96.711 Y93.818 E135.80579
G1 X96.227 Y94.217 E135.83119
G1 X95.738 Y94.639 E135.85734
G1 X95.264 Y95.064 E135.88312
G1 X94.800 Y95.498 E135.90885
G1 X94.344 Y95.943 E135.93465
G1 X93.905 Y96.391 E135.96005
G1 X93.462 Y96.861 E135.98620
G1 X93.035 Y97.333 E136.01198
G1 X92.619 Y97.815 E136.03776
G1 X92.219 Y98.298 E136.06315
G1 X91.817 Y98.803 E136.08929
G1 X91.432 Y99.310 E136.11507
G1 X91.057 Y99.825 E136.14087
G1 X90.698 Y100.339 E136.16625
G1 X90.340 Y100.877 E136.19242
G1 X89.999 Y101.414 E136.21818
G1 X89.674 Y101.950 E136.24356
G1 X89.355 Y102.502 E136.26938
G1 X89.043 Y103.066 E136.29548
G1 X88.747 Y103.631 E136.32131
G1 X88.468 Y104.193 E136.34671
G1 X88.197 Y104.769 E136.37249
G1 X87.934 Y105.358 E136.39861
G1 X87.687 Y105.945 E136.42440
G1 X87.457 Y106.527 E136.44974
G1 X87.230 Y107.133 E136.47594
G1 X87.021 Y107.734 E136.50171
G1 X86.824 Y108.340 E136.52751
G1 X86.643 Y108.940 E136.55289
G1 X86.469 Y109.562 E136.57904
G1 X86.311 Y110.179 E136.60484
G1 X86.168 Y110.789 E136.63021
G1 X86.035 Y111.411 E136.65596
G1 X85.914 Y112.046 E136.68214
G1 X85.810 Y112.664 E136.70751
G1 X85.715 Y113.304 E136.73371
G1 X85.638 Y113.925 E136.75905
G1 X85.542 Y114.876 E136.79776
G1 X85.495 Y115.520 E136.82391
G1 X85.463 Y116.146 E136.84929
G1 X85.442 Y116.792 E136.87546
G1 X85.437 Y117.419 E136.90085
G1 X85.443 Y118.064 E136.92697
G1 X85.462 Y118.692 E136.95241
G1 X85.498 Y119.337 E136.97857
G1 X85.544 Y119.962 E137.00395
G1 X85.604 Y120.596 E137.02973
G1 X85.677 Y121.228 E137.05550
G1 X85.764 Y121.859 E137.08129
G1 X85.864 Y122.487 E137.10704
G1 X85.978 Y123.114 E137.13284
G1 X86.104 Y123.737 E137.15858
G1 X86.244 Y124.359 E137.18440
G1 X86.396 Y124.977 E137.21017
G1 X86.562 Y125.591 E137.23593
G1 X86.739 Y126.203 E137.26172
G1 X86.931 Y126.809 E137.28746
G1 X87.134 Y127.412 E137.31323
G0 F10500 X86.748 Y127.558
G0 X80.958 Y111.198
G0 X80.798 Y110.818
G1 F1500 X81.343 Y110.585 E137.33723
G1 X81.631 Y110.410 E137.35088
G1 X82.090 Y110.030 E137.37500
G1 X82.484 Y109.550 E137.40015
G1 X82.740 Y109.095 E137.42129
G1 X82.941 Y108.511 E137.44630
G1 X83.014 Y108.082 E137.46392
G1 X83.031 Y107.753 E137.47726
G1 X82.990 Y107.239 E137.49814
G1 X82.838 Y106.662 E137.52230
G1 X82.613 Y106.169 E137.54425
G1 X82.319 Y105.741 E137.56527
G1 X81.902 Y105.313 E137.58947
G1 X81.461 Y104.996 E137.61146
G1 X80.897 Y104.731 E137.63670
G1 X80.320 Y104.585 E137.66080
G1 X79.974 Y104.548 E137.67489
G1 X79.771 Y104.545 E137.68311
G1 X79.341 Y104.579 E137.70058
G1 X78.768 Y104.722 E137.72449
G1 X78.455 Y104.848 E137.73815
G1 X77.943 Y105.149 E137.76220
G1 X77.535 Y105.497 E137.78392
G1 X77.315 Y105.745 E137.79734
G1 X77.081 Y106.077 E137.81379
G1 X76.887 Y106.443 E137.83056
G1 X76.696 Y107.007 E137.85468
G1 X76.615 Y107.534 E137.87627
G1 X76.606 Y107.767 E137.88571
G1 X76.663 Y108.355 E137.90963
G1 X76.808 Y108.878 E137.93161
G1 X77.068 Y109.416 E137.95580
G1 X77.387 Y109.858 E137.97788
G1 X77.821 Y110.273 E138.00219
G1 X78.344 Y110.612 E138.02743
G1 X78.922 Y110.842 E138.05262
G1 X79.450 Y110.949 E138.07443
G1 X79.863 Y110.970 E138.09118
G1 X80.294 Y110.935 E138.10869
G1 X80.798 Y110.818 E138.12964
G0 F10500 X80.958 Y111.198
G0 X82.454 Y110.393
G0 X83.439 Y108.638
G0 X93.082 Y92.056
G0 X93.347 Y91.739
G1 F1500 X93.892 Y92.043 E138.15491
G1 X94.479 Y92.232 E138.17988
G1 X94.808 Y92.288 E138.19340
G1 X95.215 Y92.308 E138.20990
G1 X95.648 Y92.273 E138.22749
G1 X96.152 Y92.156 E138.24844
G1 X96.703 Y91.919 E138.27273
G1 X97.216 Y91.573 E138.29778
G1 X97.534 Y91.273 E138.31549
G1 X97.855 Y90.865 E138.33651
G1 X98.135 Y90.335 E138.36078
G1 X98.318 Y89.746 E138.38576
G1 X98.368 Y89.418 E138.39919
G1 X98.385 Y89.090 E138.41249
G1 X98.343 Y88.579 E138.43325
G1 X98.218 Y88.075 E138.45428
G1 X97.986 Y87.550 E138.47752
G1 X97.727 Y87.147 E138.49692
G1 X97.455 Y86.834 E138.51371
G1 X96.996 Y86.451 E138.53792
G1 X96.451 Y86.147 E138.56319
G1 X95.864 Y85.958 E138.58816
G1 X95.535 Y85.902 E138.60167
G1 X95.128 Y85.882 E138.61817
G1 X94.695 Y85.917 E138.63576
G1 X94.191 Y86.034 E138.65672
G1 X93.640 Y86.271 E138.68100
G1 X93.127 Y86.617 E138.70606
G1 X92.807 Y86.919 E138.72388
G1 X92.445 Y87.396 E138.74813
G1 X92.169 Y87.953 E138.77330
G1 X92.020 Y88.468 E138.79501
G1 X91.973 Y88.795 E138.80838
G1 X91.959 Y89.102 E138.82083
G1 X92.000 Y89.611 E138.84151
G1 X92.125 Y90.115 E138.86253
G1 X92.357 Y90.640 E138.88578
G1 X92.616 Y91.043 E138.90517
G1 X92.888 Y91.356 E138.92197
G1 X93.347 Y91.739 E138.94617
G0 F10500 X92.894 Y92.453
;TYPE:SKIN
G1 F1500 X94.792 Y94.351 E139.05486
G0 F10500 X94.333 Y94.776
G1 F1500 X81.998 Y82.440 E139.76127
G0 F10500 X82.184 Y81.743
G1 F1500 X91.848 Y91.407 E140.31469
G0 F10500 X91.192 Y89.867
G1 F1500 X83.244 Y81.919 E140.76984
G0 F10500 X84.451 Y82.242
G1 F1500 X91.122 Y88.913 E141.15187
G0 F10500 X91.235 Y88.142
G1 F1500 X85.658 Y82.566 E141.47121
G0 F10500 X86.866 Y82.889
G1 F1500 X91.459 Y87.482 E141.73423
G0 F10500 X91.761 Y86.900
G1 F1500 X88.074 Y83.213 E141.94538
G0 F10500 X89.281 Y83.536
G1 F1500 X92.143 Y86.398 E142.10927
G0 F10500 X92.590 Y85.962
G1 F1500 X90.489 Y83.860 E142.22962
G0 F10500 X91.696 Y84.183
G1 F1500 X93.116 Y85.604 E142.31096
G0 F10500 X93.714 Y85.318
G1 F1500 X93.506 Y84.668 E142.35739
G1 X94.399 Y85.119 E142.39790
G0 F10500 X92.007 Y87.125
G0 X91.446 Y89.110
G0 X92.207 Y91.353
G0 X93.688 Y92.514
G0 X94.399 Y93.074
G1 F1500 X95.497 Y93.730 E142.44712
G1 X95.352 Y93.143 E142.47161
G0 F10500 X93.883 Y95.210
G1 F1500 X81.811 Y83.138 E143.16293
G0 F10500 X81.624 Y83.835
G1 F1500 X93.444 Y95.654 E143.83978
G0 F10500 X93.013 Y96.107
G1 F1500 X81.438 Y84.532 E144.50264
G0 F10500 X81.250 Y85.228
G1 F1500 X92.589 Y96.568 E145.15201
G0 F10500 X92.175 Y97.037
G1 F1500 X81.064 Y85.926 E145.78830
G0 F10500 X80.877 Y86.623
G1 F1500 X91.770 Y97.516 E146.41210
G0 F10500 X91.374 Y98.004
G1 F1500 X80.690 Y87.320 E147.02393
G0 F10500 X80.504 Y88.017
G1 F1500 X90.986 Y98.500 E147.62422
G0 F10500 X90.608 Y99.006
G1 F1500 X80.317 Y88.715 E148.21355
G0 F10500 X80.130 Y89.412
G1 F1500 X90.239 Y99.521 E148.79245
G0 F10500 X89.879 Y100.045
G1 F1500 X79.944 Y90.109 E149.36142
G0 F10500 X79.757 Y90.806
G1 F1500 X89.529 Y100.578 E149.92103
G0 F10500 X89.189 Y101.122
G1 F1500 X79.570 Y91.503 E150.47187
G0 F10500 X79.383 Y92.200
G1 F1500 X88.857 Y101.674 E151.01441
G0 F10500 X88.536 Y102.237
G1 F1500 X79.196 Y92.897 E151.54928
G0 F10500 X79.009 Y93.594
G1 F1500 X88.224 Y102.809 E152.07698
G0 F10500 X87.923 Y103.391
G1 F1500 X78.823 Y94.291 E152.59811
G0 F10500 X78.636 Y94.989
G1 F1500 X87.633 Y103.985 E153.11330
G0 F10500 X87.353 Y104.589
G1 F1500 X78.449 Y95.686 E153.62317
G0 F10500 X78.263 Y96.383
G1 F1500 X87.083 Y105.204 E154.12829
G0 F10500 X86.824 Y105.828
G1 F1500 X78.075 Y97.080 E154.62928
G0 F10500 X77.889 Y97.777
G1 F1500 X86.578 Y106.466 E155.12687
G0 F10500 X86.342 Y107.114
G1 F1500 X77.702 Y98.474 E155.62165
G0 F10500 X77.515 Y99.171
G1 F1500 X86.119 Y107.775 E156.11436
G0 F10500 X85.909 Y108.449
G1 F1500 X83.465 Y106.005 E156.25432
G0 F10500 X83.838 Y107.261
G1 F1500 X85.711 Y109.135 E156.36161
G0 F10500 X85.528 Y109.835
G1 F1500 X83.855 Y108.162 E156.45742
G0 F10500 X83.701 Y108.893
G1 F1500 X85.358 Y110.549 E156.55228
G0 F10500 X85.200 Y111.275
G1 F1500 X83.459 Y109.534 E156.65198
G0 F10500 X83.131 Y110.090
G1 F1500 X85.062 Y112.021 E156.76256
G0 F10500 X84.939 Y112.782
G1 F1500 X82.732 Y110.575 E156.88895
G0 F10500 X82.259 Y110.986
G1 F1500 X84.833 Y113.559 E157.03632
G0 F10500 X84.746 Y114.357
G1 F1500 X81.726 Y111.337 E157.20927
G0 F10500 X81.107 Y111.602
G1 F1500 X84.674 Y115.169 E157.41353
G0 F10500 X84.625 Y116.003
G1 F1500 X80.394 Y111.773 E157.65580
G0 F10500 X79.535 Y111.797
G1 F1500 X84.597 Y116.860 E157.94571
G0 F10500 X84.596 Y117.742
G1 F1500 X78.392 Y111.539 E158.30096
G0 F10500 X76.010 Y109.156
G1 F1500 X75.088 Y108.234 E158.35376
G0 F10500 X75.785 Y108.048
G1 F1500 X75.544 Y107.364 E158.38294
G1 X75.722 Y106.659 E158.40305
G1 X75.945 Y105.998 E158.42226
G1 X75.928 Y105.096 E158.44558
G1 X76.792 Y105.077 E158.47789
G1 X76.208 Y104.051 E158.52570
G0 F10500 X76.395 Y103.354
G1 F1500 X77.481 Y104.441 E158.58792
G0 F10500 X78.037 Y104.112
G1 F1500 X76.581 Y102.657 E158.67127
G0 F10500 X76.769 Y101.960
G1 F1500 X78.681 Y103.873 E158.78079
G0 F10500 X79.417 Y103.725
G1 F1500 X76.955 Y101.263 E158.92178
G0 F10500 X77.142 Y100.566
G1 F1500 X80.309 Y103.733 E159.10314
G0 F10500 X81.576 Y104.115
G1 F1500 X77.329 Y99.868 E159.34635
G0 F10500 X74.900 Y108.931
G1 F1500 X84.617 Y118.647 E159.90278
G0 F10500 X84.671 Y119.585
G1 F1500 X74.714 Y109.628 E160.47298
G0 F10500 X74.527 Y110.325
G1 F1500 X84.752 Y120.550 E161.05852
G0 F10500 X84.869 Y121.551
G1 F1500 X74.340 Y111.022 E161.66148
G0 F10500 X74.154 Y111.720
G1 F1500 X85.026 Y122.591 E162.28405
G0 F10500 X85.232 Y123.682
G1 F1500 X73.967 Y112.417 E162.92915
G0 F10500 X73.780 Y113.114
G1 F1500 X85.489 Y124.823 E163.59968
G0 F10500 X85.809 Y126.026
G1 F1500 X73.594 Y113.811 E164.29919
G0 F10500 X73.406 Y114.508
G1 F1500 X86.209 Y127.310 E165.03234
G0 F10500 X86.657 Y128.642
G1 F1500 X73.220 Y115.205 E165.80183
G0 F10500 X73.033 Y115.902
G1 F1500 X84.864 Y127.733 E166.47934
G0 F10500 X83.831 Y127.583
G1 F1500 X72.846 Y116.599 E167.10838
G0 F10500 X72.660 Y117.296
G1 F1500 X83.019 Y127.656 E167.70163
G0 F10500 X82.328 Y127.849
G1 F1500 X72.473 Y117.994 E168.26599
G0 F10500 X72.286 Y118.691
G1 F1500 X81.735 Y128.140 E168.80710
G0 F10500 X81.208 Y128.496
G1 F1500 X72.100 Y119.388 E169.32868
G0 F10500 X71.913 Y120.085
G1 F1500 X80.764 Y128.936 E169.83554
G0 F10500 X80.376 Y129.433
G1 F1500 X71.726 Y120.782 E170.33092
G0 F10500 X71.539 Y121.479
G1 F1500 X80.064 Y130.005 E170.81915
G0 F10500 X80.369 Y133.845
G1 F1500 X70.792 Y124.268 E171.36759
G0 F10500 X70.606 Y124.965
G1 F1500 X80.335 Y134.695 E171.92476
G0 F10500 X79.128 Y134.372
G1 F1500 X70.419 Y125.662 E172.42352
G0 F10500 X70.231 Y126.359
G1 F1500 X77.921 Y134.048 E172.86387
G0 F10500 X76.714 Y133.725
G1 F1500 X70.045 Y127.056 E173.24577
G0 F10500 X69.858 Y127.753
G1 F1500 X75.506 Y133.402 E173.56924
G0 F10500 X74.299 Y133.078
G1 F1500 X69.671 Y128.450 E173.83427
G0 F10500 X69.485 Y129.148
G1 F1500 X73.092 Y132.755 E174.04083
G0 F10500 X71.885 Y132.431
G1 F1500 X69.298 Y129.845 E174.18895
G0 F10500 X69.111 Y130.542
G1 F1500 X70.677 Y132.108 E174.27863
G0 F10500 X69.470 Y131.784
G1 F1500 X68.925 Y131.239 E174.30984
G0 F10500 X70.979 Y123.571
G1 F1500 X79.781 Y132.373 E174.81389
G0 F10500 X79.722 Y131.429
G1 F1500 X71.166 Y122.873 E175.30386
G0 F10500 X71.352 Y122.176
G1 F1500 X79.846 Y130.670 E175.79028
G1 F420 E173.79028
G1 Z0.525
G0 F10500 X62.703 Y130.418
;TYPE:WALL-INNER
G1 Z0.425
G1 F420 E175.79028
G1 F1500 X48.770 Y126.684 E176.37439
G1 X48.344 Y126.563 E176.39232
G1 X47.942 Y126.409 E176.40975
G1 X47.561 Y126.216 E176.42704
G1 X47.217 Y125.993 E176.44364
G1 X46.878 Y125.720 E176.46127
G1 X46.586 Y125.430 E176.47793
G1 X46.314 Y125.096 E176.49538
G1 X46.075 Y124.732 E176.51301
G1 X45.934 Y124.466 E176.52520
G1 X45.767 Y124.068 E176.54268
G1 X45.620 Y123.556 E176.56425
G1 X45.544 Y123.051 E176.58493
G1 X45.529 Y122.719 E176.59839
G1 X45.577 Y122.073 E176.62462
G1 X45.656 Y121.687 E176.64057
G1 X45.784 Y121.284 E176.65769
G1 X45.961 Y120.874 E176.67578
G1 X46.102 Y120.616 E176.68768
G1 X46.348 Y120.252 E176.70547
G1 X46.616 Y119.931 E176.72240
G1 X46.756 Y119.788 E176.73051
G1 X47.088 Y119.498 E176.74836
G1 X47.669 Y119.066 E176.77768
G1 X48.190 Y118.663 E176.80435
G1 X48.695 Y118.255 E176.83064
G1 X49.192 Y117.836 E176.85696
G1 X49.680 Y117.408 E176.88324
G1 X50.152 Y116.975 E176.90918
G1 X50.628 Y116.520 E176.93585
G1 X51.089 Y116.062 E176.96216
G1 X51.539 Y115.592 E176.98851
G1 X51.973 Y115.122 E177.01441
G1 X52.403 Y114.635 E177.04072
G1 X52.829 Y114.133 E177.06738
G1 X53.239 Y113.628 E177.09372
G1 X53.631 Y113.123 E177.11961
G1 X54.019 Y112.603 E177.14588
G1 X54.402 Y112.065 E177.17262
G1 X54.767 Y111.529 E177.19888
G1 X55.118 Y110.992 E177.22486
G1 X55.465 Y110.431 E177.25157
G1 X55.796 Y109.872 E177.27788
G1 X56.116 Y109.307 E177.30417
G1 X56.418 Y108.743 E177.33008
G1 X56.718 Y108.157 E177.35673
G1 X57.002 Y107.571 E177.38310
G1 X57.272 Y106.980 E177.40941
G1 X57.526 Y106.394 E177.43528
G1 X57.776 Y105.784 E177.46197
G1 X58.009 Y105.177 E177.48830
G1 X58.226 Y104.574 E177.51425
G1 X58.433 Y103.959 E177.54052
G1 X58.631 Y103.330 E177.56723
G1 X58.812 Y102.705 E177.59358
G1 X58.976 Y102.087 E177.61947
G1 X59.135 Y101.448 E177.64613
G1 X59.277 Y100.813 E177.67248
G1 X59.405 Y100.176 E177.69879
G1 X59.518 Y99.546 E177.72471
G1 X59.619 Y98.905 E177.75098
G1 X59.708 Y98.262 E177.77727
G1 X59.783 Y97.616 E177.80360
G1 X59.844 Y96.969 E177.82992
G1 X59.892 Y96.311 E177.85663
G1 X59.924 Y95.672 E177.88254
G1 X59.946 Y95.013 E177.90924
G1 X59.951 Y94.372 E177.93520
G1 X59.945 Y93.716 E177.96176
G1 X59.924 Y93.074 E177.98777
G1 X59.889 Y92.416 E178.01446
G1 X59.842 Y91.778 E178.04036
G1 X59.780 Y91.131 E178.06668
G1 X59.706 Y90.486 E178.09297
G1 X59.617 Y89.842 E178.11930
G1 X59.515 Y89.201 E178.14558
G1 X59.399 Y88.561 E178.17192
G1 X59.269 Y87.924 E178.19824
G1 X59.127 Y87.292 E178.22447
G1 X58.972 Y86.660 E178.25082
G1 X58.803 Y86.032 E178.27716
G1 X58.621 Y85.409 E178.30344
G1 X58.426 Y84.789 E178.32976
G1 X58.218 Y84.174 E178.35605
G1 X57.998 Y83.564 E178.38230
G1 X57.764 Y82.957 E178.40865
G1 X57.517 Y82.356 E178.43496
G1 X57.273 Y81.794 E178.45977
G1 X57.115 Y81.370 E178.47809
G1 X57.008 Y80.953 E178.49552
G1 X56.938 Y80.431 E178.51685
G1 X56.929 Y80.106 E178.53001
G1 X56.954 Y79.698 E178.54657
G1 X57.025 Y79.275 E178.56394
G1 X57.135 Y78.873 E178.58081
G1 X57.288 Y78.483 E178.59778
G1 X57.486 Y78.103 E178.61513
G1 X57.716 Y77.751 E178.63215
G1 X57.987 Y77.421 E178.64945
G1 X58.285 Y77.127 E178.66640
G1 X58.535 Y76.920 E178.67954
G1 X58.877 Y76.687 E178.69630
G1 X59.256 Y76.483 E178.71373
G1 X59.658 Y76.318 E178.73132
G1 X60.143 Y76.182 E178.75172
G1 X60.679 Y76.105 E178.77365
G1 X60.985 Y76.094 E178.78604
G1 X61.429 Y76.117 E178.80405
G1 X61.724 Y76.159 E178.81611
G1 X76.206 Y80.026 E179.42308
G1 X62.703 Y130.418 E181.53561
G0 F10500 X52.775 Y124.843
G1 F1500 X53.095 Y124.271 E181.56215
G1 X53.322 Y123.604 E181.59068
G1 X53.413 Y123.068 E181.61270
G1 X53.430 Y122.681 E181.62838
G1 X53.381 Y122.073 E181.65308
G1 X53.202 Y121.390 E181.68167
G1 X52.932 Y120.801 E181.70791
G1 X52.585 Y120.294 E181.73279
G1 X52.233 Y119.912 E181.75382
G1 X51.845 Y119.588 E181.77429
G1 X51.242 Y119.230 E181.80269
G1 X50.630 Y118.999 E181.82918
G1 X49.947 Y118.875 E181.85729
G1 X49.552 Y118.860 E181.87329
G1 X49.482 Y118.863 E181.87613
G1 X49.417 Y118.860 E181.87876
G1 X48.790 Y118.941 E181.90437
G1 X48.122 Y119.150 E181.93271
G1 X47.629 Y119.397 E181.95504
G1 X47.223 Y119.676 E181.97498
G1 X46.862 Y119.997 E181.99455
G1 X46.596 Y120.297 E182.01078
G1 X46.319 Y120.689 E182.03022
G1 X46.083 Y121.135 E182.05065
G1 X45.861 Y121.790 E182.07866
G1 X45.773 Y122.302 E182.09969
G1 X45.752 Y122.719 E182.11660
G1 X45.818 Y123.409 E182.14467
G1 X45.993 Y124.040 E182.17118
G1 X46.301 Y124.678 E182.19987
G1 X46.681 Y125.204 E182.22615
G1 X47.113 Y125.631 E182.25074
G1 X47.451 Y125.885 E182.26786
G1 X48.064 Y126.223 E182.29621
G1 X48.758 Y126.445 E182.32571
G1 X49.273 Y126.524 E182.34681
G1 X49.635 Y126.535 E182.36148
G1 X49.704 Y126.532 E182.36427
G1 X49.774 Y126.535 E182.36711
G1 X50.479 Y126.434 E182.39595
G1 X51.101 Y126.230 E182.42246
G1 X51.731 Y125.888 E182.45149
G1 X52.307 Y125.414 E182.48169
G1 X52.775 Y124.843 E182.51159
G0 F10500 X62.804 Y107.223
G1 F1500 X63.418 Y107.559 E182.53993
G1 X64.111 Y107.783 E182.56942
G1 X64.625 Y107.861 E182.59047
G1 X65.005 Y107.873 E182.60587
G1 X65.517 Y107.832 E182.62667
G1 X66.105 Y107.695 E182.65111
G1 X66.575 Y107.512 E182.67154
G1 X67.111 Y107.207 E182.69651
G1 X67.656 Y106.755 E182.72518
G1 X68.075 Y106.260 E182.75144
G1 X68.388 Y105.733 E182.77626
G1 X68.592 Y105.238 E182.79794
G1 X68.746 Y104.572 E182.82562
G1 X68.781 Y104.180 E182.84156
G1 X68.782 Y103.995 E182.84905
G1 X68.717 Y103.316 E182.87667
G1 X68.509 Y102.603 E182.90675
G1 X68.178 Y101.966 E182.93581
G1 X67.991 Y101.699 E182.94901
G1 X67.682 Y101.343 E182.96810
G1 X67.399 Y101.082 E182.98369
G1 X66.901 Y100.731 E183.00836
G1 X66.234 Y100.418 E183.03820
G1 X65.556 Y100.246 E183.06652
G1 X65.135 Y100.202 E183.08366
G1 X64.893 Y100.199 E183.09346
G1 X64.836 Y100.201 E183.09577
G1 X64.763 Y100.198 E183.09873
G1 X64.050 Y100.300 E183.12790
G1 X63.346 Y100.543 E183.15805
G1 X62.707 Y100.914 E183.18797
G1 X62.207 Y101.340 E183.21457
G1 X61.755 Y101.897 E183.24362
G1 X61.405 Y102.545 E183.27344
G1 X61.206 Y103.156 E183.29946
G1 X61.126 Y103.645 E183.31953
G1 X61.106 Y104.051 E183.33599
G1 X61.154 Y104.652 E183.36040
G1 X61.301 Y105.244 E183.38510
G1 X61.485 Y105.698 E183.40494
G1 X61.680 Y106.055 E183.42141
G1 X62.036 Y106.544 E183.44590
G1 X62.467 Y106.969 E183.47041
G1 X62.804 Y107.223 E183.48750
G0 F10500 X61.408 Y105.209
G0 X61.316 Y103.184
G0 X61.102 Y83.989
G1 F1500 X61.172 Y83.992 E183.49034
G1 X61.878 Y83.891 E183.51922
G1 X62.501 Y83.687 E183.54576
G1 X63.104 Y83.359 E183.57356
G1 X63.367 Y83.169 E183.58670
G1 X63.731 Y82.846 E183.60640
G1 X64.112 Y82.388 E183.63053
G1 X64.323 Y82.059 E183.64636
G1 X64.444 Y81.830 E183.65684
G1 X64.638 Y81.357 E183.67754
G1 X64.792 Y80.691 E183.70522
G1 X64.827 Y80.299 E183.72116
G1 X64.828 Y80.114 E183.72865
G1 X64.764 Y79.443 E183.75595
G1 X64.589 Y78.812 E183.78246
G1 X64.281 Y78.174 E183.81115
G1 X63.901 Y77.648 E183.83743
G1 X63.463 Y77.216 E183.86234
G1 X63.036 Y76.906 E183.88371
G1 X62.488 Y76.619 E183.90875
G1 X61.822 Y76.407 E183.93706
G1 X61.318 Y76.332 E183.95769
G1 X61.020 Y76.316 E183.96977
G1 X60.418 Y76.358 E183.99421
G1 X59.724 Y76.529 E184.02315
G1 X59.070 Y76.832 E184.05234
G1 X58.727 Y77.055 E184.06891
G1 X58.415 Y77.309 E184.08520
G1 X57.994 Y77.751 E184.10992
G1 X57.618 Y78.323 E184.13763
G1 X57.479 Y78.604 E184.15033
G1 X57.260 Y79.247 E184.17783
G1 X57.172 Y79.762 E184.19899
G1 X57.152 Y80.170 E184.21553
G1 X57.201 Y80.778 E184.24023
G1 X57.379 Y81.462 E184.26885
G1 X57.653 Y82.057 E184.29538
G1 X58.061 Y82.638 E184.32413
G1 X58.511 Y83.086 E184.34984
G1 X58.849 Y83.341 E184.36698
G1 X59.463 Y83.680 E184.39538
G1 X60.157 Y83.902 E184.42489
G1 X60.672 Y83.981 E184.44599
G1 X61.033 Y83.992 E184.46061
G1 X61.102 Y83.989 E184.46341
G0 F10500 X61.104 Y83.363
;TYPE:WALL-OUTER
G1 F1500 X61.142 Y83.365 E184.46495
G1 X61.735 Y83.280 E184.48921
G1 X62.252 Y83.111 E184.51123
G1 X62.771 Y82.829 E184.53515
G1 X62.975 Y82.681 E184.54536
G1 X63.281 Y82.410 E184.56191
G1 X63.607 Y82.018 E184.58255
G1 X63.783 Y81.744 E184.59574
G1 X63.877 Y81.565 E184.60393
G1 X64.040 Y81.167 E184.62134
G1 X64.173 Y80.592 E184.64524
G1 X64.202 Y80.267 E184.65845
G1 X64.203 Y80.141 E184.66356
G1 X64.147 Y79.557 E184.68731
G1 X64.002 Y79.034 E184.70929
G1 X63.742 Y78.496 E184.73348
G1 X63.425 Y78.056 E184.75544
G1 X63.057 Y77.694 E184.77635
G1 X62.705 Y77.438 E184.79397
G1 X62.247 Y77.198 E184.81491
G1 X61.680 Y77.018 E184.83900
G1 X61.255 Y76.954 E184.85640
G1 X61.025 Y76.942 E184.86573
G1 X60.515 Y76.978 E184.88643
G1 X59.932 Y77.121 E184.91074
G1 X59.374 Y77.380 E184.93565
G1 X59.095 Y77.561 E184.94912
G1 X58.840 Y77.768 E184.96242
G1 X58.486 Y78.141 E184.98324
G1 X58.161 Y78.634 E185.00715
G1 X58.057 Y78.844 E185.01664
G1 X57.868 Y79.401 E185.04046
G1 X57.794 Y79.830 E185.05809
G1 X57.778 Y80.160 E185.07146
G1 X57.819 Y80.673 E185.09230
G1 X57.970 Y81.251 E185.11649
G1 X58.197 Y81.744 E185.13847
G1 X58.541 Y82.234 E185.16271
G1 X58.922 Y82.613 E185.18448
G1 X59.190 Y82.815 E185.19807
G1 X59.712 Y83.103 E185.22221
G1 X60.300 Y83.292 E185.24722
G1 X60.729 Y83.357 E185.26479
G1 X61.030 Y83.366 E185.27698
G1 X61.104 Y83.363 E185.27998
G0 F10500 X61.115 Y83.777
G0 X58.014 Y84.235
G0 X57.628 Y84.380
G1 F1500 X57.412 Y83.782 E185.30573
G1 X57.183 Y83.188 E185.33150
G1 X56.941 Y82.599 E185.35729
G1 X56.689 Y82.018 E185.38293
G1 X56.519 Y81.558 E185.40279
G1 X56.353 Y80.842 E185.43255
G1 X56.314 Y80.480 E185.44730
G1 X56.303 Y80.105 E185.46249
G1 X56.332 Y79.633 E185.48164
G1 X56.414 Y79.143 E185.50176
G1 X56.544 Y78.668 E185.52170
G1 X56.718 Y78.225 E185.54097
G1 X56.947 Y77.786 E185.56102
G1 X57.214 Y77.378 E185.58076
G1 X57.522 Y77.001 E185.60048
G1 X58.156 Y76.423 E185.63522
G1 X58.555 Y76.150 E185.65479
G1 X58.986 Y75.919 E185.67460
G1 X59.449 Y75.729 E185.69486
G1 X59.911 Y75.594 E185.71435
G1 X60.391 Y75.506 E185.73411
G1 X60.621 Y75.482 E185.74348
G1 X60.996 Y75.469 E185.75867
G1 X61.495 Y75.495 E185.77890
G1 X62.085 Y75.597 E185.80315
G1 X76.971 Y79.584 E186.42718
G1 X63.146 Y131.183 E188.59029
G1 X48.609 Y127.288 E189.19971
G1 X48.140 Y127.155 E189.21945
G1 X47.690 Y126.983 E189.23895
G1 X47.258 Y126.763 E189.25858
G1 X46.842 Y126.494 E189.27864
G1 X46.461 Y126.187 E189.29846
G1 X46.119 Y125.847 E189.31799
G1 X45.809 Y125.466 E189.33788
G1 X45.537 Y125.051 E189.35797
G1 X45.374 Y124.744 E189.37204
G1 X45.175 Y124.270 E189.39286
G1 X45.038 Y123.813 E189.41218
G1 X44.921 Y123.103 E189.44132
G1 X44.904 Y122.729 E189.45648
G1 X44.957 Y121.992 E189.48640
G1 X45.049 Y121.538 E189.50516
G1 X45.203 Y121.050 E189.52588
G1 X45.392 Y120.614 E189.54512
G1 X45.573 Y120.283 E189.56040
G1 X45.845 Y119.880 E189.58008
G1 X46.156 Y119.507 E189.59975
G1 X46.325 Y119.335 E189.60951
G1 X46.699 Y119.008 E189.62963
G1 X47.292 Y118.568 E189.65953
G1 X47.802 Y118.173 E189.68565
G1 X48.298 Y117.773 E189.71145
G1 X48.785 Y117.362 E189.73726
G1 X49.262 Y116.942 E189.76299
G1 X49.725 Y116.519 E189.78839
G1 X50.192 Y116.072 E189.81457
G1 X50.643 Y115.624 E189.84031
G1 X51.084 Y115.164 E189.86611
G1 X51.510 Y114.703 E189.89153
G1 X51.931 Y114.226 E189.91729
G1 X52.348 Y113.734 E189.94341
G1 X52.749 Y113.239 E189.96920
G1 X53.134 Y112.744 E189.99460
G1 X53.514 Y112.235 E190.02032
G1 X53.889 Y111.707 E190.04654
G1 X54.248 Y111.182 E190.07230
G1 X54.590 Y110.656 E190.09770
G1 X54.931 Y110.107 E190.12387
G1 X55.255 Y109.559 E190.14965
G1 X55.568 Y109.005 E190.17542
G1 X55.864 Y108.453 E190.20078
G1 X56.158 Y107.878 E190.22693
G1 X56.436 Y107.305 E190.25272
G1 X56.701 Y106.726 E190.27850
G1 X56.950 Y106.151 E190.30388
G1 X57.195 Y105.553 E190.33005
G1 X57.423 Y104.959 E190.35581
G1 X57.636 Y104.369 E190.38121
G1 X57.839 Y103.766 E190.40697
G1 X58.033 Y103.149 E190.43316
G1 X58.210 Y102.538 E190.45892
G1 X58.371 Y101.932 E190.48431
G1 X58.527 Y101.305 E190.51048
G1 X58.665 Y100.684 E190.53624
G1 X58.791 Y100.059 E190.56205
G1 X58.902 Y99.442 E190.58744
G1 X59.001 Y98.814 E190.61318
G1 X59.088 Y98.183 E190.63898
G1 X59.161 Y97.551 E190.66474
G1 X59.221 Y96.917 E190.69053
G1 X59.268 Y96.272 E190.71671
G1 X59.300 Y95.646 E190.74210
G1 X59.321 Y95.000 E190.76827
G1 X59.326 Y94.373 E190.79366
G1 X59.320 Y93.729 E190.81974
G1 X59.300 Y93.101 E190.84518
G1 X59.265 Y92.456 E190.87134
G1 X59.219 Y91.831 E190.89671
G1 X59.158 Y91.196 E190.92254
G1 X59.086 Y90.565 E190.94826
G1 X58.999 Y89.934 E190.97405
G1 X58.899 Y89.306 E190.99980
G1 X58.785 Y88.679 E191.02561
G1 X58.658 Y88.055 E191.05140
G1 X58.519 Y87.435 E191.07713
G1 X58.367 Y86.816 E191.10294
G1 X58.201 Y86.202 E191.12869
G1 X58.023 Y85.590 E191.15450
G1 X57.832 Y84.983 E191.18027
G1 X57.628 Y84.380 E191.20604
G0 F10500 X58.014 Y84.235
G0 X63.401 Y100.757
G0 X63.607 Y101.114
G1 F1500 X63.070 Y101.426 E191.23119
G1 X62.656 Y101.779 E191.25322
G1 X62.277 Y102.245 E191.27755
G1 X61.982 Y102.793 E191.30275
G1 X61.815 Y103.305 E191.32456
G1 X61.748 Y103.711 E191.34122
G1 X61.732 Y104.041 E191.35460
G1 X61.773 Y104.551 E191.37531
G1 X61.897 Y105.051 E191.39617
G1 X62.051 Y105.430 E191.41274
G1 X62.209 Y105.720 E191.42611
G1 X62.511 Y106.134 E191.44686
G1 X62.877 Y106.495 E191.46768
G1 X63.144 Y106.697 E191.48124
G1 X63.666 Y106.983 E191.50534
G1 X64.254 Y107.173 E191.53036
G1 X64.683 Y107.237 E191.54793
G1 X64.990 Y107.247 E191.56036
G1 X65.421 Y107.213 E191.57787
G1 X65.920 Y107.097 E191.59862
G1 X66.306 Y106.946 E191.61540
G1 X66.754 Y106.691 E191.63627
G1 X67.214 Y106.310 E191.66046
G1 X67.564 Y105.896 E191.68241
G1 X67.828 Y105.453 E191.70329
G1 X67.994 Y105.048 E191.72102
G1 X68.127 Y104.473 E191.74492
G1 X68.156 Y104.148 E191.75813
G1 X68.157 Y104.022 E191.76323
G1 X68.101 Y103.435 E191.78711
G1 X67.926 Y102.837 E191.81234
G1 X67.642 Y102.291 E191.83726
G1 X67.497 Y102.084 E191.84750
G1 X67.233 Y101.779 E191.86383
G1 X67.005 Y101.570 E191.87635
G1 X66.586 Y101.273 E191.89715
G1 X66.023 Y101.009 E191.92233
G1 X65.446 Y100.863 E191.94643
G1 X65.098 Y100.826 E191.96060
G1 X64.902 Y100.824 E191.96854
G1 X64.831 Y100.826 E191.97142
G1 X64.793 Y100.825 E191.97296
G1 X64.197 Y100.910 E191.99733
G1 X63.607 Y101.114 E192.02261
G0 F10500 X63.401 Y100.757
G0 X61.850 Y101.961
G0 X61.238 Y103.658
G0 X51.748 Y119.784
G0 X51.483 Y120.100
G1 F1500 X50.971 Y119.796 E192.04672
G1 X50.463 Y119.604 E192.06872
G1 X49.879 Y119.498 E192.09275
G1 X49.553 Y119.486 E192.10596
G1 X49.479 Y119.489 E192.10896
G1 X49.442 Y119.487 E192.11046
G1 X48.925 Y119.554 E192.13157
G1 X48.357 Y119.732 E192.15567
G1 X47.947 Y119.937 E192.17423
G1 X47.609 Y120.169 E192.19083
G1 X47.305 Y120.439 E192.20730
G1 X47.087 Y120.685 E192.22061
G1 X46.853 Y121.017 E192.23706
G1 X46.659 Y121.383 E192.25383
G1 X46.469 Y121.944 E192.27781
G1 X46.395 Y122.372 E192.29540
G1 X46.378 Y122.705 E192.30890
G1 X46.435 Y123.295 E192.33291
G1 X46.580 Y123.818 E192.35488
G1 X46.840 Y124.356 E192.37908
G1 X47.157 Y124.796 E192.40104
G1 X47.523 Y125.157 E192.42186
G1 X47.791 Y125.359 E192.43545
G1 X48.313 Y125.646 E192.45957
G1 X48.901 Y125.835 E192.48458
G1 X49.330 Y125.900 E192.50215
G1 X49.632 Y125.909 E192.51438
G1 X49.704 Y125.906 E192.51730
G1 X49.743 Y125.908 E192.51888
G1 X50.336 Y125.823 E192.54314
G1 X50.852 Y125.654 E192.56513
G1 X51.380 Y125.367 E192.58946
G1 X51.863 Y124.971 E192.61475
G1 X52.257 Y124.489 E192.63996
G1 X52.522 Y124.016 E192.66192
G1 X52.715 Y123.451 E192.68609
G1 X52.790 Y123.002 E192.70453
G1 X52.804 Y122.692 E192.71709
G1 X52.763 Y122.179 E192.73793
G1 X52.611 Y121.602 E192.76209
G1 X52.386 Y121.110 E192.78400
G1 X52.095 Y120.684 E192.80489
G1 X51.801 Y120.366 E192.82243
G1 X51.483 Y120.100 E192.83921
G0 F10500 X51.748 Y119.784
G0 X53.163 Y120.780
;TYPE:SKIN
G1 F1500 X62.525 Y130.143 E193.37537
G0 F10500 X62.732 Y129.466
G1 F1500 X50.353 Y117.086 E194.08430
G0 F10500 X50.804 Y116.654
G1 F1500 X62.919 Y128.769 E194.77808
G0 F10500 X63.105 Y128.071
G1 F1500 X51.246 Y116.212 E195.45720
G0 F10500 X51.678 Y115.761
G1 F1500 X63.292 Y127.374 E196.12226
G0 F10500 X63.479 Y126.677
G1 F1500 X52.103 Y115.302 E196.77369
G0 F10500 X52.518 Y114.832
G1 F1500 X63.665 Y125.980 E197.41206
G0 F10500 X63.853 Y125.283
G1 F1500 X52.925 Y114.356 E198.03784
G0 F10500 X53.322 Y113.869
G1 F1500 X64.039 Y124.586 E198.65156
G0 F10500 X64.226 Y123.889
G1 F1500 X53.711 Y113.374 E199.25372
G0 F10500 X54.091 Y112.870
G1 F1500 X64.413 Y123.192 E199.84482
G0 F10500 X64.599 Y122.494
G1 F1500 X54.461 Y112.356 E200.42538
G0 F10500 X54.822 Y111.833
G1 F1500 X64.786 Y121.797 E200.99598
G0 F10500 X64.973 Y121.101
G1 F1500 X55.174 Y111.302 E201.55714
G0 F10500 X55.517 Y110.761
G1 F1500 X65.160 Y120.404 E202.10935
G0 F10500 X61.317 Y129.819
G1 F1500 X53.603 Y122.105 E202.55110
G0 F10500 X53.634 Y123.020
G1 F1500 X60.110 Y129.496 E202.92196
G0 F10500 X58.902 Y129.172
G1 F1500 X53.497 Y123.767 E203.23148
G0 F10500 X53.263 Y124.416
G1 F1500 X57.695 Y128.848 E203.48529
G0 F10500 X56.487 Y128.525
G1 F1500 X52.943 Y124.981 E203.68824
G0 F10500 X52.545 Y125.466
G1 F1500 X55.280 Y128.201 E203.84486
G0 F10500 X54.073 Y127.878
G1 F1500 X52.079 Y125.884 E203.95905
G0 F10500 X51.547 Y126.236
G1 F1500 X52.865 Y127.554 E204.03453
G0 F10500 X51.658 Y127.231
G1 F1500 X50.694 Y126.709 E204.07565
G1 X50.234 Y126.690 E204.09429
G0 F10500 X52.681 Y124.778
G0 X53.317 Y122.683
G0 X52.833 Y120.857
G0 X51.523 Y119.141
G1 F1500 X49.892 Y117.509 E204.18772
G0 F10500 X49.423 Y117.924
G1 F1500 X49.733 Y118.676 E204.23199
G1 X48.945 Y118.330 E204.26684
G0 F10500 X55.850 Y110.209
G1 F1500 X65.347 Y119.706 E204.81070
G0 F10500 X65.533 Y119.009
G1 F1500 X56.173 Y109.648 E205.34674
G0 F10500 X56.485 Y109.077
G1 F1500 X65.720 Y118.312 E205.87559
G0 F10500 X65.907 Y117.615
G1 F1500 X56.789 Y108.497 E206.39775
G0 F10500 X57.081 Y107.905
G1 F1500 X66.094 Y116.918 E206.91389
G0 F10500 X66.281 Y116.221
G1 F1500 X57.363 Y107.303 E207.42459
G0 F10500 X57.635 Y106.691
G1 F1500 X66.468 Y115.524 E207.93042
G0 F10500 X66.654 Y114.827
G1 F1500 X57.895 Y106.068 E208.43201
G0 F10500 X58.144 Y105.433
G1 F1500 X66.841 Y114.129 E208.93003
G0 F10500 X67.028 Y113.432
G1 F1500 X58.382 Y104.786 E209.42515
G0 F10500 X58.607 Y104.127
G1 F1500 X67.214 Y112.735 E209.91807
G0 F10500 X67.402 Y112.038
G1 F1500 X62.872 Y107.509 E210.17746
G0 F10500 X64.276 Y108.029
G1 F1500 X67.588 Y111.341 E210.36712
G0 F10500 X67.775 Y110.644
G1 F1500 X65.207 Y108.076 E210.51418
G0 F10500 X65.966 Y107.951
G1 F1500 X67.962 Y109.947 E210.62849
G0 F10500 X68.148 Y109.250
G1 F1500 X66.625 Y107.726 E210.71573
G0 F10500 X67.194 Y107.411
G1 F1500 X68.335 Y108.552 E210.78107
G0 F10500 X68.522 Y107.856
G1 F1500 X67.895 Y106.787 E210.82909
G1 X68.802 Y106.810 E210.86348
G1 X68.606 Y105.730 E210.88808
G1 X69.175 Y105.415 E210.90717
G1 X69.194 Y104.550 E210.92640
G1 X69.318 Y103.790 E210.95284
G1 X68.804 Y102.834 E210.99679
G0 F10500 X69.830 Y102.976
G1 F1500 X60.150 Y93.296 E211.55113
G0 F10500 X60.167 Y94.197
G1 F1500 X66.136 Y100.166 E211.89295
G0 F10500 X64.250 Y100.048
G1 F1500 X60.129 Y95.927 E212.12894
G0 F10500 X60.077 Y96.759
G1 F1500 X63.555 Y100.237 E212.32812
G0 F10500 X62.951 Y100.517
G1 F1500 X60.005 Y97.571 E212.49682
G0 F10500 X60.162 Y95.076
G1 F1500 X65.067 Y99.981 E212.77771
G0 F10500 X70.203 Y101.582
G1 F1500 X60.025 Y91.404 E213.36057
G0 F10500 X60.104 Y92.366
G1 F1500 X70.017 Y102.279 E213.92825
G0 F10500 X70.390 Y100.885
G1 F1500 X59.918 Y90.412 E214.52797
G0 F10500 X59.764 Y89.375
G1 F1500 X70.577 Y100.187 E215.14716
G0 F10500 X64.076 Y100.411
G0 X62.420 Y100.870
G1 F1500 X59.914 Y98.364 E215.29067
G0 F10500 X59.804 Y99.137
G1 F1500 X61.961 Y101.295 E215.41422
G0 F10500 X61.567 Y101.784
G1 F1500 X59.677 Y99.895 E215.52242
G0 F10500 X70.764 Y99.491
G1 F1500 X59.568 Y88.295 E216.16358
G0 F10500 X59.321 Y87.164
G1 F1500 X70.951 Y98.794 E216.82958
G0 F10500 X71.137 Y98.096
G1 F1500 X59.013 Y85.972 E217.52388
G0 F10500 X58.628 Y84.703
G1 F1500 X71.324 Y97.399 E218.25093
G0 F10500 X71.511 Y96.702
G1 F1500 X58.143 Y83.335 E219.01644
G0 F10500 X59.667 Y83.974
G1 F1500 X71.697 Y96.005 E219.70538
G0 F10500 X71.885 Y95.308
G1 F1500 X60.779 Y84.202 E220.34138
G0 F10500 X61.610 Y84.150
G1 F1500 X72.071 Y94.611 E220.94044
G0 F10500 X72.258 Y93.914
G1 F1500 X62.320 Y83.976 E221.50955
G0 F10500 X62.931 Y83.703
G1 F1500 X72.445 Y93.217 E222.05438
G0 F10500 X72.631 Y92.519
G1 F1500 X63.473 Y83.361 E222.57882
G0 F10500 X63.936 Y82.940
G1 F1500 X72.818 Y91.822 E223.08746
G0 F10500 X73.005 Y91.126
G1 F1500 X64.331 Y82.451 E223.58422
G0 F10500 X64.655 Y81.891
G1 F1500 X73.192 Y90.429 E224.07313
G0 F10500 X73.379 Y89.731
G1 F1500 X64.888 Y81.240 E224.55938
G0 F10500 X65.029 Y80.497
G1 F1500 X73.565 Y89.034 E225.04823
G0 F10500 X73.752 Y88.337
G1 F1500 X64.996 Y79.581 E225.54965
G0 F10500 X64.570 Y78.271
G1 F1500 X73.939 Y87.640 E226.08618
G0 F10500 X74.126 Y86.943
G1 F1500 X64.239 Y77.056 E226.65237
G0 F10500 X65.444 Y77.377
G1 F1500 X74.313 Y86.246 E227.16026
G0 F10500 X74.500 Y85.549
G1 F1500 X66.651 Y77.700 E227.60975
G0 F10500 X67.856 Y78.022
G1 F1500 X74.686 Y84.852 E228.00087
G0 F10500 X74.873 Y84.154
G1 F1500 X69.062 Y78.343 E228.33365
G0 F10500 X70.268 Y78.665
G1 F1500 X75.060 Y83.457 E228.60807
G0 F10500 X75.246 Y82.760
G1 F1500 X71.474 Y78.988 E228.82408
G0 F10500 X72.679 Y79.309
G1 F1500 X75.434 Y82.063 E228.98181
G0 F10500 X75.620 Y81.366
G1 F1500 X73.885 Y79.631 E229.08117
G0 F10500 X75.091 Y79.953
G1 F1500 X75.807 Y80.669 E229.12217
G0 F10500 X59.535 Y100.636
G1 F1500 X61.257 Y102.358 E229.22079
G0 F10500 X61.023 Y103.008
G1 F1500 X59.377 Y101.363 E229.31502
G0 F10500 X59.203 Y102.072
G1 F1500 X60.900 Y103.769 E229.41220
G0 F10500 X60.937 Y104.690
G1 F1500 X59.020 Y102.773 E229.52198
G0 F10500 X58.819 Y103.456
G1 F1500 X61.448 Y106.085 E229.67253
;LAYER:1
M106 S51
G1 F420 E227.67253
G1 Z0.525
G0 F10500 X63.583 Y71.159 Z0.775
;TYPE:WALL-INNER
G1 Z0.775
G1 F420 E229.67253
G1 F1560 X63.048 Y71.016 E229.68730
G1 X62.604 Y70.872 E229.69976
G1 X62.213 Y70.698 E229.71117
G1 X61.817 Y70.470 E229.72337
G1 X61.462 Y70.213 E229.73506
G1 X61.136 Y69.921 E229.74673
G1 X60.833 Y69.586 E229.75878
G1 X60.576 Y69.235 E229.77039
