; generated by Slic3r 1.1.7 on 2015-08-11 at 13:30:02

; perimeters extrusion width = 0.50mm
; infill extrusion width = 0.65mm
; solid infill extrusion width = 0.55mm
; top infill extrusion width = 0.43mm

G21 ; set units to millimeters
M107

M301 P34 I4 D113     ; set PID nozzle
M304 P162 I17 D378 ; set PID Bed


;M104 S230                 ; set extruder temp for budaschnozzle
M104 S250                 ; set extruder temp for hex_hot_end
;M140 S100                 ; set bed temp for PET
M140 S105                 ; set bed temp for PEI (reminder ~G1 Z2 ~ M140 S(@-10 degree change) ;if -m is present in file name)

G28                            ; home
G1 Z5 F300                ; move bed down 5mm
M84                            ; disable steppers
G4 S300                     ; wait 5 mins to preheat

G28                            ; home

G90 ; use absolute coordinates
G92 E0
M82 ; use absolute distances for extrusion
M204 S1800
G1 F1200.000 E-1.20000
G92 E0
G1 Z0.350 F9600.000
G1 X128.301 Y110.401 F9600.000
G1 E1.20000 F1200.000
G1 X130.039 Y109.012 E1.27333 F1080.000
G1 X133.000 Y108.264 E1.37400
G1 X161.309 Y108.264 E2.30717
G1 X163.498 Y108.661 E2.38050
G1 X165.408 Y109.801 E2.45382 F1080.000
G1 X167.159 Y112.341 E2.55550
G1 X170.850 Y122.341 E2.90688
G1 X171.236 Y124.500 E2.97919
G1 X171.236 Y158.920 E4.11379
G1 X170.839 Y161.109 E4.18712
G1 X169.699 Y163.019 E4.26045
G1 X167.961 Y164.407 E4.33378
G1 X165.000 Y165.155 E4.43445
G1 X159.000 Y165.155 E4.63223
G1 X156.811 Y164.759 E4.70556
G1 X154.901 Y163.619 E4.77889
G1 X154.004 Y162.652 E4.82236
G1 X133.803 Y135.573 E5.93600
G1 X127.709 Y125.800 E6.31567
G1 X126.887 Y123.732 E6.38900
G1 X126.764 Y122.500 E6.42982
G1 X126.764 Y114.500 E6.69353
G1 X127.161 Y112.311 E6.76686
G1 X128.263 Y110.465 E6.83771
G1 X128.847 Y110.749 F9600.000
G1 X128.912 Y110.647 E6.84169 F1080.000
G1 X130.622 Y109.410 E6.91126
G1 X133.000 Y108.882 E6.99155
G1 X161.309 Y108.882 E7.92471
G1 X163.382 Y109.279 E7.99428
G1 X165.162 Y110.412 E8.06385 F1080.000
G1 X166.579 Y112.555 E8.14853
G1 X170.270 Y122.555 E8.49991
G1 X170.618 Y124.500 E8.56505
G1 X170.618 Y158.920 E9.69965
G1 X170.221 Y160.993 E9.76922
G1 X169.088 Y162.773 E9.83879
G1 X167.378 Y164.010 E9.90836
G1 X165.000 Y164.538 E9.98865
G1 X159.000 Y164.538 E10.18643
G1 X156.927 Y164.141 E10.25600
G1 X154.499 Y162.282 E10.35680
G1 X134.327 Y135.246 E11.46874
G1 X128.233 Y125.473 E11.84840
G1 X127.382 Y122.500 E11.95032
G1 X127.382 Y114.500 E12.21404
G1 X127.779 Y112.427 E12.28361
G1 X128.807 Y110.812 E12.34672
G1 F1200.000 E11.14672
G92 E0
G1 X160.984 Y124.825 F9600.000
G1 E1.20000 F1200.000
G1 X164.675 Y124.825 E1.32168 F1170.000
G1 X164.675 Y158.595 E2.43485
G1 X159.325 Y158.595 E2.61121
G1 X159.325 Y138.760 E3.26505
G1 X159.277 Y138.200 E3.28358
G1 X159.216 Y137.921 E3.29297
G1 X159.025 Y137.385 E3.31173
G1 X158.895 Y137.131 E3.32112
G1 X158.574 Y136.662 E3.33988
G1 X158.385 Y136.449 E3.34927
G1 X157.955 Y136.076 E3.36803
G1 X157.717 Y135.919 E3.37742
G1 X157.467 Y135.782 E3.38681
G1 X156.937 Y135.576 E3.40557
G1 X156.379 Y135.463 E3.42433
G1 X156.095 Y135.443 E3.43372
G1 X155.527 Y135.475 E3.45248
G1 X154.972 Y135.604 E3.47124
G1 X154.706 Y135.704 E3.48063
G1 X153.545 Y136.254 E3.52298
G1 X152.608 Y136.603 E3.55594
G1 X151.644 Y136.871 E3.58890
G1 X150.661 Y137.056 E3.62187
G1 X149.667 Y137.156 E3.65483
G1 X148.667 Y137.170 E3.68779
G1 X147.669 Y137.099 E3.72076
G1 X146.682 Y136.942 E3.75372
G1 X145.711 Y136.702 E3.78668
G1 X144.764 Y136.379 E3.81965
G1 X143.849 Y135.977 E3.85261
G1 X142.971 Y135.498 E3.88557
G1 X142.138 Y134.945 E3.91854
G1 X141.355 Y134.323 E3.95150
G1 X140.628 Y133.637 E3.98446
G1 X139.962 Y132.890 E4.01743
G1 X139.363 Y132.090 E4.05039
G1 X138.834 Y131.241 E4.08335
G1 X138.380 Y130.350 E4.11631
G1 X138.004 Y129.423 E4.14928
G1 X137.709 Y128.468 E4.18224
G1 X137.496 Y127.491 E4.21520
G1 X137.368 Y126.499 E4.24817
G1 X137.313 Y125.210 E4.29069
G1 X137.275 Y124.923 E4.30026
G1 X137.212 Y124.640 E4.30982
G1 X137.125 Y124.363 E4.31938
G1 X137.014 Y124.095 E4.32894
G1 X136.880 Y123.837 E4.33851
G1 X136.724 Y123.593 E4.34807
G1 X136.547 Y123.363 E4.35763
G1 X136.351 Y123.149 E4.36719
G1 X136.137 Y122.953 E4.37676
G1 X135.907 Y122.776 E4.38632
G1 X135.663 Y122.620 E4.39588
G1 X135.405 Y122.486 E4.40545
G1 X135.137 Y122.375 E4.41500
G1 X134.861 Y122.288 E4.42457
G1 X134.577 Y122.225 E4.43413
G1 X134.007 Y122.175 E4.45300
G1 X133.325 Y122.175 E4.47549
G1 X133.325 Y114.825 E4.71777
G1 X160.984 Y114.825 E5.62951
G1 X160.984 Y124.750 E5.95668
G1 X160.984 Y125.325 F9600.000
G1 X160.366 Y125.443 F9600.000
G1 X164.057 Y125.443 E6.07836 F1620.000
G1 X164.057 Y157.977 E7.15080
G1 X159.943 Y157.977 E7.28643
G1 X159.943 Y138.746 E7.92034
G1 X159.929 Y138.429 E7.93081
G1 X159.886 Y138.094 E7.94194
G1 X159.814 Y137.764 E7.95307
G1 X159.714 Y137.441 E7.96421
G1 X159.587 Y137.128 E7.97535
G1 X159.434 Y136.827 E7.98648
G1 X159.255 Y136.541 E7.99761
G1 X159.053 Y136.270 E8.00875
G1 X158.828 Y136.018 E8.01988
G1 X158.583 Y135.786 E8.03102
G1 X158.318 Y135.576 E8.04215
G1 X158.037 Y135.389 E8.05329
G1 X157.740 Y135.228 E8.06442
G1 X157.431 Y135.092 E8.07556
G1 X157.111 Y134.983 E8.08669
G1 X156.783 Y134.901 E8.09783
G1 X156.450 Y134.849 E8.10896
G1 X156.113 Y134.825 E8.12010
G1 X155.775 Y134.829 E8.13123
G1 X155.439 Y134.863 E8.14237
G1 X155.107 Y134.925 E8.15350
G1 X154.781 Y135.016 E8.16464
G1 X154.465 Y135.134 E8.17577
G1 X153.304 Y135.684 E8.21813
G1 X152.417 Y136.015 E8.24934
G1 X151.504 Y136.269 E8.28056
G1 X150.573 Y136.444 E8.31178
G1 X149.631 Y136.538 E8.34299
G1 X148.684 Y136.552 E8.37421
G1 X147.740 Y136.484 E8.40543
G1 X146.804 Y136.336 E8.43664
G1 X145.885 Y136.109 E8.46786
G1 X144.989 Y135.803 E8.49908
G1 X144.122 Y135.422 E8.53030
G1 X143.291 Y134.968 E8.56151
G1 X142.501 Y134.445 E8.59273
G1 X141.760 Y133.856 E8.62395
G1 X141.071 Y133.206 E8.65516
G1 X140.441 Y132.499 E8.68638
G1 X139.873 Y131.741 E8.71760
G1 X139.373 Y130.937 E8.74882
G1 X138.943 Y130.093 E8.78003
G1 X138.587 Y129.216 E8.81125
G1 X138.307 Y128.311 E8.84247
G1 X138.106 Y127.385 E8.87368
G1 X137.984 Y126.446 E8.90490
G1 X137.929 Y125.156 E8.94746
G1 X137.884 Y124.815 E8.95880
G1 X137.809 Y124.479 E8.97014
G1 X137.706 Y124.151 E8.98148
G1 X137.574 Y123.833 E8.99282
G1 X137.415 Y123.528 E9.00417
G1 X137.230 Y123.238 E9.01551
G1 X137.021 Y122.965 E9.02685
G1 X136.789 Y122.711 E9.03819
G1 X136.535 Y122.479 E9.04953
G1 X136.262 Y122.270 E9.06087
G1 X135.972 Y122.085 E9.07221
G1 X135.667 Y121.926 E9.08355
G1 X135.349 Y121.794 E9.09489
G1 X135.021 Y121.691 E9.10623
G1 X134.685 Y121.616 E9.11757
G1 X134.344 Y121.571 E9.12891
G1 X133.943 Y121.554 E9.14214
G1 X133.943 Y115.443 E9.34359
G1 X146.384 Y115.443 E9.75370
G1 X146.449 Y115.862 E9.76768
G1 X145.590 Y116.133 E9.79734
G1 X144.787 Y116.465 E9.82601
G1 X144.016 Y116.867 E9.85468
G1 X143.282 Y117.334 E9.88335
G1 X142.592 Y117.864 E9.91201
G1 X141.839 Y118.574 E9.94615
G1 X141.364 Y119.092 E9.96933
G1 X140.834 Y119.782 E9.99800
G1 X140.367 Y120.516 E10.02667
G1 X139.965 Y121.287 E10.05533
G1 X139.632 Y122.091 E10.08400
G1 X139.371 Y122.920 E10.11266
G1 X139.183 Y123.769 E10.14133
G1 X139.069 Y124.631 E10.17000
G1 X139.031 Y125.500 E10.19867
G1 X139.091 Y126.534 E10.23280
G1 X139.183 Y127.231 E10.25599
G1 X139.371 Y128.080 E10.28465
G1 X139.632 Y128.910 E10.31332
G1 X139.965 Y129.713 E10.34199
G1 X140.367 Y130.484 E10.37065
G1 X140.834 Y131.218 E10.39932
G1 X141.364 Y131.908 E10.42799
G1 X141.951 Y132.549 E10.45666
G1 X142.724 Y133.238 E10.49079
G1 X143.282 Y133.666 E10.51397
G1 X144.016 Y134.133 E10.54264
G1 X144.787 Y134.535 E10.57131
G1 X145.591 Y134.868 E10.59998
G1 X146.420 Y135.129 E10.62864
G1 X147.434 Y135.339 E10.66278
G1 X148.131 Y135.431 E10.68596
G1 X149.000 Y135.469 E10.71463
G1 X149.869 Y135.431 E10.74330
G1 X150.731 Y135.317 E10.77196
G1 X151.739 Y135.079 E10.80609
G1 X152.410 Y134.868 E10.82928
G1 X153.213 Y134.535 E10.85795
G1 X153.984 Y134.133 E10.88661
G1 X154.718 Y133.666 E10.91528
G1 X155.530 Y133.024 E10.94941
G1 X156.049 Y132.549 E10.97260
G1 X156.636 Y131.908 E11.00127
G1 X157.166 Y131.218 E11.02993
G1 X157.633 Y130.484 E11.05860
G1 X158.035 Y129.713 E11.08727
G1 X158.368 Y128.910 E11.11594
G1 X158.629 Y128.080 E11.14460
G1 X158.817 Y127.231 E11.17327
G1 X158.931 Y126.369 E11.20194
G1 X158.969 Y125.500 E11.23061
G1 X158.909 Y124.466 E11.26474
G1 X158.817 Y123.769 E11.28792
G1 X158.629 Y122.920 E11.31659
G1 X158.368 Y122.091 E11.34526
G1 X158.035 Y121.287 E11.37392
G1 X157.633 Y120.516 E11.40259
G1 X157.166 Y119.782 E11.43126
G1 X156.636 Y119.092 E11.45993
G1 X156.049 Y118.451 E11.48859
G1 X155.408 Y117.864 E11.51726
G1 X154.578 Y117.245 E11.55139
G1 X153.984 Y116.867 E11.57458
G1 X153.213 Y116.465 E11.60324
G1 X152.409 Y116.133 E11.63191
G1 X151.551 Y115.862 E11.66158
G1 X151.616 Y115.443 E11.67555
G1 X160.366 Y115.443 E11.96399
G1 X160.366 Y125.368 E12.29116
G1 F1200.000 E11.09116
G92 E0
G1 X158.350 Y125.500 F9600.000
G1 E1.20000 F1200.000
G1 X158.315 Y126.315 E1.22689 F1170.000
G1 X158.208 Y127.124 E1.25378
G1 X158.032 Y127.920 E1.28067
G1 X157.786 Y128.698 E1.30756
G1 X157.474 Y129.452 E1.33444
G1 X157.098 Y130.175 E1.36133
G1 X156.659 Y130.863 E1.38822
G1 X156.163 Y131.510 E1.41511
G1 X155.612 Y132.112 E1.44200
G1 X155.010 Y132.663 E1.46889
G1 X154.474 Y133.075 E1.49119
G1 X153.675 Y133.598 E1.52265
G1 X152.952 Y133.974 E1.54954
G1 X152.198 Y134.287 E1.57643
G1 X151.420 Y134.532 E1.60332
G1 X150.624 Y134.708 E1.63021
G1 X149.815 Y134.815 E1.65710
G1 X149.000 Y134.850 E1.68399
G1 X148.185 Y134.815 E1.71088
G1 X147.514 Y134.727 E1.73317
G1 X146.580 Y134.532 E1.76464
G1 X145.802 Y134.287 E1.79153
G1 X145.177 Y134.028 E1.81382
G1 X144.325 Y133.598 E1.84529
G1 X143.637 Y133.159 E1.87218
G1 X143.100 Y132.748 E1.89448
G1 X142.388 Y132.112 E1.92594
G1 X141.837 Y131.510 E1.95283
G1 X141.341 Y130.863 E1.97972
G1 X140.902 Y130.175 E2.00661
G1 X140.526 Y129.452 E2.03350
G1 X140.214 Y128.698 E2.06039
G1 X139.968 Y127.920 E2.08728
G1 X139.792 Y127.124 E2.11417
G1 X139.685 Y126.315 E2.14106
G1 X139.650 Y125.500 E2.16794
G1 X139.685 Y124.685 E2.19483
G1 X139.792 Y123.876 E2.22172
G1 X139.968 Y123.080 E2.24861
G1 X140.214 Y122.302 E2.27550
G1 X140.526 Y121.548 E2.30239
G1 X140.902 Y120.825 E2.32928
G1 X141.341 Y120.137 E2.35617
G1 X141.837 Y119.490 E2.38306
G1 X142.294 Y118.991 E2.40535
G1 X142.990 Y118.337 E2.43682
G1 X143.637 Y117.841 E2.46371
G1 X144.325 Y117.402 E2.49060
G1 X145.048 Y117.026 E2.51748
G1 X145.802 Y116.714 E2.54437
G1 X146.580 Y116.468 E2.57126
G1 X147.376 Y116.292 E2.59815
G1 X148.185 Y116.185 E2.62504
G1 X149.000 Y116.150 E2.65193
G1 X149.676 Y116.179 E2.67422
G1 X150.624 Y116.292 E2.70569 F1170.000
G1 X151.420 Y116.468 E2.73258
G1 X152.198 Y116.714 E2.75947
G1 X152.952 Y117.026 E2.78636
G1 X153.675 Y117.402 E2.81325
G1 X154.363 Y117.841 E2.84014
G1 X155.010 Y118.337 E2.86703
G1 X155.612 Y118.888 E2.89392
G1 X156.163 Y119.490 E2.92080
G1 X156.659 Y120.137 E2.94769
G1 X157.098 Y120.825 E2.97458
G1 X157.474 Y121.548 E3.00147
G1 X157.786 Y122.302 E3.02836
G1 X158.032 Y123.080 E3.05525
G1 X158.208 Y123.876 E3.08214
G1 X158.315 Y124.685 E3.10903
G1 X158.347 Y125.425 E3.13344
G1 F1200.000 E1.93344
G92 E0
G1 X149.583 Y115.688 F9600.000
G1 X163.589 Y125.871 F9600.000
G1 E1.20000 F1200.000
G1 X163.629 Y125.911 E1.20186 F1980.000
G1 X163.629 Y126.805 E1.23133
G1 X162.696 Y125.871 E1.27486
G1 X161.802 Y125.871 E1.30432
G1 X163.629 Y127.698 E1.38951
G1 X163.629 Y128.592 E1.41898
G1 X160.908 Y125.871 E1.54584
G1 X160.309 Y126.166 E1.56784
G1 X163.629 Y129.486 E1.72261
G1 X163.629 Y130.380 E1.75207
G1 X159.435 Y126.185 E1.94761
G1 X159.288 Y126.932 E1.97272
G1 X163.629 Y131.273 E2.17509
G1 X163.629 Y132.167 E2.20455
G1 X159.154 Y127.691 E2.41320
G1 X158.975 Y128.406 E2.43750
G1 X163.629 Y133.061 E2.65448
G1 X163.629 Y133.955 E2.68394
G1 X158.759 Y129.084 E2.91100
G1 X158.497 Y129.716 E2.93355
G1 X163.629 Y134.848 E3.17282
G1 X163.629 Y135.742 E3.20228
G1 X158.203 Y130.316 E3.45524
G1 X157.883 Y130.889 E3.47688
G1 X163.629 Y136.636 E3.74478
G1 X163.629 Y137.530 E3.77424
G1 X157.535 Y131.435 E4.05835
G1 X157.149 Y131.943 E4.07938
G1 X163.629 Y138.423 E4.38148
G1 X163.629 Y139.317 E4.41095
G1 X156.735 Y132.423 E4.73236
G1 X156.309 Y132.891 E4.75322
G1 X163.629 Y140.211 E5.09446
G1 X163.629 Y141.105 E5.12392
G1 X160.242 Y137.717 E5.28184
G1 X160.371 Y138.740 E5.31581
G1 X163.629 Y141.999 E5.46772
G1 X163.629 Y142.892 E5.49718
G1 X160.371 Y139.634 E5.64909
G1 X160.371 Y140.527 E5.67856
G1 X163.629 Y143.786 E5.83046
G1 X163.629 Y144.680 E5.85993
G1 X160.371 Y141.421 E6.01184
G1 X160.371 Y142.315 E6.04130
G1 X163.629 Y145.574 E6.19321
G1 X163.629 Y146.467 E6.22267
G1 X160.371 Y143.209 E6.37458
G1 X160.371 Y144.103 E6.40404
G1 X163.629 Y147.361 E6.55595
G1 X163.629 Y148.255 E6.58541
G1 X160.371 Y144.996 E6.73732
G1 X160.371 Y145.890 E6.76678
G1 X163.629 Y149.149 E6.91869
G1 X163.629 Y150.042 E6.94815
G1 X160.371 Y146.784 E7.10006
G1 X160.371 Y147.678 E7.12952
G1 X163.629 Y150.936 E7.28143
G1 X163.629 Y151.830 E7.31089
G1 X160.371 Y148.571 E7.46280
G1 X160.371 Y149.465 E7.49226
G1 X163.629 Y152.724 E7.64417
G1 X163.629 Y153.617 E7.67363
G1 X160.371 Y150.359 E7.82554
G1 X160.371 Y151.253 E7.85500
G1 X163.629 Y154.511 E8.00691
G1 X163.629 Y155.405 E8.03638
G1 X160.371 Y152.146 E8.18828
G1 X160.371 Y153.040 E8.21775
G1 X163.629 Y156.299 E8.36965
G1 X163.629 Y157.193 E8.39912
G1 X160.371 Y153.934 E8.55103
G1 X160.371 Y154.828 E8.58049
G1 X163.092 Y157.549 E8.70735
G1 X162.198 Y157.549 E8.73681
G1 X160.371 Y155.721 E8.82201
G1 X160.371 Y156.615 E8.85147
G1 X161.304 Y157.549 E8.89500
G1 X160.411 Y157.549 E8.92446
G1 X160.371 Y157.509 E8.92632
G1 F1200.000 E7.72632
G92 E0
G1 X164.000 Y139.588 F9600.000
G1 X157.052 Y134.527 F9600.000
G1 E1.20000 F1200.000
G1 X155.843 Y133.318 E1.25635 F1980.000
G1 X155.351 Y133.720 E1.27729
G1 X156.029 Y134.398 E1.30890
G1 X155.208 Y134.471 E1.33605
G1 X155.021 Y134.284 E1.34477
G1 F1200.000 E0.14477
G92 E0
G1 X164.000 Y129.588 F9600.000
G1 X159.673 Y125.752 F9600.000
G1 E1.20000 F1200.000
G1 X159.648 Y124.586 E1.23489 F810.000
G1 X159.571 Y123.409 E1.27022
G1 X159.077 Y122.964 F9600.000
G1 X159.122 Y123.009 E1.27233 F1980.000
G1 X159.924 Y122.931 E1.29887
G1 X158.652 Y121.660 E1.35814
G1 F1200.000 E0.15814
G92 E0
G1 X157.707 Y119.835 F9600.000
G1 E1.20000 F1200.000
G1 X159.938 Y122.066 E1.30401 F1980.000
G1 X159.938 Y121.187 E1.33300
G1 X154.622 Y115.871 E1.58082
G1 X155.501 Y115.871 E1.60981
G1 X159.938 Y120.308 E1.81664
G1 X159.938 Y119.428 E1.84563
G1 X156.381 Y115.871 E2.01147
G1 X157.260 Y115.871 E2.04045
G1 X159.938 Y118.549 E2.16530
G1 X159.938 Y117.669 E2.19429
G1 X158.139 Y115.871 E2.27814
G1 X159.019 Y115.871 E2.30713
G1 X159.938 Y116.790 E2.34999
G1 X159.938 Y115.911 E2.37897
G1 X159.898 Y115.871 E2.38084
G1 F1200.000 E1.18084
G92 E0
G1 X154.665 Y116.793 F9600.000
G1 E1.20000 F1200.000
G1 X153.743 Y115.871 E1.24300 F1980.000
G1 F1200.000 E0.04300
G92 E0
G1 X151.276 Y115.621 F9600.000
G1 E1.20000 F1200.000
G1 X150.733 Y115.562 E1.21633 F810.000
G1 X149.891 Y115.507 E1.24161
G1 X148.985 Y115.487 E1.26874
G1 X148.109 Y115.507 E1.29494
G1 X147.267 Y115.562 E1.32022
G1 X146.724 Y115.621 E1.33655
G1 F1200.000 E0.13655
G92 E0
G1 X144.544 Y115.871 F9600.000
G1 E1.20000 F1200.000
G1 X144.591 Y115.918 E1.20220 F1980.000
G1 X144.105 Y116.338 E1.22339
G1 X143.637 Y115.871 E1.24517
G1 X143.530 Y116.669 E1.27173
G1 X142.731 Y115.871 E1.30896
G1 X141.825 Y115.871 E1.33883
G1 X142.980 Y117.026 E1.39271
G1 X142.468 Y117.420 E1.41402
G1 X140.918 Y115.871 E1.48624
G1 X140.012 Y115.871 E1.51611
G1 X141.983 Y117.842 E1.60799
G1 X141.523 Y118.288 E1.62912
G1 X139.106 Y115.871 E1.74182
G1 X138.199 Y115.871 E1.77170
G1 X141.096 Y118.768 E1.90674
G1 X140.690 Y119.268 E1.92798
G1 X137.293 Y115.871 E2.08633
G1 X136.387 Y115.871 E2.11621
G1 X140.316 Y119.800 E2.29937
G1 X139.967 Y120.357 E2.32105
G1 X135.480 Y115.871 E2.53021
G1 X134.574 Y115.871 E2.56009
G1 X139.657 Y120.954 E2.79703
G1 X139.380 Y121.583 E2.81970
G1 X134.371 Y116.574 E3.05320
G1 X134.371 Y117.480 E3.08308
