; generated by Slic3r 1.1.7 on 2015-08-11 at 13:30:02

; perimeters extrusion width = 0.50mm
; infill extrusion width = 0.65mm
; solid infill extrusion width = 0.55mm
; top infill extrusion width = 0.43mm

G21 ; set units to millimeters
M107

M301 P34 I4 D113     ; set PID nozzle
M304 P162 I17 D378 ; set PID Bed


;M104 S230                 ; set extruder temp for budaschnozzle
M104 S250                 ; set extruder temp for hex_hot_end
;M140 S100                 ; set bed temp for PET
M140 S105                 ; set bed temp for PEI (reminder ~G1 Z2 ~ M140 S(@-10 degree change) ;if -m is present in file name)

G28                            ; home
G1 Z5 F300                ; move bed down 5mm
M84                            ; disable steppers
G4 S300                     ; wait 5 mins to preheat

G28                            ; home

G90 ; use absolute coordinates
G92 E0
M82 ; use absolute distances for extrusion
M204 S1800
G1 F1200.000 E-1.20000
G92 E0
G1 Z0.350 F9600.000
G1 X80.301 Y76.401 F9600.000
G1 E1.20000 F1200.000
G1 X82.039 Y75.012 E1.27333 F1080.000
G1 X85.000 Y74.264 E1.37400
G1 X113.309 Y74.264 E2.30717
G1 X115.498 Y74.661 E2.38050
G1 X117.408 Y75.801 E2.45382 F1080.000
G1 X119.159 Y78.341 E2.55550
G1 X122.850 Y88.341 E2.90688
G1 X123.236 Y90.500 E2.97919
G1 X123.236 Y124.920 E4.11379
G1 X122.839 Y127.109 E4.18712
G1 X121.699 Y129.019 E4.26045
G1 X119.961 Y130.407 E4.33378
G1 X117.000 Y131.155 E4.43445
G1 X111.000 Y131.155 E4.63223
G1 X108.811 Y130.759 E4.70556
G1 X106.901 Y129.619 E4.77889
G1 X106.004 Y128.652 E4.82236
G1 X85.803 Y101.573 E5.93600
G1 X79.709 Y91.800 E6.31567
G1 X78.887 Y89.732 E6.38900
G1 X78.764 Y88.500 E6.42982
G1 X78.764 Y80.500 E6.69353
G1 X79.161 Y78.311 E6.76686
G1 X80.263 Y76.465 E6.83771
G1 X80.847 Y76.749 F9600.000
G1 X80.912 Y76.647 E6.84169 F1080.000
G1 X82.622 Y75.410 E6.91126
G1 X85.000 Y74.882 E6.99155
G1 X113.309 Y74.882 E7.92471
G1 X115.382 Y75.279 E7.99428
G1 X117.162 Y76.412 E8.06385 F1080.000
G1 X118.579 Y78.555 E8.14853
G1 X122.270 Y88.555 E8.49991
G1 X122.618 Y90.500 E8.56505
G1 X122.618 Y124.920 E9.69965
G1 X122.221 Y126.993 E9.76922
G1 X121.088 Y128.773 E9.83879
G1 X119.378 Y130.010 E9.90836
G1 X117.000 Y130.538 E9.98865
G1 X111.000 Y130.538 E10.18643
G1 X108.927 Y130.141 E10.25600
G1 X106.499 Y128.282 E10.35680
G1 X86.327 Y101.246 E11.46874
G1 X80.233 Y91.473 E11.84840
G1 X79.382 Y88.500 E11.95032
G1 X79.382 Y80.500 E12.21404
G1 X79.779 Y78.427 E12.28361
G1 X80.807 Y76.812 E12.34672
G1 F1200.000 E11.14672
G92 E0
G1 X112.984 Y90.825 F9600.000
G1 E1.20000 F1200.000
G1 X116.675 Y90.825 E1.32168 F1170.000
G1 X116.675 Y124.595 E2.43485
G1 X111.325 Y124.595 E2.61121
G1 X111.325 Y104.760 E3.26505
G1 X111.277 Y104.200 E3.28358
G1 X111.216 Y103.921 E3.29297
G1 X111.025 Y103.385 E3.31173
G1 X110.895 Y103.131 E3.32112
G1 X110.574 Y102.662 E3.33988
G1 X110.385 Y102.449 E3.34927
G1 X109.955 Y102.076 E3.36803
G1 X109.717 Y101.919 E3.37742
G1 X109.467 Y101.782 E3.38681
G1 X108.937 Y101.576 E3.40557
G1 X108.379 Y101.463 E3.42433
G1 X108.095 Y101.443 E3.43372
G1 X107.527 Y101.475 E3.45248
G1 X106.972 Y101.604 E3.47124
G1 X106.706 Y101.704 E3.48063
G1 X105.545 Y102.254 E3.52298
G1 X104.608 Y102.603 E3.55594
G1 X103.644 Y102.871 E3.58890
G1 X102.661 Y103.056 E3.62187
G1 X101.667 Y103.156 E3.65483
G1 X100.667 Y103.170 E3.68779
G1 X99.669 Y103.099 E3.72076
G1 X98.682 Y102.942 E3.75372
G1 X97.711 Y102.702 E3.78668
G1 X96.764 Y102.379 E3.81965
G1 X95.849 Y101.977 E3.85261
G1 X94.971 Y101.498 E3.88557
G1 X94.138 Y100.945 E3.91854
G1 X93.355 Y100.323 E3.95150
G1 X92.628 Y99.637 E3.98446
G1 X91.962 Y98.890 E4.01743
G1 X91.363 Y98.090 E4.05039
G1 X90.834 Y97.241 E4.08335
G1 X90.380 Y96.350 E4.11631
G1 X90.004 Y95.423 E4.14928
G1 X89.709 Y94.468 E4.18224
G1 X89.496 Y93.491 E4.21520
G1 X89.368 Y92.499 E4.24817
G1 X89.313 Y91.210 E4.29069
G1 X89.275 Y90.923 E4.30026
G1 X89.212 Y90.640 E4.30982
G1 X89.125 Y90.363 E4.31938
G1 X89.014 Y90.095 E4.32894
G1 X88.880 Y89.837 E4.33851
G1 X88.724 Y89.593 E4.34807
G1 X88.547 Y89.363 E4.35763
G1 X88.351 Y89.149 E4.36719
G1 X88.137 Y88.953 E4.37676
G1 X87.907 Y88.776 E4.38632
G1 X87.663 Y88.620 E4.39588
G1 X87.405 Y88.486 E4.40545
G1 X87.137 Y88.375 E4.41500
G1 X86.861 Y88.288 E4.42457
G1 X86.577 Y88.225 E4.43413
G1 X86.007 Y88.175 E4.45300
G1 X85.325 Y88.175 E4.47549
G1 X85.325 Y80.825 E4.71777
G1 X112.984 Y80.825 E5.62951
G1 X112.984 Y90.750 E5.95668
G1 X112.984 Y91.325 F9600.000
G1 X112.366 Y91.443 F9600.000
G1 X116.057 Y91.443 E6.07836 F1620.000
G1 X116.057 Y123.977 E7.15080
G1 X111.943 Y123.977 E7.28643
G1 X111.943 Y104.746 E7.92034
G1 X111.929 Y104.429 E7.93081
G1 X111.886 Y104.094 E7.94194
G1 X111.814 Y103.764 E7.95307
G1 X111.714 Y103.441 E7.96421
G1 X111.587 Y103.128 E7.97535
G1 X111.434 Y102.827 E7.98648
G1 X111.255 Y102.541 E7.99761
G1 X111.053 Y102.270 E8.00875
G1 X110.828 Y102.018 E8.01988
G1 X110.583 Y101.786 E8.03102
G1 X110.318 Y101.576 E8.04215
G1 X110.037 Y101.389 E8.05329
G1 X109.740 Y101.228 E8.06442
G1 X109.431 Y101.092 E8.07556
G1 X109.111 Y100.983 E8.08669
G1 X108.783 Y100.901 E8.09783
G1 X108.450 Y100.849 E8.10896
G1 X108.113 Y100.825 E8.12010
G1 X107.775 Y100.829 E8.13123
G1 X107.439 Y100.863 E8.14237
G1 X107.107 Y100.925 E8.15350
G1 X106.781 Y101.016 E8.16464
G1 X106.465 Y101.134 E8.17577
G1 X105.304 Y101.684 E8.21813
G1 X104.417 Y102.015 E8.24934
G1 X103.504 Y102.269 E8.28056
G1 X102.573 Y102.444 E8.31178
G1 X101.631 Y102.538 E8.34299
G1 X100.684 Y102.552 E8.37421
G1 X99.740 Y102.484 E8.40543
G1 X98.804 Y102.336 E8.43664
G1 X97.885 Y102.109 E8.46786
G1 X96.989 Y101.803 E8.49908
G1 X96.122 Y101.422 E8.53030
G1 X95.291 Y100.968 E8.56151
G1 X94.501 Y100.445 E8.59273
G1 X93.760 Y99.856 E8.62395
G1 X93.071 Y99.206 E8.65516
G1 X92.441 Y98.499 E8.68638
G1 X91.873 Y97.741 E8.71760
G1 X91.373 Y96.937 E8.74882
G1 X90.943 Y96.093 E8.78003
G1 X90.587 Y95.216 E8.81125
G1 X90.307 Y94.311 E8.84247
G1 X90.106 Y93.385 E8.87368
G1 X89.984 Y92.446 E8.90490
G1 X89.929 Y91.156 E8.94746
G1 X89.884 Y90.815 E8.95880
G1 X89.809 Y90.479 E8.97014
G1 X89.706 Y90.151 E8.98148
G1 X89.574 Y89.833 E8.99282
G1 X89.415 Y89.528 E9.00417
G1 X89.230 Y89.238 E9.01551
G1 X89.021 Y88.965 E9.02685
G1 X88.789 Y88.711 E9.03819
G1 X88.535 Y88.479 E9.04953
G1 X88.262 Y88.270 E9.06087
G1 X87.972 Y88.085 E9.07221
G1 X87.667 Y87.926 E9.08355
G1 X87.349 Y87.794 E9.09489
G1 X87.021 Y87.691 E9.10623
G1 X86.685 Y87.616 E9.11757
G1 X86.344 Y87.571 E9.12891
G1 X85.943 Y87.554 E9.14214
G1 X85.943 Y81.443 E9.34359
G1 X98.384 Y81.443 E9.75370
G1 X98.449 Y81.862 E9.76768
G1 X97.590 Y82.133 E9.79734
G1 X96.787 Y82.465 E9.82601
G1 X96.016 Y82.867 E9.85468
G1 X95.282 Y83.334 E9.88335
G1 X94.592 Y83.864 E9.91201
G1 X93.839 Y84.574 E9.94615
G1 X93.364 Y85.092 E9.96933
G1 X92.834 Y85.782 E9.99800
G1 X92.367 Y86.516 E10.02667
G1 X91.965 Y87.287 E10.05533
G1 X91.632 Y88.091 E10.08400
G1 X91.371 Y88.920 E10.11266
G1 X91.183 Y89.769 E10.14133
G1 X91.069 Y90.631 E10.17000
G1 X91.031 Y91.500 E10.19867
G1 X91.091 Y92.534 E10.23280
G1 X91.183 Y93.231 E10.25599
G1 X91.371 Y94.080 E10.28465
G1 X91.632 Y94.910 E10.31332
G1 X91.965 Y95.713 E10.34199
G1 X92.367 Y96.484 E10.37065
G1 X92.834 Y97.218 E10.39932
G1 X93.364 Y97.908 E10.42799
G1 X93.951 Y98.549 E10.45666
G1 X94.724 Y99.238 E10.49079
G1 X95.282 Y99.666 E10.51397
G1 X96.016 Y100.133 E10.54264
G1 X96.787 Y100.535 E10.57131
G1 X97.591 Y100.868 E10.59998
G1 X98.420 Y101.129 E10.62864
G1 X99.434 Y101.339 E10.66278
G1 X100.131 Y101.431 E10.68596
G1 X101.000 Y101.469 E10.71463
G1 X101.869 Y101.431 E10.74330
G1 X102.731 Y101.317 E10.77196
G1 X103.739 Y101.079 E10.80609
G1 X104.410 Y100.868 E10.82928
G1 X105.213 Y100.535 E10.85795
G1 X105.984 Y100.133 E10.88661
G1 X106.718 Y99.666 E10.91528
G1 X107.530 Y99.024 E10.94941
G1 X108.049 Y98.549 E10.97260
G1 X108.636 Y97.908 E11.00127
G1 X109.166 Y97.218 E11.02993
G1 X109.633 Y96.484 E11.05860
G1 X110.035 Y95.713 E11.08727
G1 X110.368 Y94.910 E11.11594
G1 X110.629 Y94.080 E11.14460
G1 X110.817 Y93.231 E11.17327
G1 X110.931 Y92.369 E11.20194
G1 X110.969 Y91.500 E11.23061
G1 X110.909 Y90.466 E11.26474
G1 X110.817 Y89.769 E11.28792
G1 X110.629 Y88.920 E11.31659
G1 X110.368 Y88.091 E11.34526
G1 X110.035 Y87.287 E11.37392
G1 X109.633 Y86.516 E11.40259
G1 X109.166 Y85.782 E11.43126
G1 X108.636 Y85.092 E11.45993
G1 X108.049 Y84.451 E11.48859
G1 X107.408 Y83.864 E11.51726
G1 X106.578 Y83.245 E11.55139
G1 X105.984 Y82.867 E11.57458
G1 X105.213 Y82.465 E11.60324
G1 X104.409 Y82.133 E11.63191
G1 X103.551 Y81.862 E11.66158
G1 X103.616 Y81.443 E11.67555
G1 X112.366 Y81.443 E11.96399
G1 X112.366 Y91.368 E12.29116
G1 F1200.000 E11.09116
G92 E0
G1 X110.350 Y91.500 F9600.000
G1 E1.20000 F1200.000
G1 X110.315 Y92.315 E1.22689 F1170.000
G1 X110.208 Y93.124 E1.25378
G1 X110.032 Y93.920 E1.28067
G1 X109.786 Y94.698 E1.30756
G1 X109.474 Y95.452 E1.33444
G1 X109.098 Y96.175 E1.36133
G1 X108.659 Y96.863 E1.38822
G1 X108.163 Y97.510 E1.41511
G1 X107.612 Y98.112 E1.44200
G1 X107.010 Y98.663 E1.46889
G1 X106.474 Y99.075 E1.49119
G1 X105.675 Y99.598 E1.52265
G1 X104.952 Y99.974 E1.54954
G1 X104.198 Y100.287 E1.57643
G1 X103.420 Y100.532 E1.60332
G1 X102.624 Y100.708 E1.63021
G1 X101.815 Y100.815 E1.65710
G1 X101.000 Y100.850 E1.68399
G1 X100.185 Y100.815 E1.71088
G1 X99.514 Y100.727 E1.73317
G1 X98.580 Y100.532 E1.76464
G1 X97.802 Y100.287 E1.79153
G1 X97.177 Y100.028 E1.81382
G1 X96.325 Y99.598 E1.84529
G1 X95.637 Y99.159 E1.87218
G1 X95.100 Y98.748 E1.89448
G1 X94.388 Y98.112 E1.92594
G1 X93.837 Y97.510 E1.95283
G1 X93.341 Y96.863 E1.97972
G1 X92.902 Y96.175 E2.00661
G1 X92.526 Y95.452 E2.03350
G1 X92.214 Y94.698 E2.06039
G1 X91.968 Y93.920 E2.08728
G1 X91.792 Y93.124 E2.11417
G1 X91.685 Y92.315 E2.14106
G1 X91.650 Y91.500 E2.16794
G1 X91.685 Y90.685 E2.19483
G1 X91.792 Y89.876 E2.22172
G1 X91.968 Y89.080 E2.24861
G1 X92.214 Y88.302 E2.27550
G1 X92.526 Y87.548 E2.30239
G1 X92.902 Y86.825 E2.32928
G1 X93.341 Y86.137 E2.35617
G1 X93.837 Y85.490 E2.38306
G1 X94.294 Y84.991 E2.40535
G1 X94.990 Y84.337 E2.43682
G1 X95.637 Y83.841 E2.46371
G1 X96.325 Y83.402 E2.49060
G1 X97.048 Y83.026 E2.51748
G1 X97.802 Y82.714 E2.54437
G1 X98.580 Y82.468 E2.57126
G1 X99.376 Y82.292 E2.59815
G1 X100.185 Y82.185 E2.62504
G1 X101.000 Y82.150 E2.65193
G1 X101.676 Y82.179 E2.67422
G1 X102.624 Y82.292 E2.70569 F1170.000
G1 X103.420 Y82.468 E2.73258
G1 X104.198 Y82.714 E2.75947
G1 X104.952 Y83.026 E2.78636
G1 X105.675 Y83.402 E2.81325
G1 X106.363 Y83.841 E2.84014
G1 X107.010 Y84.337 E2.86703
G1 X107.612 Y84.888 E2.89392
G1 X108.163 Y85.490 E2.92080
G1 X108.659 Y86.137 E2.94769
G1 X109.098 Y86.825 E2.97458
G1 X109.474 Y87.548 E3.00147
G1 X109.786 Y88.302 E3.02836
G1 X110.032 Y89.080 E3.05525
G1 X110.208 Y89.876 E3.08214
G1 X110.315 Y90.685 E3.10903
G1 X110.347 Y91.425 E3.13344
G1 F1200.000 E1.93344
G92 E0
G1 X101.583 Y81.688 F9600.000
G1 X115.589 Y91.871 F9600.000
G1 E1.20000 F1200.000
G1 X115.629 Y91.911 E1.20186 F1980.000
G1 X115.629 Y92.805 E1.23133
G1 X114.696 Y91.871 E1.27486
G1 X113.802 Y91.871 E1.30432
G1 X115.629 Y93.698 E1.38951
G1 X115.629 Y94.592 E1.41898
G1 X112.908 Y91.871 E1.54584
G1 X112.309 Y92.166 E1.56784
G1 X115.629 Y95.486 E1.72261
G1 X115.629 Y96.380 E1.75207
G1 X111.435 Y92.185 E1.94761
G1 X111.288 Y92.932 E1.97272
G1 X115.629 Y97.273 E2.17509
G1 X115.629 Y98.167 E2.20455
G1 X111.154 Y93.691 E2.41320
G1 X110.975 Y94.406 E2.43750
G1 X115.629 Y99.061 E2.65448
G1 X115.629 Y99.955 E2.68394
G1 X110.759 Y95.084 E2.91100
G1 X110.497 Y95.716 E2.93355
G1 X115.629 Y100.848 E3.17282
G1 X115.629 Y101.742 E3.20228
G1 X110.203 Y96.316 E3.45524
G1 X109.883 Y96.889 E3.47688
G1 X115.629 Y102.636 E3.74478
G1 X115.629 Y103.530 E3.77424
G1 X109.535 Y97.435 E4.05835
G1 X109.149 Y97.943 E4.07938
G1 X115.629 Y104.423 E4.38148
G1 X115.629 Y105.317 E4.41095
G1 X108.735 Y98.423 E4.73236
G1 X108.309 Y98.891 E4.75322
G1 X115.629 Y106.211 E5.09446
G1 X115.629 Y107.105 E5.12392
G1 X112.242 Y103.717 E5.28184
G1 X112.371 Y104.740 E5.31581
G1 X115.629 Y107.999 E5.46772
G1 X115.629 Y108.892 E5.49718
G1 X112.371 Y105.634 E5.64909
G1 X112.371 Y106.527 E5.67856
G1 X115.629 Y109.786 E5.83046
G1 X115.629 Y110.680 E5.85993
G1 X112.371 Y107.421 E6.01184
G1 X112.371 Y108.315 E6.04130
G1 X115.629 Y111.574 E6.19321
G1 X115.629 Y112.467 E6.22267
G1 X112.371 Y109.209 E6.37458
G1 X112.371 Y110.103 E6.40404
G1 X115.629 Y113.361 E6.55595
G1 X115.629 Y114.255 E6.58541
G1 X112.371 Y110.996 E6.73732
G1 X112.371 Y111.890 E6.76678
G1 X115.629 Y115.149 E6.91869
G1 X115.629 Y116.042 E6.94815
G1 X112.371 Y112.784 E7.10006
G1 X112.371 Y113.678 E7.12952
G1 X115.629 Y116.936 E7.28143
G1 X115.629 Y117.830 E7.31089
G1 X112.371 Y114.571 E7.46280
G1 X112.371 Y115.465 E7.49226
G1 X115.629 Y118.724 E7.64417
G1 X115.629 Y119.617 E7.67363
G1 X112.371 Y116.359 E7.82554
G1 X112.371 Y117.253 E7.85500
G1 X115.629 Y120.511 E8.00691
G1 X115.629 Y121.405 E8.03638
G1 X112.371 Y118.146 E8.18828
G1 X112.371 Y119.040 E8.21775
G1 X115.629 Y122.299 E8.36965
G1 X115.629 Y123.193 E8.39912
G1 X112.371 Y119.934 E8.55103
G1 X112.371 Y120.828 E8.58049
G1 X115.092 Y123.549 E8.70735
G1 X114.198 Y123.549 E8.73681
G1 X112.371 Y121.721 E8.82201
G1 X112.371 Y122.615 E8.85147
G1 X113.304 Y123.549 E8.89500
G1 X112.411 Y123.549 E8.92446
G1 X112.371 Y123.509 E8.92632
G1 F1200.000 E7.72632
G92 E0
G1 X116.000 Y105.588 F9600.000
G1 X109.052 Y100.527 F9600.000
G1 E1.20000 F1200.000
G1 X107.843 Y99.318 E1.25635 F1980.000
G1 X107.351 Y99.720 E1.27729
G1 X108.029 Y100.398 E1.30890
G1 X107.208 Y100.471 E1.33605
G1 X107.021 Y100.284 E1.34477
G1 F1200.000 E0.14477
G92 E0
G1 X116.000 Y95.588 F9600.000
G1 X111.673 Y91.752 F9600.000
G1 E1.20000 F1200.000
G1 X111.648 Y90.586 E1.23489 F810.000
G1 X111.571 Y89.409 E1.27022
G1 X111.077 Y88.964 F9600.000
G1 X111.122 Y89.009 E1.27233 F1980.000
G1 X111.924 Y88.931 E1.29887
G1 X110.652 Y87.660 E1.35814
G1 F1200.000 E0.15814
G92 E0
G1 X109.707 Y85.835 F9600.000
G1 E1.20000 F1200.000
G1 X111.938 Y88.066 E1.30401 F1980.000
G1 X111.938 Y87.187 E1.33300
G1 X106.622 Y81.871 E1.58082
G1 X107.501 Y81.871 E1.60981
G1 X111.938 Y86.308 E1.81664
G1 X111.938 Y85.428 E1.84563
G1 X108.381 Y81.871 E2.01147
G1 X109.260 Y81.871 E2.04045
G1 X111.938 Y84.549 E2.16530
G1 X111.938 Y83.669 E2.19429
G1 X110.139 Y81.871 E2.27814
G1 X111.019 Y81.871 E2.30713
G1 X111.938 Y82.790 E2.34999
G1 X111.938 Y81.911 E2.37897
G1 X111.898 Y81.871 E2.38084
G1 F1200.000 E1.18084
G92 E0
G1 X106.665 Y82.793 F9600.000
G1 E1.20000 F1200.000
G1 X105.743 Y81.871 E1.24300 F1980.000
G1 F1200.000 E0.04300
G92 E0
G1 X103.276 Y81.621 F9600.000
G1 E1.20000 F1200.000
G1 X102.733 Y81.562 E1.21633 F810.000
G1 X101.891 Y81.507 E1.24161
G1 X100.985 Y81.487 E1.26874
G1 X100.109 Y81.507 E1.29494
G1 X99.267 Y81.562 E1.32022
G1 X98.724 Y81.621 E1.33655
G1 F1200.000 E0.13655
G92 E0
G1 X96.544 Y81.871 F9600.000
G1 E1.20000 F1200.000
G1 X96.591 Y81.918 E1.20220 F1980.000
G1 X96.105 Y82.338 E1.22339
G1 X95.637 Y81.871 E1.24517
G1 X95.530 Y82.669 E1.27173
G1 X94.731 Y81.871 E1.30896
G1 X93.825 Y81.871 E1.33883
G1 X94.980 Y83.026 E1.39271
G1 X94.468 Y83.420 E1.41402
G1 X92.918 Y81.871 E1.48624
G1 X92.012 Y81.871 E1.51611
G1 X93.983 Y83.842 E1.60799
G1 X93.523 Y84.288 E1.62912
G1 X91.106 Y81.871 E1.74182
G1 X90.199 Y81.871 E1.77170
G1 X93.096 Y84.768 E1.90674
G1 X92.690 Y85.268 E1.92798
G1 X89.293 Y81.871 E2.08633
G1 X88.387 Y81.871 E2.11621
G1 X92.316 Y85.800 E2.29937
G1 X91.967 Y86.357 E2.32105
G1 X87.480 Y81.871 E2.53021
G1 X86.574 Y81.871 E2.56009
G1 X91.657 Y86.954 E2.79703
G1 X91.380 Y87.583 E2.81970
G1 X86.371 Y82.574 E3.05320
G1 X86.371 Y83.480 E3.08308
G1 X91.135 Y88.245 E3.30519
G1 X90.927 Y88.944 E3.32922
G1 X86.371 Y84.387 E3.54164
G1 X86.371 Y85.293 E3.57152
G1 X90.763 Y89.685 E3.77628
G1 X90.520 Y90.349 E3.79956
G1 X90.060 Y89.889 E3.82098
G1 F1200.000 E2.62098
G92 E0
G1 X87.611 Y87.440 F9600.000
G1 E1.20000 F1200.000
G1 X86.371 Y86.199 E1.25781 F1980.000
G1 X86.371 Y87.106 E1.28769
G1 X86.414 Y87.149 E1.28970
G1 F1200.000 E0.08970
G92 E0
G1 X91.398 Y81.500 F9600.000
G1 X90.473 Y90.779 F9600.000
G1 E1.20000 F1200.000
