; generated by Slic3r 1.1.7 on 2015-11-17 at 14:13:42

; perimeters extrusion width = 0.55mm
; infill extrusion width = 0.50mm
; solid infill extrusion width = 0.55mm
; top infill extrusion width = 0.42mm

G21 ; set units to millimeters
M107

M301 P34 I4 D113     ; set PID nozzle
M304 P162 I17 D378 ; set PID Bed

M104 S245                 ; set extruder temp for hex_hot_end
M140 S110                 ; set bed temp for PEI (reminder ~G1 Z2 ~ M140 S(@-10 degree change) ;if -m is present in file name)

G28                            ; home
G1 Z5 F300                ; move bed down 5mm
M84                            ; disable steppers
G4 S300                     ; wait 5 mins to preheat

G28                            ; home

G90 ; use absolute coordinates
G92 E0
M82 ; use absolute distances for extrusion
M204 S2000
G1 F1500.000 E-1.20000
G92 E0
G1 Z0.350 F9600.000
G1 X139.115 Y46.181 F9600.000
G1 E1.20000 F1500.000
G1 X143.240 Y33.753 E1.63027 F1200.000
G1 X143.316 Y33.570 E1.63679
G1 X143.676 Y32.763 E1.66582
G1 X144.197 Y31.814 E1.70138
G1 X144.798 Y30.914 E1.73694
G1 X145.475 Y30.071 E1.77249
G1 X146.223 Y29.289 E1.80805
G1 X147.037 Y28.576 E1.84361
G1 X147.910 Y27.936 E1.87916
G1 X148.835 Y27.375 E1.91472
G1 X149.805 Y26.896 E1.95027
G1 X150.814 Y26.504 E1.98583
G1 X152.047 Y26.158 E2.02790
G1 X152.914 Y25.990 E2.05693
G1 X153.990 Y25.873 E2.09249
G1 X154.800 Y25.843 E2.11913
G1 X161.772 Y25.849 E2.34821
G1 X163.157 Y25.933 E2.39380 F1200.000
G1 X164.529 Y26.138 E2.43939
G1 X165.878 Y26.461 E2.48497
G1 X166.169 Y26.553 E2.49501
G1 X167.194 Y26.901 E2.53057
G1 X168.466 Y27.454 E2.57615
G1 X169.686 Y28.115 E2.62174
G1 X170.843 Y28.881 E2.66733
G1 X171.929 Y29.744 E2.71292
G1 X172.936 Y30.699 E2.75850
G1 X173.855 Y31.737 E2.80409
G1 X174.681 Y32.852 E2.84967
G1 X175.406 Y34.035 E2.89526
G1 X176.026 Y35.277 E2.94086
G1 X176.622 Y36.843 E2.99593
G1 X176.929 Y37.897 E3.03201
G1 X177.206 Y39.257 E3.07760
G1 X177.246 Y39.559 E3.08763
G1 X177.364 Y40.635 E3.12319
G1 X177.407 Y41.750 E3.15985
G1 X177.403 Y93.926 E4.87431
G1 X177.356 Y94.724 E4.90058
G1 X177.252 Y95.518 E4.92687
G1 X177.144 Y96.078 E4.94564
G1 X144.787 Y240.731 E9.81624
G1 X143.922 Y242.780 E9.88931
G1 X142.393 Y244.394 E9.96238
G1 X140.394 Y245.369 E10.03546
G1 X138.706 Y245.602 E10.09147
G1 X126.825 Y245.602 E10.48186
G1 X124.637 Y245.205 E10.55493
G1 X122.727 Y244.066 E10.62800
G1 X121.340 Y242.328 E10.70108
G1 X120.593 Y239.370 E10.80130
G1 X120.598 Y210.009 E11.76607
G1 X125.424 Y88.553 E15.76016
G1 X125.579 Y87.365 E15.79952
G1 X125.955 Y85.822 E15.85173
G1 X139.091 Y46.252 E17.22172
G1 X139.698 Y46.374 F9600.000
G1 X143.809 Y33.989 E17.65053 F1200.000
G1 X143.885 Y33.806 E17.65705
G1 X144.222 Y33.047 E17.68432
G1 X144.716 Y32.145 E17.71811
G1 X145.286 Y31.289 E17.75191
G1 X145.929 Y30.487 E17.78569
G1 X146.640 Y29.743 E17.81948
G1 X147.412 Y29.064 E17.85328
G1 X148.241 Y28.455 E17.88707
G1 X149.119 Y27.921 E17.92086
G1 X150.041 Y27.465 E17.95465
G1 X150.999 Y27.091 E17.98845
G1 X152.180 Y26.760 E18.02875
G1 X152.995 Y26.601 E18.05602
G1 X154.017 Y26.488 E18.08981
G1 X154.800 Y26.459 E18.11556
G1 X161.745 Y26.465 E18.34376
G1 X163.076 Y26.544 E18.38759 F1200.000
G1 X164.396 Y26.739 E18.43141
G1 X165.693 Y27.049 E18.47523
G1 X166.958 Y27.470 E18.51906
G1 X168.182 Y28.000 E18.56288
G1 X169.355 Y28.635 E18.60670
G1 X170.468 Y29.369 E18.65053
G1 X171.513 Y30.198 E18.69435
G1 X172.482 Y31.115 E18.73817
G1 X173.367 Y32.112 E18.78199
G1 X174.162 Y33.183 E18.82581
G1 X174.860 Y34.319 E18.86964
G1 X175.457 Y35.512 E18.91347
G1 X175.560 Y35.765 E18.92245
G1 X176.034 Y37.028 E18.96677
G1 X176.328 Y38.030 E19.00109
G1 X176.394 Y38.329 E19.01113
G1 X176.596 Y39.337 E19.04491
G1 X176.636 Y39.640 E19.05495
G1 X176.749 Y40.662 E19.08874
G1 X176.791 Y41.750 E19.12452
G1 X176.787 Y93.903 E20.83823
G1 X176.744 Y94.657 E20.86303
G1 X176.646 Y95.405 E20.88783
G1 X176.543 Y95.944 E20.90586
G1 X144.186 Y240.596 E25.77646
G1 X143.347 Y242.532 E25.84579
G1 X141.852 Y244.022 E25.91513
G1 X139.914 Y244.855 E25.98447
G1 X138.706 Y244.986 E26.02439
G1 X126.825 Y244.986 E26.41478
G1 X124.752 Y244.590 E26.48412
G1 X122.972 Y243.457 E26.55345
G1 X121.736 Y241.746 E26.62279
G1 X121.209 Y239.370 E26.70276
G1 X121.214 Y210.034 E27.66673
G1 X126.037 Y88.604 E31.65995
G1 X126.181 Y87.499 E31.69656
G1 X126.540 Y86.015 E31.74672
G1 X139.674 Y46.446 E33.11670
G1 F1500.000 E31.91670
G92 E0
G1 X139.916 Y229.656 F9600.000
G1 E1.20000 F1500.000
G1 X137.953 Y238.431 E1.49544 F1200.000
G1 X127.765 Y238.431 E1.83023
G1 X127.765 Y229.656 E2.11855
G1 X139.841 Y229.656 E2.51536
G1 X140.685 Y229.041 F9600.000
G1 X138.446 Y239.047 E2.85228 F1200.000
G1 X127.149 Y239.047 E3.22351
G1 X127.149 Y229.041 E3.55230
G1 X140.610 Y229.041 E3.99461
G1 X140.374 Y229.432 F9600.000
G1 X139.338 Y230.083 F9600.000
G1 X139.375 Y230.120 E3.99632 F1200.000
G1 X139.210 Y230.860 E4.02125
G1 X138.432 Y230.083 E4.05737
G1 X137.526 Y230.083 E4.08714
G1 X139.044 Y231.601 E4.15767
G1 X138.878 Y232.341 E4.18261
G1 X136.620 Y230.083 E4.28755
G1 X135.714 Y230.083 E4.31732
G1 X138.713 Y233.082 E4.45667
G1 X138.547 Y233.822 E4.48160
G1 X134.808 Y230.083 E4.65537
G1 X133.902 Y230.083 E4.68514
G1 X138.381 Y234.563 E4.89331
G1 X138.216 Y235.303 E4.91825
G1 X132.996 Y230.083 E5.16083
G1 X132.089 Y230.083 E5.19060
G1 X138.050 Y236.044 E5.46760
G1 X137.884 Y236.784 E5.49253
G1 X131.183 Y230.083 E5.80393
G1 X130.277 Y230.083 E5.83371
G1 X137.719 Y237.525 E6.17952
G1 X137.292 Y238.004 E6.20061
G1 X129.371 Y230.083 E6.56872
G1 X128.465 Y230.083 E6.59850
G1 X136.386 Y238.004 E6.96660
G1 X135.480 Y238.004 E6.99638
G1 X128.191 Y230.715 E7.33510
G1 X128.191 Y231.621 E7.36487
G1 X134.574 Y238.004 E7.66149
G1 X133.668 Y238.004 E7.69126
G1 X128.191 Y232.528 E7.94577
G1 X128.191 Y233.434 E7.97555
G1 X132.762 Y238.004 E8.18794
G1 X131.856 Y238.004 E8.21772
G1 X128.191 Y234.340 E8.38801
G1 X128.191 Y235.246 E8.41778
G1 X130.949 Y238.004 E8.54597
G1 X130.043 Y238.004 E8.57574
G1 X128.191 Y236.152 E8.66182
G1 X128.191 Y237.058 E8.69159
G1 X129.137 Y238.004 E8.73556
G1 X128.231 Y238.004 E8.76533
G1 X128.191 Y237.964 E8.76719
G1 F1500.000 E7.56719
G92 E0
G1 X140.545 Y226.844 F9600.000
G1 E1.20000 F1500.000
G1 X127.765 Y226.844 E1.61995 F1200.000
G1 X127.765 Y219.656 E1.85611
G1 X142.153 Y219.656 E2.32889
G1 X140.561 Y226.770 E2.56842
G1 X141.038 Y227.459 F9600.000
G1 X127.149 Y227.459 E3.02482 F1200.000
G1 X127.149 Y219.041 E3.30145
G1 X142.922 Y219.041 E3.81973
G1 X141.055 Y227.386 E4.10073
G1 X140.625 Y227.178 F9600.000
G1 F1500.000 E2.90073
G92 E0
G1 X141.575 Y220.083 F9600.000
G1 E1.20000 F1500.000
G1 X141.612 Y220.120 E1.20171 F1200.000
G1 X141.449 Y220.851 E1.22632
G1 X140.681 Y220.083 E1.26200
G1 X139.786 Y220.083 E1.29139
G1 X141.285 Y221.582 E1.36103
G1 X141.122 Y222.313 E1.38564
G1 X138.892 Y220.083 E1.48925
G1 X137.997 Y220.083 E1.51864
G1 X140.958 Y223.044 E1.65622
G1 X140.795 Y223.775 E1.68084
G1 X137.103 Y220.083 E1.85238
G1 X136.209 Y220.083 E1.88177
G1 X140.631 Y224.505 E2.08729
G1 X140.468 Y225.236 E2.11190
G1 X135.314 Y220.083 E2.35138
G1 X134.420 Y220.083 E2.38077
G1 X140.304 Y225.967 E2.65422
G1 X139.859 Y226.417 E2.67500
G1 X133.525 Y220.083 E2.96935
G1 X132.631 Y220.083 E2.99874
G1 X138.965 Y226.417 E3.29308
G1 X138.070 Y226.417 E3.32247
G1 X131.736 Y220.083 E3.61681
G1 X130.842 Y220.083 E3.64621
G1 X137.176 Y226.417 E3.94055
G1 X136.281 Y226.417 E3.96994
G1 X129.947 Y220.083 E4.26428
G1 X129.053 Y220.083 E4.29367
G1 X135.387 Y226.417 E4.58802
G1 X134.492 Y226.417 E4.61741
G1 X128.195 Y220.119 E4.91006
G1 X128.191 Y221.010 E4.93933
G1 X133.598 Y226.417 E5.19059
G1 X132.703 Y226.417 E5.21998
G1 X128.191 Y221.905 E5.42966
G1 X128.191 Y222.799 E5.45906
G1 X131.809 Y226.417 E5.62718
G1 X130.914 Y226.417 E5.65657
G1 X128.191 Y223.694 E5.78313
G1 X128.191 Y224.588 E5.81252
G1 X130.020 Y226.417 E5.89751
G1 X129.126 Y226.417 E5.92690
G1 X128.191 Y225.483 E5.97032
G1 X128.191 Y226.377 E5.99971
G1 X128.231 Y226.417 E6.00157
G1 F1500.000 E4.80157
G92 E0
G1 X142.782 Y216.844 F9600.000
G1 E1.20000 F1500.000
G1 X127.765 Y216.844 E1.69346 F1200.000
G1 X127.765 Y210.275 E1.90929
G1 X127.789 Y209.656 E1.92963
G1 X144.390 Y209.656 E2.47510
G1 X142.798 Y216.770 E2.71463
G1 X143.275 Y217.459 F9600.000
G1 X127.149 Y217.459 E3.24453 F1200.000
G1 X127.149 Y210.263 E3.48100
G1 X127.197 Y209.041 E3.52119
G1 X145.158 Y209.041 E4.11138
G1 X143.292 Y217.386 E4.39238
G1 X142.862 Y217.178 F9600.000
G1 F1500.000 E3.19238
G92 E0
G1 X143.812 Y210.083 F9600.000
G1 E1.20000 F1500.000
G1 X143.849 Y210.120 E1.20171 F1200.000
G1 X143.689 Y210.836 E1.22583
G1 X142.936 Y210.083 E1.26083
G1 X142.059 Y210.083 E1.28963
G1 X143.528 Y211.552 E1.35792
G1 X143.368 Y212.269 E1.38204
G1 X141.182 Y210.083 E1.48361
G1 X140.306 Y210.083 E1.51242
G1 X143.208 Y212.985 E1.64728
G1 X143.048 Y213.702 E1.67140
G1 X139.429 Y210.083 E1.83956
G1 X138.553 Y210.083 E1.86836
G1 X142.887 Y214.418 E2.06981
G1 X142.727 Y215.134 E2.09393
G1 X137.676 Y210.083 E2.32866
G1 X136.799 Y210.083 E2.35747
G1 X142.567 Y215.851 E2.62549
G1 X142.257 Y216.417 E2.64671
G1 X135.923 Y210.083 E2.94105
G1 X135.046 Y210.083 E2.96985
G1 X141.380 Y216.417 E3.26420
G1 X140.504 Y216.417 E3.29300
G1 X134.169 Y210.083 E3.58734
G1 X133.293 Y210.083 E3.61615
G1 X139.627 Y216.417 E3.91049
G1 X138.750 Y216.417 E3.93930
G1 X132.416 Y210.083 E4.23364
G1 X131.540 Y210.083 E4.26244
G1 X137.874 Y216.417 E4.55678
G1 X136.997 Y216.417 E4.58559
G1 X130.663 Y210.083 E4.87993
G1 X129.786 Y210.083 E4.90874
G1 X136.121 Y216.417 E5.20308
G1 X135.244 Y216.417 E5.23188
G1 X128.910 Y210.083 E5.52623
G1 X128.193 Y210.242 E5.55037
G1 X134.367 Y216.417 E5.83730
G1 X133.491 Y216.417 E5.86610
G1 X128.191 Y211.117 E6.11237
G1 X128.191 Y211.994 E6.14118
G1 X132.614 Y216.417 E6.34672
G1 X131.737 Y216.417 E6.37552
G1 X128.191 Y212.871 E6.54032
G1 X128.191 Y213.747 E6.56913
G1 X130.861 Y216.417 E6.69319
G1 X129.984 Y216.417 E6.72200
G1 X128.191 Y214.624 E6.80533
G1 X128.191 Y215.500 E6.83413
G1 X129.108 Y216.417 E6.87672
G1 X128.231 Y216.417 E6.90553
G1 X128.191 Y216.377 E6.90739
G1 F1500.000 E5.70739
G92 E0
G1 X145.019 Y206.844 F9600.000
G1 E1.20000 F1500.000
G1 X127.901 Y206.844 E1.76248 F1200.000
G1 X128.186 Y199.656 E1.99882
G1 X146.626 Y199.656 E2.60476
G1 X145.035 Y206.770 E2.84429
G1 X145.512 Y207.459 F9600.000
G1 X127.260 Y207.459 E3.44403 F1200.000
G1 X127.594 Y199.041 E3.72088
G1 X147.395 Y199.041 E4.37153
G1 X145.528 Y207.386 E4.65253
G1 X145.099 Y207.178 F9600.000
G1 F1500.000 E3.45253
G92 E0
G1 X146.049 Y200.083 F9600.000
G1 E1.20000 F1500.000
G1 X146.086 Y200.120 E1.20171 F1200.000
G1 X145.923 Y200.846 E1.22616
G1 X145.160 Y200.083 E1.26162
G1 X144.271 Y200.083 E1.29083
G1 X145.761 Y201.572 E1.36004
G1 X145.598 Y202.299 E1.38450
G1 X143.383 Y200.083 E1.48747
G1 X142.494 Y200.083 E1.51667
G1 X145.436 Y203.025 E1.65339
G1 X145.273 Y203.751 E1.67785
G1 X141.605 Y200.083 E1.84832
G1 X140.716 Y200.083 E1.87752
G1 X145.111 Y204.478 E2.08175
G1 X144.948 Y205.204 E2.10620
G1 X139.827 Y200.083 E2.34418
G1 X138.939 Y200.083 E2.37338
G1 X144.786 Y205.930 E2.64511
G1 X144.384 Y206.417 E2.66586
G1 X138.050 Y200.083 E2.96020
G1 X137.161 Y200.083 E2.98940
G1 X143.495 Y206.417 E3.28375
G1 X142.606 Y206.417 E3.31295
G1 X136.272 Y200.083 E3.60729
G1 X135.383 Y200.083 E3.63650
G1 X141.717 Y206.417 E3.93084
G1 X140.829 Y206.417 E3.96005
G1 X134.495 Y200.083 E4.25439
G1 X133.606 Y200.083 E4.28360
G1 X139.940 Y206.417 E4.57794
G1 X139.051 Y206.417 E4.60714
G1 X132.717 Y200.083 E4.90149
G1 X131.828 Y200.083 E4.93069
G1 X138.162 Y206.417 E5.22503
G1 X137.273 Y206.417 E5.25424
G1 X130.939 Y200.083 E5.54858
G1 X130.050 Y200.083 E5.57779
G1 X136.385 Y206.417 E5.87213
G1 X135.496 Y206.417 E5.90133
G1 X129.162 Y200.083 E6.19568
G1 X128.584 Y200.394 E6.21724
G1 X134.607 Y206.417 E6.49715
G1 X133.718 Y206.417 E6.52636
G1 X128.550 Y201.248 E6.76654
G1 X128.516 Y202.103 E6.79465
G1 X132.829 Y206.417 E6.99510
G1 X131.941 Y206.417 E7.02431
G1 X128.482 Y202.958 E7.18504
G1 X128.448 Y203.813 E7.21315
G1 X131.052 Y206.417 E7.33415
G1 X130.163 Y206.417 E7.36336
G1 X128.414 Y204.668 E7.44463
G1 X128.380 Y205.523 E7.47275
G1 X129.274 Y206.417 E7.51430
G1 X128.385 Y206.417 E7.54350
G1 X128.346 Y206.378 E7.54533
G1 F1500.000 E6.34533
G92 E0
G1 X147.256 Y196.844 F9600.000
G1 E1.20000 F1500.000
G1 X128.298 Y196.844 E1.82294 F1200.000
G1 X128.583 Y189.656 E2.05929
G1 X148.863 Y189.656 E2.72568
G1 X147.272 Y196.770 E2.96521
G1 X147.749 Y197.459 F9600.000
G1 X127.657 Y197.459 E3.62542 F1200.000
G1 X127.991 Y189.041 E3.90227
G1 X149.632 Y189.041 E4.61337
G1 X147.765 Y197.386 E4.89437
G1 X147.335 Y197.178 F9600.000
G1 F1500.000 E3.69437
G92 E0
G1 X148.286 Y190.083 F9600.000
G1 E1.20000 F1500.000
G1 X148.323 Y190.120 E1.20171 F1200.000
G1 X148.160 Y190.848 E1.22622
G1 X147.395 Y190.083 E1.26177
G1 X146.504 Y190.083 E1.29104
G1 X147.997 Y191.576 E1.36042
G1 X147.834 Y192.304 E1.38493
G1 X145.613 Y190.083 E1.48814
G1 X144.722 Y190.083 E1.51742
G1 X147.671 Y193.032 E1.65447
G1 X147.508 Y193.760 E1.67898
G1 X143.831 Y190.083 E1.84986
G1 X142.940 Y190.083 E1.87914
G1 X147.345 Y194.488 E2.08385
G1 X147.183 Y195.216 E2.10837
G1 X142.049 Y190.083 E2.34692
G1 X141.158 Y190.083 E2.37619
G1 X147.020 Y195.944 E2.64857
G1 X146.601 Y196.417 E2.66931
G1 X140.267 Y190.083 E2.96366
G1 X139.376 Y190.083 E2.99293
G1 X145.710 Y196.417 E3.28727
G1 X144.819 Y196.417 E3.31655
G1 X138.485 Y190.083 E3.61089
G1 X137.594 Y190.083 E3.64017
G1 X143.928 Y196.417 E3.93451
G1 X143.037 Y196.417 E3.96379
G1 X136.703 Y190.083 E4.25813
G1 X135.812 Y190.083 E4.28741
G1 X142.147 Y196.417 E4.58175
G1 X141.256 Y196.417 E4.61102
G1 X134.921 Y190.083 E4.90537
G1 X134.031 Y190.083 E4.93464
G1 X140.365 Y196.417 E5.22899
G1 X139.474 Y196.417 E5.25826
G1 X133.140 Y190.083 E5.55260
G1 X132.249 Y190.083 E5.58188
G1 X138.583 Y196.417 E5.87622
G1 X137.692 Y196.417 E5.90550
G1 X131.358 Y190.083 E6.19984
G1 X130.467 Y190.083 E6.22912
G1 X136.801 Y196.417 E6.52346
G1 X135.910 Y196.417 E6.55274
G1 X129.576 Y190.083 E6.84708
G1 X128.981 Y190.379 E6.86891
G1 X135.019 Y196.417 E7.14949
G1 X134.128 Y196.417 E7.17877
G1 X128.947 Y191.236 E7.41953
G1 X128.913 Y192.093 E7.44771
G1 X133.237 Y196.417 E7.64864
G1 X132.346 Y196.417 E7.67792
G1 X128.879 Y192.950 E7.83903
G1 X128.845 Y193.807 E7.86721
G1 X131.455 Y196.417 E7.98850
G1 X130.564 Y196.417 E8.01778
G1 X128.811 Y194.664 E8.09925
G1 X128.777 Y195.521 E8.12743
G1 X129.673 Y196.417 E8.16907
G1 X128.782 Y196.417 E8.19835
G1 X128.743 Y196.378 E8.20017
G1 F1500.000 E7.00017
G92 E0
G1 X149.492 Y186.844 F9600.000
G1 E1.20000 F1500.000
G1 X128.694 Y186.844 E1.88340 F1200.000
G1 X128.980 Y179.656 E2.11975
G1 X151.100 Y179.656 E2.84660
G1 X149.509 Y186.770 E3.08613
G1 X149.986 Y187.459 F9600.000
G1 X128.054 Y187.459 E3.80680 F1200.000
G1 X128.388 Y179.041 E4.08365
G1 X151.869 Y179.041 E4.85522
G1 X150.002 Y187.386 E5.13622
G1 X149.572 Y187.178 F9600.000
G1 F1500.000 E3.93622
G92 E0
G1 X150.523 Y180.083 F9600.000
G1 E1.20000 F1500.000
G1 X150.559 Y180.120 E1.20171 F1200.000
G1 X150.396 Y180.849 E1.22627
G1 X149.630 Y180.083 E1.26189
G1 X148.737 Y180.083 E1.29123
G1 X150.233 Y181.579 E1.36074
G1 X150.070 Y182.309 E1.38531
G1 X147.844 Y180.083 E1.48874
G1 X146.951 Y180.083 E1.51807
G1 X149.907 Y183.038 E1.65540
G1 X149.743 Y183.768 E1.67997
G1 X146.059 Y180.083 E1.85121
G1 X145.166 Y180.083 E1.88054
G1 X149.580 Y184.497 E2.08568
G1 X149.417 Y185.227 E2.11025
G1 X144.273 Y180.083 E2.34930
G1 X143.380 Y180.083 E2.37864
G1 X149.254 Y185.957 E2.65159
G1 X148.821 Y186.417 E2.67234
G1 X142.487 Y180.083 E2.96668
G1 X141.594 Y180.083 E2.99602
G1 X147.928 Y186.417 E3.29036
G1 X147.036 Y186.417 E3.31970
G1 X140.702 Y180.083 E3.61404
G1 X139.809 Y180.083 E3.64338
G1 X146.143 Y186.417 E3.93772
G1 X145.250 Y186.417 E3.96706
G1 X138.916 Y180.083 E4.26140
G1 X138.023 Y180.083 E4.29074
G1 X144.357 Y186.417 E4.58508
G1 X143.464 Y186.417 E4.61442
G1 X137.130 Y180.083 E4.90876
G1 X136.237 Y180.083 E4.93810
G1 X142.571 Y186.417 E5.23245
G1 X141.679 Y186.417 E5.26178
G1 X135.345 Y180.083 E5.55613
