; generated by Slic3r 1.1.7 on 2015-07-28 at 20:54:25

; perimeters extrusion width = 0.50mm
; infill extrusion width = 0.60mm
; solid infill extrusion width = 0.60mm
; top infill extrusion width = 0.43mm

G21 ; set units to millimeters
M107

M301 P34 I4 D113     ; set PID nozzle
M304 P162 I17 D378 ; set PID Bed

;M104 S230                 ; set extruder temp for budaschnozzle
M104 S250                 ; set extruder temp for hex_hot_end
;M140 S100                 ; set bed temp for PET
M140 S110                 ; set bed temp for PEI (reminder ~G1 Z2 ~ M140 S(@-10 degree change) ;if -m is present in file name)

G28                            ; home
G1 Z5 F300                ; move bed down 5mm
M84                            ; disable steppers
G4 S300                     ; wait 5 mins to preheat

G28                            ; home

G90 ; use absolute coordinates
G92 E0
M82 ; use absolute distances for extrusion
M204 S2000
G1 F1200.000 E-1.50000
G92 E0
G1 Z0.350 F9600.000
G1 X123.416 Y115.750 F9600.000
G1 E1.50000 F1200.000
G1 X123.896 Y115.261 E1.52257 F900.000
G1 X124.483 Y114.755 E1.54815
G1 X125.115 Y114.300 E1.57381
G1 X125.784 Y113.902 E1.59945
G1 X126.483 Y113.565 E1.62505
G1 X127.210 Y113.289 E1.65067
G1 X127.958 Y113.078 E1.67630
G1 X128.721 Y112.933 E1.70188
G1 X129.495 Y112.855 E1.72753
G1 X130.000 Y112.839 E1.74419
G1 X168.272 Y112.845 E3.00578
G1 X169.047 Y112.903 E3.03141 F900.000
G1 X169.814 Y113.028 E3.05700
G1 X170.567 Y113.219 E3.08264
G1 X171.496 Y113.556 E3.11520
G1 X172.009 Y113.794 E3.13384
G1 X172.688 Y114.174 E3.15949
G1 X173.330 Y114.611 E3.18508
G1 X173.931 Y115.103 E3.21070
G1 X174.489 Y115.645 E3.23634
G1 X174.996 Y116.234 E3.26196
G1 X175.450 Y116.865 E3.28759
G1 X175.848 Y117.533 E3.31321
G1 X176.185 Y118.233 E3.33882
G1 X176.461 Y118.960 E3.36445
G1 X176.672 Y119.708 E3.39006
G1 X176.817 Y120.472 E3.41569
G1 X176.895 Y121.245 E3.44131
G1 X176.911 Y121.750 E3.45797
G1 X176.905 Y156.522 E4.60417
G1 X176.847 Y157.297 E4.62980
G1 X176.722 Y158.064 E4.65542
G1 X176.531 Y158.817 E4.68104
G1 X176.275 Y159.551 E4.70666
G1 X175.955 Y160.260 E4.73228
G1 X175.576 Y160.938 E4.75790
G1 X175.138 Y161.580 E4.78351
G1 X174.647 Y162.182 E4.80913
G1 X174.037 Y162.801 E4.83778
G1 X173.516 Y163.246 E4.86036
G1 X172.885 Y163.700 E4.88599
G1 X172.217 Y164.098 E4.91161
G1 X171.517 Y164.435 E4.93723
G1 X170.790 Y164.711 E4.96285
G1 X170.042 Y164.922 E4.98846
G1 X169.278 Y165.067 E5.01409
G1 X168.505 Y165.145 E5.03971
G1 X168.000 Y165.161 E5.05637
G1 X129.636 Y165.151 E6.32098
G1 X128.953 Y165.097 E6.34357
G1 X128.186 Y164.972 E6.36918
G1 X127.433 Y164.781 E6.39481
G1 X126.699 Y164.525 E6.42043
G1 X125.991 Y164.206 E6.44604
G1 X125.312 Y163.826 E6.47167
G1 X124.670 Y163.388 E6.49729
G1 X124.069 Y162.897 E6.52288
G1 X123.449 Y162.287 E6.55154
G1 X123.004 Y161.766 E6.57413
G1 X122.550 Y161.135 E6.59976
G1 X122.152 Y160.467 E6.62539
G1 X121.815 Y159.767 E6.65100
G1 X121.539 Y159.040 E6.67662
G1 X121.308 Y158.202 E6.70527
G1 X121.171 Y157.437 E6.73089
G1 X121.106 Y156.755 E6.75347
G1 X121.089 Y156.250 E6.77014
G1 X121.099 Y121.386 E7.91939
G1 X121.153 Y120.703 E7.94196
G1 X121.278 Y119.936 E7.96758
G1 X121.469 Y119.182 E7.99321
G1 X121.725 Y118.449 E8.01884
G1 X122.044 Y117.741 E8.04442
G1 X122.424 Y117.062 E8.07007
G1 X122.862 Y116.419 E8.09570
G1 X123.365 Y115.805 E8.12188
G1 X123.871 Y116.167 F9600.000
G1 X124.313 Y115.717 E8.14268 F900.000
G1 X124.860 Y115.245 E8.16648
G1 X125.447 Y114.821 E8.19036
G1 X126.069 Y114.450 E8.21422
G1 X126.719 Y114.136 E8.23805
G1 X127.396 Y113.879 E8.26189
G1 X128.092 Y113.681 E8.28575
G1 X128.801 Y113.546 E8.30955
G1 X129.522 Y113.473 E8.33343
G1 X130.000 Y113.457 E8.34920
G1 X168.245 Y113.463 E9.60990
G1 X168.967 Y113.515 E9.63375 F900.000
G1 X169.680 Y113.631 E9.65756
G1 X170.382 Y113.808 E9.68143
G1 X171.259 Y114.127 E9.71221
G1 X171.724 Y114.342 E9.72908
G1 X172.356 Y114.695 E9.75295
G1 X172.954 Y115.101 E9.77676
G1 X173.514 Y115.558 E9.80061
G1 X174.033 Y116.063 E9.82447
G1 X174.506 Y116.610 E9.84831
G1 X174.929 Y117.197 E9.87216
G1 X175.300 Y117.818 E9.89601
G1 X175.615 Y118.470 E9.91985
G1 X175.872 Y119.146 E9.94370
G1 X176.068 Y119.842 E9.96753
G1 X176.204 Y120.552 E9.99138
G1 X176.277 Y121.272 E10.01522
G1 X176.293 Y121.750 E10.03099
G1 X176.287 Y156.495 E11.17631
G1 X176.235 Y157.216 E11.20016
G1 X176.119 Y157.930 E11.22401
G1 X175.942 Y158.632 E11.24785
G1 X175.704 Y159.315 E11.27169
G1 X175.407 Y159.975 E11.29554
G1 X175.055 Y160.606 E11.31938
G1 X174.648 Y161.204 E11.34322
G1 X174.191 Y161.765 E11.36706
G1 X173.619 Y162.345 E11.39393
G1 X173.140 Y162.756 E11.41474
G1 X172.553 Y163.179 E11.43859
G1 X171.931 Y163.550 E11.46243
G1 X171.280 Y163.865 E11.48628
G1 X170.604 Y164.121 E11.51012
G1 X169.908 Y164.318 E11.53395
G1 X169.198 Y164.454 E11.55781
G1 X168.478 Y164.527 E11.58165
G1 X168.000 Y164.543 E11.59742
G1 X129.663 Y164.533 E12.86114
G1 X129.034 Y164.485 E12.88196
G1 X128.320 Y164.369 E12.90579
G1 X127.618 Y164.192 E12.92965
G1 X126.935 Y163.954 E12.95349
G1 X126.276 Y163.658 E12.97732
G1 X125.644 Y163.305 E13.00117
G1 X125.046 Y162.898 E13.02501
G1 X124.486 Y162.442 E13.04883
G1 X123.967 Y161.937 E13.07270
G1 X123.494 Y161.390 E13.09653
G1 X123.071 Y160.803 E13.12039
G1 X122.700 Y160.181 E13.14424
G1 X122.385 Y159.530 E13.16807
G1 X122.129 Y158.854 E13.19192
G1 X121.912 Y158.068 E13.21879
G1 X121.784 Y157.357 E13.24263
G1 X121.723 Y156.728 E13.26343
G1 X121.707 Y156.250 E13.27921
G1 X121.717 Y121.413 E14.42757
G1 X121.765 Y120.784 E14.44837
G1 X121.881 Y120.070 E14.47221
G1 X122.058 Y119.368 E14.49607
G1 X122.296 Y118.685 E14.51992
G1 X122.592 Y118.026 E14.54373
G1 X122.945 Y117.394 E14.56760
G1 X123.352 Y116.796 E14.59145
G1 X123.821 Y116.222 E14.61585
G1 F1200.000 E13.11585
G92 E0
G1 X137.298 Y125.548 F9600.000
G1 E1.50000 F1200.000
G1 X136.939 Y125.856 E1.51559 F1125.000
G1 X136.625 Y126.065 E1.52802
G1 X136.374 Y126.196 E1.53736
G1 X135.841 Y126.390 E1.55604
G1 X135.564 Y126.451 E1.56539
G1 X135.000 Y126.500 E1.58406
G1 X134.528 Y126.463 E1.59966
G1 X134.159 Y126.390 E1.61208
G1 X133.626 Y126.196 E1.63076
G1 X133.215 Y125.963 E1.64635
G1 X132.911 Y125.740 E1.65878
G1 X132.702 Y125.548 E1.66812
G1 X132.338 Y125.114 E1.68680
G1 X132.097 Y124.707 E1.70239
G1 X131.946 Y124.362 E1.71482
G1 X131.799 Y123.814 E1.73349
G1 X131.762 Y123.533 E1.74284
G1 X131.758 Y123.060 E1.75844
G1 X131.799 Y122.686 E1.77086
G1 X131.946 Y122.138 E1.78953
G1 X132.185 Y121.625 E1.80821
G1 X132.338 Y121.386 E1.81756
G1 X132.638 Y121.021 E1.83315
G1 X132.911 Y120.760 E1.84557
G1 X133.136 Y120.588 E1.85492
G1 X133.626 Y120.304 E1.87360
G1 X133.888 Y120.196 E1.88295
G1 X134.436 Y120.049 E1.90162
G1 X134.717 Y120.012 E1.91097
G1 X135.190 Y120.008 E1.92656
G1 X135.564 Y120.049 E1.93899 F1125.000
G1 X136.112 Y120.196 E1.95766
G1 X136.625 Y120.435 E1.97634
G1 X136.864 Y120.588 E1.98569
G1 X137.229 Y120.888 E2.00128
G1 X137.490 Y121.161 E2.01370
G1 X137.815 Y121.625 E2.03238
G1 X138.054 Y122.138 E2.05106
G1 X138.201 Y122.686 E2.06973
G1 X138.238 Y122.967 E2.07908
G1 X138.242 Y123.440 E2.09467
G1 X138.201 Y123.814 E2.10710
G1 X138.082 Y124.272 E2.12269
G1 X137.946 Y124.624 E2.13511
G1 X137.662 Y125.114 E2.15379
G1 X137.349 Y125.493 E2.17000
G1 F1200.000 E0.67000
G92 E0
G1 X135.161 Y119.632 F9600.000
G1 X138.290 Y126.565 F9600.000
G1 E1.50000 F1200.000
G1 X138.673 Y126.142 E1.51881 F1125.000
G1 X138.911 Y125.811 E1.53226
G1 X139.119 Y125.460 E1.54570
G1 X139.296 Y125.093 E1.55915
G1 X139.440 Y124.711 E1.57259
G1 X139.551 Y124.319 E1.58603
G1 X139.715 Y123.538 E1.61234
G1 X139.865 Y123.178 E1.62519
G1 X140.073 Y122.848 E1.63805
G1 X140.334 Y122.558 E1.65090
G1 X140.481 Y122.430 E1.65734
G1 X140.806 Y122.214 E1.67019
G1 X141.162 Y122.055 E1.68304
G1 X141.539 Y121.957 E1.69590
G1 X141.921 Y121.925 E1.70854
G1 X160.089 Y121.925 E2.30742
G1 X160.460 Y121.957 E2.31970 F1125.000
G1 X160.651 Y121.998 E2.32614
G1 X160.854 Y122.061 E2.33314
G1 X161.194 Y122.214 E2.34542
G1 X161.532 Y122.441 E2.35885
G1 X161.803 Y122.697 E2.37114
G1 X161.927 Y122.848 E2.37756
G1 X162.135 Y123.178 E2.39043
G1 X162.285 Y123.538 E2.40328
G1 X162.446 Y124.303 E2.42907
G1 X162.550 Y124.682 E2.44201
G1 X162.686 Y125.050 E2.45494
G1 X162.852 Y125.405 E2.46788
G1 X163.047 Y125.746 E2.48081
G1 X163.271 Y126.069 E2.49375
G1 X163.520 Y126.371 E2.50668
G1 X163.794 Y126.652 E2.51962
G1 X164.091 Y126.909 E2.53255
G1 X164.408 Y127.140 E2.54549
G1 X164.743 Y127.344 E2.55842
G1 X165.095 Y127.519 E2.57136
G1 X165.459 Y127.664 E2.58429
G1 X165.835 Y127.777 E2.59723
G1 X166.219 Y127.859 E2.61017
G1 X166.608 Y127.908 E2.62310
G1 X167.203 Y127.934 E2.64272
G1 X167.404 Y127.960 E2.64941
G1 X167.795 Y128.065 E2.66277
G1 X168.163 Y128.236 E2.67613
G1 X168.495 Y128.469 E2.68950
G1 X168.781 Y128.755 E2.70285
G1 X168.905 Y128.916 E2.70954
G1 X169.107 Y129.267 E2.72290
G1 X169.246 Y129.648 E2.73626
G1 X169.290 Y129.846 E2.74295
G1 X169.325 Y130.243 E2.75608
G1 X169.316 Y147.052 E3.31018
G1 X169.286 Y147.272 E3.31748
G1 X169.185 Y147.645 E3.33024
G1 X169.014 Y148.013 E3.34360
G1 X168.781 Y148.345 E3.35696
G1 X168.495 Y148.631 E3.37032
G1 X168.163 Y148.864 E3.38368
G1 X167.797 Y149.034 E3.39699
G1 X167.404 Y149.140 E3.41041
G1 X167.007 Y149.175 E3.42353
G1 X133.993 Y149.175 E4.51180
G1 X133.596 Y149.140 E4.52493
G1 X133.203 Y149.034 E4.53834
G1 X132.838 Y148.864 E4.55164
G1 X132.505 Y148.631 E4.56501
G1 X132.219 Y148.345 E4.57838
G1 X132.085 Y148.168 E4.58566
G1 X131.892 Y147.833 E4.59843
G1 X131.754 Y147.452 E4.61178
G1 X131.710 Y147.254 E4.61848
G1 X131.675 Y146.857 E4.63160
G1 X131.675 Y130.171 E5.18163
G1 X131.709 Y129.782 E5.19452
G1 X131.751 Y129.587 E5.20109
G1 X131.893 Y129.196 E5.21479
G1 X132.081 Y128.865 E5.22733
G1 X132.200 Y128.706 E5.23389
G1 X132.478 Y128.420 E5.24702
G1 X132.649 Y128.287 E5.25417
G1 X132.975 Y128.091 E5.26671
G1 X133.346 Y127.947 E5.27983
G1 X133.736 Y127.868 E5.29296
G1 X134.134 Y127.857 E5.30608
G1 X134.738 Y127.917 E5.32609
G1 X135.146 Y127.922 E5.33953
G1 X135.552 Y127.892 E5.35298
G1 X135.955 Y127.826 E5.36642
G1 X136.350 Y127.725 E5.37986
G1 X136.735 Y127.591 E5.39331
G1 X137.107 Y127.423 E5.40675
G1 X137.462 Y127.224 E5.42019
G1 X137.799 Y126.994 E5.43363
G1 X138.236 Y126.617 E5.45264
G1 F1200.000 E3.95264
G92 E0
G1 X160.270 Y121.600 F9600.000
G1 X133.680 Y126.887 F9600.000
G1 E1.50000 F1200.000
G1 X133.636 Y127.258 E1.51233 F1500.000
G1 X133.172 Y127.353 E1.52795
G1 X132.933 Y127.435 E1.53625
G1 X132.481 Y127.657 E1.55288
G1 X132.073 Y127.953 E1.56949
G1 X131.721 Y128.315 E1.58612
G1 X131.437 Y128.730 E1.60272
G1 X131.228 Y129.189 E1.61933
G1 X131.153 Y129.429 E1.62763
G1 X131.067 Y129.926 E1.64426
G1 X131.067 Y147.106 E2.21058
G1 X131.157 Y147.612 E2.22749
G1 X131.234 Y147.858 E2.23599
G1 X131.430 Y148.283 E2.25142
G1 X131.589 Y148.539 E2.26136
G1 X131.745 Y148.742 E2.26980
G1 X132.108 Y149.105 E2.28673
G1 X132.529 Y149.400 E2.30366
G1 X132.989 Y149.614 E2.32040
G1 X133.489 Y149.749 E2.33746
G1 X133.980 Y149.793 E2.35370
G1 X167.021 Y149.793 E3.44286
G1 X167.511 Y149.749 E3.45908
G1 X167.762 Y149.693 E3.46757
G1 X168.244 Y149.518 E3.48449
G1 X168.688 Y149.261 E3.50138
G1 X168.892 Y149.105 E3.50986
G1 X169.082 Y148.931 E3.51833
G1 X169.397 Y148.557 E3.53445
G1 X169.732 Y148.671 E3.54612
G1 X169.732 Y156.229 E3.79527
G1 X169.705 Y156.551 E3.80590
G1 X169.627 Y156.842 E3.81585
G1 X169.499 Y157.116 E3.82579
G1 X169.387 Y157.283 E3.83243
G1 X169.224 Y157.474 E3.84072
G1 X169.073 Y157.607 E3.84735
G1 X168.866 Y157.749 E3.85564
G1 X168.732 Y157.819 E3.86062
G1 X168.448 Y157.922 E3.87057
G1 X168.151 Y157.975 E3.88052
G1 X167.979 Y157.982 E3.88617
G1 X163.316 Y157.982 E4.03990
G1 X163.697 Y157.384 E4.06327
G1 X163.869 Y157.054 E4.07553
G1 X164.011 Y156.710 E4.08781
G1 X164.136 Y156.297 E4.10204
G1 X164.204 Y155.991 E4.11236
G1 X164.252 Y155.622 E4.12463
G1 X164.269 Y155.250 E4.13691
G1 X164.252 Y154.878 E4.14919
G1 X164.191 Y154.451 E4.16341
G1 X164.123 Y154.145 E4.17373
G1 X164.011 Y153.790 E4.18601
G1 X163.869 Y153.446 E4.19828
G1 X163.697 Y153.116 E4.21056
G1 X163.497 Y152.802 E4.22284
G1 X163.270 Y152.506 E4.23511
G1 X163.018 Y152.232 E4.24739
G1 X162.744 Y151.980 E4.25967
G1 X162.449 Y151.753 E4.27193
G1 X162.134 Y151.553 E4.28422
G1 X161.804 Y151.381 E4.29649
G1 X161.460 Y151.239 E4.30876
G1 X161.105 Y151.127 E4.32104
G1 X160.741 Y151.046 E4.33331
G1 X160.372 Y150.998 E4.34559
G1 X160.000 Y150.981 E4.35787
G1 X159.628 Y150.998 E4.37014
G1 X159.201 Y151.059 E4.38436
G1 X158.895 Y151.127 E4.39468
G1 X158.540 Y151.239 E4.40696
G1 X158.196 Y151.381 E4.41924
G1 X157.866 Y151.553 E4.43151
G1 X157.552 Y151.753 E4.44379
G1 X157.256 Y151.980 E4.45606
G1 X156.982 Y152.232 E4.46834
G1 X156.730 Y152.506 E4.48062
G1 X156.471 Y152.851 E4.49484
G1 X156.303 Y153.116 E4.50516
G1 X156.131 Y153.446 E4.51744
G1 X155.971 Y153.846 E4.53166
G1 X155.877 Y154.145 E4.54198
G1 X155.796 Y154.509 E4.55425
G1 X155.745 Y154.937 E4.56848
G1 X155.731 Y155.250 E4.57880
G1 X155.748 Y155.622 E4.59108
G1 X155.809 Y156.049 E4.60530
G1 X155.877 Y156.355 E4.61562
G1 X155.989 Y156.710 E4.62789
G1 X156.131 Y157.054 E4.64018
G1 X156.303 Y157.384 E4.65245
G1 X156.684 Y157.982 E4.67582
G1 X137.316 Y157.982 E5.31426
G1 X137.697 Y157.384 E5.33763
G1 X137.869 Y157.054 E5.34990
G1 X138.011 Y156.710 E5.36218
G1 X138.123 Y156.355 E5.37446
G1 X138.204 Y155.991 E5.38673
G1 X138.252 Y155.622 E5.39900
G1 X138.266 Y155.191 E5.41322
G1 X138.252 Y154.878 E5.42355
G1 X138.204 Y154.509 E5.43582
G1 X138.123 Y154.145 E5.44810
G1 X138.011 Y153.790 E5.46038
G1 X137.869 Y153.446 E5.47265
G1 X137.697 Y153.116 E5.48493
G1 X137.497 Y152.802 E5.49720
G1 X137.270 Y152.506 E5.50947
G1 X137.018 Y152.232 E5.52175
G1 X136.744 Y151.980 E5.53403
G1 X136.399 Y151.722 E5.54825
G1 X136.134 Y151.553 E5.55858
G1 X135.804 Y151.381 E5.57085
G1 X135.460 Y151.239 E5.58312
G1 X135.105 Y151.127 E5.59540
G1 X134.683 Y151.038 E5.60962
G1 X134.372 Y150.998 E5.61995
G1 X134.000 Y150.981 E5.63222
G1 X133.628 Y150.998 E5.64450
G1 X133.259 Y151.046 E5.65677
G1 X132.895 Y151.127 E5.66905
G1 X132.485 Y151.261 E5.68327
G1 X132.196 Y151.381 E5.69360
G1 X131.866 Y151.553 E5.70587
G1 X131.552 Y151.753 E5.71814
G1 X131.213 Y152.020 E5.73236
G1 X130.982 Y152.231 E5.74269
G1 X130.730 Y152.506 E5.75496
G1 X130.503 Y152.802 E5.76725
G1 X130.303 Y153.116 E5.77952
G1 X130.131 Y153.446 E5.79179
G1 X129.971 Y153.846 E5.80601
G1 X129.877 Y154.145 E5.81634
G1 X129.796 Y154.509 E5.82861
G1 X129.748 Y154.878 E5.84088
G1 X129.731 Y155.250 E5.85316
G1 X129.748 Y155.622 E5.86544
G1 X129.796 Y155.991 E5.87771
G1 X129.877 Y156.355 E5.88999
G1 X129.989 Y156.710 E5.90227
G1 X130.131 Y157.054 E5.91454
G1 X130.303 Y157.384 E5.92682
G1 X130.684 Y157.982 E5.95018
G1 X129.849 Y157.975 E5.97771
G1 X129.650 Y157.944 E5.98434
G1 X129.408 Y157.877 E5.99263
G1 X129.224 Y157.796 E5.99927
G1 X129.007 Y157.668 E6.00756
G1 X128.776 Y157.474 E6.01750
G1 X128.582 Y157.243 E6.02745
G1 X128.431 Y156.982 E6.03740
G1 X128.328 Y156.698 E6.04735
G1 X128.275 Y156.401 E6.05729
G1 X128.268 Y156.229 E6.06295
G1 X128.268 Y121.771 E7.19885
G1 X128.295 Y121.449 E7.20947
G1 X128.328 Y121.302 E7.21445
G1 X128.431 Y121.018 E7.22440
G1 X128.582 Y120.757 E7.23435
G1 X128.674 Y120.637 E7.23933
G1 X128.813 Y120.492 E7.24596
G1 X129.007 Y120.332 E7.25425
G1 X129.134 Y120.251 E7.25923
G1 X129.408 Y120.123 E7.26918
G1 X129.699 Y120.045 E7.27913
G1 X130.021 Y120.018 E7.28975
G1 X132.806 Y120.018 E7.38158
G1 X132.264 Y120.514 E7.40582
G1 X132.036 Y120.763 E7.41694
G1 X131.766 Y121.133 E7.43203
G1 X131.494 Y121.615 E7.45029
G1 X131.365 Y121.927 E7.46141
G1 X131.263 Y122.249 E7.47254
G1 X131.190 Y122.578 E7.48367
G1 X131.146 Y122.913 E7.49479
G1 X131.131 Y123.250 E7.50592
G1 X131.146 Y123.587 E7.51704
G1 X131.190 Y123.922 E7.52817
G1 X131.263 Y124.251 E7.53929
G1 X131.365 Y124.573 E7.55042
G1 X131.549 Y124.992 E7.56551
G1 X131.831 Y125.469 E7.58377
G1 X132.036 Y125.737 E7.59489
G1 X132.264 Y125.986 E7.60602
G1 X132.513 Y126.214 E7.61714
G1 X132.781 Y126.419 E7.62827
G1 X133.066 Y126.600 E7.63939
G1 X133.365 Y126.756 E7.65052
