; generated by Slic3r 1.1.7 on 2016-01-18 at 11:50:09

; perimeters extrusion width = 0.50mm
; infill extrusion width = 0.60mm
; solid infill extrusion width = 0.60mm
; top infill extrusion width = 0.43mm

G21 ; set units to millimeters
M107
G21                                      ; metric values
G90                                      ; absolute positioning
M82                                      ; set extruder to absolute mode
M107                                    ; start with the fan off
G92 E0                                 ; set extruder position to 0
M140 S110                           ; get bed heating up
G28                                      ; home all
M109 S150                           ; set to cleaning temp and wait
G1 Z150 E-30 F75                ; suck up XXmm of filament
M109 S170                           ; heat up rest of way
G1 X45 Y174 F11520           ; move behind scraper
G1 Z0  F1200                       ; CRITICAL: set Z to height of top of scraper
G1 X45 Y174 Z-.5 F4000      ; wiping ; plunge into wipe pad
G1 X55 Y172 Z-.5 F4000      ; wiping
G1 X45 Y174 Z0 F4000        ; wiping
G1 X55 Y172 F4000             ; wiping
G1 X45 Y174 F4000             ; wiping
G1 X55 Y172 F4000             ; wiping
G1 X45 Y174 F4000             ; wiping
G1 X55 Y172 F4000             ; wiping
G1 X60 Y174 F4000             ; wiping
G1 X80 Y172 F4000             ; wiping
G1 X60 Y174 F4000             ; wiping
G1 X80 Y172 F4000             ; wiping
G1 X60 Y174 F4000             ; wiping
G1 X90 Y172 F4000             ; wiping
G1 X80 Y174 F4000             ; wiping
G1 X100 Y172 F4000           ; wiping
G1 X80 Y174 F4000             ; wiping
G1 X100 Y172 F4000           ; wiping
G1 X80 Y174 F4000             ; wiping
G1 X100 Y172 F4000           ; wiping
G1 X110 Y174 F4000           ; wiping
G1 X100 Y172 F4000           ; wiping
G1 X110 Y174 F4000           ; wiping
G1 X100 Y172 F4000           ; wiping
G1 X110 Y174 F4000           ; wiping
G1 X115 Y172 Z-0.5 F1000  ; wipe slower and bury noz in cleanish area
G1 Z10                                 ; raise z
G28 X0 Y0                            ; home x and y
M109 S170                           ; set to probing temp
M204 S300                           ; set accel for probing
G29                                      ; Probe
M204 S2000                         ; set accel back to normal
G1 X5 Y15 Z10 F5000          ; get out the way
M400                                    ; clear buffer
G4 S1                                   ; pause
M109 S250                           ; set extruder temp and wait
G4 S25                                 ; wait for bed to temp up
G1 Z2 E0 F75                       ; extrude filament back into nozzle
M140 S110                           ; get bed temping up during first layer
G90 ; use absolute coordinates
G92 E0
M82 ; use absolute distances for extrusion
M204 S2000
G1 F600.000 E-1.00000
G92 E0
G1 Z0.350 F10500.000
G1 X30.461 Y51.196 F10500.000
G1 E1.00000 F600.000
G1 X31.233 Y50.815 E1.02840 F1500.000
G1 X31.960 Y50.539 E1.05402
G1 X32.708 Y50.328 E1.07963
G1 X33.472 Y50.183 E1.10526
G1 X34.245 Y50.105 E1.13088
G1 X34.750 Y50.089 E1.14753
G1 X119.522 Y50.095 E3.94193
G1 X120.297 Y50.153 E3.96756 F1500.000
G1 X121.064 Y50.278 E3.99318
G1 X121.817 Y50.469 E4.01879
G1 X122.551 Y50.725 E4.04442
G1 X123.260 Y51.045 E4.07004
G1 X123.938 Y51.424 E4.09565
G1 X124.580 Y51.862 E4.12127
G1 X125.182 Y52.353 E4.14689
G1 X125.739 Y52.896 E4.17252
G1 X126.246 Y53.484 E4.19813
G1 X126.700 Y54.115 E4.22375
G1 X127.098 Y54.783 E4.24937
G1 X127.435 Y55.483 E4.27499
G1 X127.711 Y56.210 E4.30061
G1 X127.922 Y56.958 E4.32623
G1 X128.067 Y57.722 E4.35185
G1 X128.145 Y58.495 E4.37747
G1 X128.161 Y59.000 E4.39413
G1 X128.155 Y97.272 E5.65572
G1 X128.097 Y98.047 E5.68134
G1 X127.972 Y98.814 E5.70695
G1 X127.781 Y99.567 E5.73258
G1 X127.490 Y100.386 E5.76122
G1 X127.205 Y101.010 E5.78381
G1 X126.826 Y101.688 E5.80943
G1 X126.388 Y102.330 E5.83505
G1 X125.897 Y102.932 E5.86067
G1 X125.354 Y103.489 E5.88629
G1 X124.766 Y103.996 E5.91191
G1 X124.135 Y104.450 E5.93753
G1 X123.467 Y104.848 E5.96315
G1 X122.767 Y105.185 E5.98877
G1 X122.040 Y105.461 E6.01438
G1 X121.203 Y105.691 E6.04302
G1 X120.438 Y105.829 E6.06864
G1 X119.755 Y105.895 E6.09124
G1 X119.250 Y105.911 E6.10790
G1 X34.478 Y105.905 E8.90230
G1 X33.703 Y105.847 E8.92793
G1 X32.936 Y105.722 E8.95354
G1 X32.183 Y105.531 E8.97916
G1 X31.364 Y105.240 E9.00781
G1 X30.740 Y104.955 E9.03040
G1 X30.062 Y104.576 E9.05602
G1 X29.347 Y104.082 E9.08466
G1 X28.818 Y103.647 E9.10725
G1 X28.261 Y103.104 E9.13288
G1 X27.754 Y102.516 E9.15849
G1 X27.250 Y101.807 E9.18713
G1 X26.902 Y101.217 E9.20973
G1 X26.565 Y100.517 E9.23535
G1 X26.289 Y99.790 E9.26096
G1 X26.078 Y99.042 E9.28659
G1 X25.933 Y98.278 E9.31221
G1 X25.855 Y97.505 E9.33783
G1 X25.839 Y97.000 E9.35449
G1 X25.845 Y58.728 E10.61608
G1 X25.915 Y57.862 E10.64471
G1 X26.028 Y57.186 E10.66731
G1 X26.219 Y56.433 E10.69293
G1 X26.475 Y55.699 E10.71855
G1 X26.795 Y54.990 E10.74417
G1 X27.174 Y54.312 E10.76979
G1 X27.668 Y53.597 E10.79843
G1 X28.103 Y53.068 E10.82102
G1 X28.646 Y52.511 E10.84664
G1 X29.307 Y51.948 E10.87528
G1 X29.865 Y51.550 E10.89788
G1 X30.396 Y51.234 E10.91824
G1 X30.776 Y51.725 F10500.000
G1 X31.470 Y51.385 E10.94370 F1500.000
G1 X32.146 Y51.129 E10.96753
G1 X32.841 Y50.932 E10.99137
G1 X33.552 Y50.796 E11.01522
G1 X34.272 Y50.723 E11.03906
G1 X34.750 Y50.707 E11.05483
G1 X119.495 Y50.713 E13.84834
G1 X120.216 Y50.765 E13.87219 F1500.000
G1 X120.930 Y50.881 E13.89604
G1 X121.632 Y51.058 E13.91988
G1 X122.315 Y51.296 E13.94372
G1 X122.975 Y51.593 E13.96757
G1 X123.606 Y51.945 E13.99141
G1 X124.204 Y52.352 E14.01525
G1 X124.765 Y52.809 E14.03909
G1 X125.283 Y53.313 E14.06294
G1 X125.756 Y53.861 E14.08678
G1 X126.179 Y54.447 E14.11062
G1 X126.550 Y55.068 E14.13446
G1 X126.865 Y55.720 E14.15831
G1 X127.121 Y56.396 E14.18215
G1 X127.318 Y57.092 E14.20599
G1 X127.454 Y57.802 E14.22984
G1 X127.527 Y58.522 E14.25368
G1 X127.543 Y59.000 E14.26945
G1 X127.537 Y97.245 E15.53015
G1 X127.485 Y97.966 E15.55399
G1 X127.369 Y98.680 E15.57783
G1 X127.192 Y99.382 E15.60168
G1 X126.919 Y100.149 E15.62854
G1 X126.657 Y100.724 E15.64936
G1 X126.305 Y101.356 E15.67320
G1 X125.898 Y101.954 E15.69705
G1 X125.441 Y102.515 E15.72089
G1 X124.937 Y103.033 E15.74474
G1 X124.389 Y103.506 E15.76858
G1 X123.803 Y103.929 E15.79242
G1 X123.182 Y104.300 E15.81626
G1 X122.530 Y104.615 E15.84011
G1 X121.854 Y104.871 E15.86395
G1 X121.069 Y105.088 E15.89081
G1 X120.357 Y105.216 E15.91465
G1 X119.728 Y105.277 E15.93548
G1 X119.250 Y105.293 E15.95124
G1 X34.505 Y105.287 E18.74476
G1 X33.783 Y105.235 E18.76861
G1 X33.070 Y105.119 E18.79244
G1 X32.368 Y104.942 E18.81629
G1 X31.600 Y104.669 E18.84316
G1 X31.025 Y104.407 E18.86397
G1 X30.394 Y104.055 E18.88781
G1 X29.723 Y103.592 E18.91468
G1 X29.235 Y103.191 E18.93550
G1 X28.717 Y102.687 E18.95934
G1 X28.244 Y102.140 E18.98318
G1 X27.771 Y101.475 E19.01005
G1 X27.450 Y100.932 E19.03087
G1 X27.135 Y100.280 E19.05471
G1 X26.879 Y99.604 E19.07855
G1 X26.682 Y98.908 E19.10239
G1 X26.546 Y98.198 E19.12624
G1 X26.473 Y97.478 E19.15008
G1 X26.457 Y97.000 E19.16585
G1 X26.463 Y58.755 E20.42656
G1 X26.527 Y57.943 E20.45341
G1 X26.631 Y57.320 E20.47424
G1 X26.808 Y56.618 E20.49808
G1 X27.046 Y55.935 E20.52192
G1 X27.343 Y55.275 E20.54577
G1 X27.695 Y54.644 E20.56961
G1 X28.158 Y53.973 E20.59647
G1 X28.559 Y53.485 E20.61729
G1 X29.063 Y52.967 E20.64113
G1 X29.683 Y52.438 E20.66800
G1 X30.197 Y52.071 E20.68882
G1 X30.712 Y51.764 E20.70858
G1 F600.000 E19.70858
G92 E0
G1 X68.862 Y67.054 F10500.000
G1 E1.00000 F600.000
G1 X68.591 Y67.140 E1.00935 F1500.000
G1 X68.126 Y67.226 E1.02494
G1 X67.750 Y67.250 E1.03736
G1 X67.467 Y67.238 E1.04671
G1 X67.186 Y67.201 E1.05606
G1 X66.638 Y67.054 E1.07473
G1 X66.125 Y66.815 E1.09341
G1 X65.735 Y66.547 E1.10901
G1 X65.452 Y66.298 E1.12143
G1 X65.087 Y65.864 E1.14010
G1 X64.804 Y65.374 E1.15878
G1 X64.696 Y65.112 E1.16813
G1 X64.549 Y64.564 E1.18680
G1 X64.500 Y64.000 E1.20548
G1 X64.512 Y63.717 E1.21483
G1 X64.610 Y63.159 E1.23350
G1 X64.804 Y62.626 E1.25218
G1 X64.935 Y62.375 E1.26153
G1 X65.260 Y61.911 E1.28020
G1 X65.661 Y61.510 E1.29888
G1 X66.125 Y61.185 E1.31756
G1 X66.376 Y61.054 E1.32690
G1 X66.638 Y60.946 E1.33625
G1 X67.186 Y60.799 E1.35493
G1 X67.467 Y60.762 E1.36427
G1 X67.940 Y60.758 E1.37987
G1 X68.314 Y60.799 E1.39229 F1500.000
G1 X68.862 Y60.946 E1.41097
G1 X69.375 Y61.185 E1.42964
G1 X69.839 Y61.510 E1.44832
G1 X70.240 Y61.911 E1.46699
G1 X70.565 Y62.375 E1.48567
G1 X70.804 Y62.888 E1.50435
G1 X70.951 Y63.436 E1.52302
G1 X70.996 Y63.907 E1.53862
G1 X70.988 Y64.283 E1.55104
G1 X70.890 Y64.841 E1.56972
G1 X70.804 Y65.112 E1.57906
G1 X70.602 Y65.601 E1.59653
G1 X70.687 Y65.601 E1.59935
G1 X70.048 Y66.298 E1.63052
G1 X69.839 Y66.490 E1.63987
G1 X69.375 Y66.815 E1.65855
G1 X68.931 Y67.026 E1.67475
G1 F600.000 E0.67475
G92 E0
G1 X67.938 Y60.381 F10500.000
G1 X67.822 Y68.865 F10500.000
G1 E1.00000 F600.000
G1 X68.152 Y69.073 E1.01286 F1500.000
G1 X68.303 Y69.197 E1.01929
G1 X68.570 Y69.481 E1.03215
G1 X68.685 Y69.639 E1.03858
G1 X68.794 Y69.821 E1.04559
G1 X68.945 Y70.162 E1.05787
G1 X69.002 Y70.349 E1.06431
G1 X69.067 Y70.733 E1.07716
G1 X69.075 Y89.079 E1.68190
G1 X69.043 Y89.460 E1.69453
G1 X68.945 Y89.838 E1.70739
G1 X68.777 Y90.209 E1.72082
G1 X68.570 Y90.519 E1.73310
G1 X68.442 Y90.666 E1.73953
G1 X68.152 Y90.927 E1.75239
G1 X67.822 Y91.135 E1.76524
G1 X67.462 Y91.285 E1.77810
G1 X66.696 Y91.446 E1.80389
G1 X66.318 Y91.550 E1.81683
G1 X65.950 Y91.686 E1.82976
G1 X65.595 Y91.852 E1.84270
G1 X65.254 Y92.047 E1.85563
G1 X64.932 Y92.270 E1.86857
G1 X64.629 Y92.520 E1.88150
G1 X64.348 Y92.794 E1.89444
G1 X64.091 Y93.091 E1.90737
G1 X63.860 Y93.408 E1.92031
G1 X63.656 Y93.743 E1.93324
G1 X63.481 Y94.095 E1.94618
G1 X63.336 Y94.459 E1.95911
G1 X63.223 Y94.835 E1.97205
G1 X63.141 Y95.219 E1.98498
G1 X63.092 Y95.608 E1.99792
G1 X63.066 Y96.203 E2.01754
G1 X62.996 Y96.602 E2.03090
G1 X62.849 Y96.999 E2.04486
G1 X62.655 Y97.334 E2.05762
G1 X62.531 Y97.495 E2.06431
G1 X62.230 Y97.792 E2.07826
G1 X61.913 Y98.014 E2.09103
G1 X61.733 Y98.107 E2.09771
G1 X61.352 Y98.246 E2.11108
G1 X61.154 Y98.290 E2.11776
G1 X60.757 Y98.325 E2.13089
G1 X43.947 Y98.316 E2.68500
G1 X43.548 Y98.246 E2.69836
G1 X43.151 Y98.099 E2.71232
G1 X42.816 Y97.905 E2.72508
G1 X42.655 Y97.781 E2.73177
G1 X42.369 Y97.495 E2.74513
G1 X42.136 Y97.163 E2.75849
G1 X41.966 Y96.797 E2.77179
G1 X41.860 Y96.404 E2.78521
G1 X41.825 Y96.007 E2.79834
G1 X41.825 Y62.993 E3.88661
G1 X41.860 Y62.596 E3.89974
G1 X41.904 Y62.398 E3.90644
G1 X42.043 Y62.017 E3.91979
G1 X42.245 Y61.666 E3.93315
G1 X42.369 Y61.505 E3.93984
G1 X42.655 Y61.219 E3.95319
G1 X42.816 Y61.095 E3.95989
G1 X42.987 Y60.986 E3.96657
G1 X43.355 Y60.815 E3.97993
G1 X43.548 Y60.754 E3.98662
G1 X43.947 Y60.684 E3.99998
G1 X60.840 Y60.675 E4.55681
G1 X61.218 Y60.709 E4.56935 F1500.000
G1 X61.603 Y60.810 E4.58247
G1 X61.965 Y60.975 E4.59559
G1 X62.135 Y61.081 E4.60217
G1 X62.443 Y61.333 E4.61528
G1 X62.580 Y61.478 E4.62186
G1 X62.813 Y61.800 E4.63498
G1 X62.909 Y61.975 E4.64155
G1 X63.053 Y62.346 E4.65466
G1 X63.132 Y62.736 E4.66779
G1 X63.143 Y63.134 E4.68091
G1 X63.083 Y63.738 E4.70092
G1 X63.078 Y64.146 E4.71437
G1 X63.108 Y64.552 E4.72781
G1 X63.174 Y64.955 E4.74125
G1 X63.275 Y65.350 E4.75470
G1 X63.409 Y65.735 E4.76814
G1 X63.577 Y66.107 E4.78158
G1 X63.776 Y66.462 E4.79502
G1 X64.006 Y66.799 E4.80847
G1 X64.264 Y67.115 E4.82191
G1 X64.549 Y67.407 E4.83535
G1 X64.858 Y67.673 E4.84880
G1 X65.189 Y67.911 E4.86224
G1 X65.540 Y68.119 E4.87568
G1 X65.907 Y68.296 E4.88913
G1 X66.289 Y68.440 E4.90257
G1 X66.681 Y68.551 E4.91601
G1 X67.274 Y68.663 E4.93589
G1 X67.462 Y68.715 E4.94233
G1 X67.754 Y68.833 E4.95271
G1 F600.000 E3.95271
G92 E0
G1 X60.775 Y60.301 F10500.000
G1 X64.113 Y62.680 F10500.000
G1 E1.00000 F600.000
G1 X63.742 Y62.636 E1.01233 F1500.000
G1 X63.647 Y62.172 E1.02796
G1 X63.565 Y61.933 E1.03627
G1 X63.343 Y61.481 E1.05288
G1 X63.047 Y61.073 E1.06948
G1 X62.686 Y60.722 E1.08610
G1 X62.270 Y60.437 E1.10272
G1 X61.811 Y60.228 E1.11933
G1 X61.367 Y60.109 E1.13449
G1 X61.074 Y60.067 E1.14425
G1 X43.894 Y60.067 E1.71058
G1 X43.388 Y60.157 E1.72749
G1 X42.906 Y60.332 E1.74442
G1 X42.462 Y60.589 E1.76132
G1 X42.258 Y60.745 E1.76980
G1 X41.895 Y61.108 E1.78669
G1 X41.601 Y61.528 E1.80361
G1 X41.386 Y61.988 E1.82035
G1 X41.251 Y62.489 E1.83745
G1 X41.207 Y62.980 E1.85369
G1 X41.207 Y96.021 E2.94284
G1 X41.251 Y96.511 E2.95908
G1 X41.307 Y96.762 E2.96755
G1 X41.482 Y97.244 E2.98447
G1 X41.714 Y97.650 E2.99989
G1 X41.895 Y97.892 E3.00984
G1 X42.069 Y98.082 E3.01831
G1 X42.443 Y98.397 E3.03443
G1 X42.329 Y98.732 E3.04610
G1 X34.771 Y98.732 E3.29525
G1 X34.449 Y98.705 E3.30588
G1 X34.158 Y98.627 E3.31583
G1 X34.018 Y98.569 E3.32080
G1 X33.757 Y98.418 E3.33075
G1 X33.526 Y98.224 E3.34070
G1 X33.393 Y98.073 E3.34734
G1 X33.251 Y97.866 E3.35562
G1 X33.181 Y97.732 E3.36060
G1 X33.078 Y97.448 E3.37055
G1 X33.025 Y97.151 E3.38050
G1 X33.018 Y96.979 E3.38616
G1 X33.018 Y92.316 E3.53988
G1 X33.616 Y92.697 E3.56325
G1 X33.946 Y92.869 E3.57553
G1 X34.290 Y93.011 E3.58780
G1 X34.645 Y93.123 E3.60008
G1 X35.009 Y93.204 E3.61235
G1 X35.378 Y93.252 E3.62463
G1 X35.750 Y93.269 E3.63690
G1 X36.122 Y93.252 E3.64918
G1 X36.549 Y93.191 E3.66340
G1 X36.855 Y93.123 E3.67372
G1 X37.210 Y93.011 E3.68600
G1 X37.554 Y92.869 E3.69827
G1 X37.884 Y92.697 E3.71055
G1 X38.245 Y92.461 E3.72477
G1 X38.494 Y92.270 E3.73509
G1 X38.768 Y92.018 E3.74737
G1 X39.020 Y91.744 E3.75965
G1 X39.247 Y91.448 E3.77192
G1 X39.447 Y91.134 E3.78420
G1 X39.619 Y90.804 E3.79647
G1 X39.761 Y90.460 E3.80875
G1 X39.873 Y90.105 E3.82102
G1 X39.954 Y89.741 E3.83330
G1 X40.005 Y89.313 E3.84752
G1 X40.019 Y89.000 E3.85784
G1 X40.002 Y88.628 E3.87012
G1 X39.941 Y88.201 E3.88434
G1 X39.873 Y87.895 E3.89467
G1 X39.761 Y87.540 E3.90694
G1 X39.591 Y87.143 E3.92116
G1 X39.447 Y86.866 E3.93149
G1 X39.247 Y86.552 E3.94376
G1 X38.980 Y86.212 E3.95798
G1 X38.768 Y85.982 E3.96831
G1 X38.494 Y85.730 E3.98058
G1 X38.198 Y85.503 E3.99286
G1 X37.884 Y85.303 E4.00513
G1 X37.554 Y85.131 E4.01741
G1 X37.153 Y84.971 E4.03163
G1 X36.855 Y84.877 E4.04195
G1 X36.491 Y84.796 E4.05423
G1 X36.122 Y84.748 E4.06650
G1 X35.750 Y84.731 E4.07878
G1 X35.378 Y84.748 E4.09105
G1 X35.009 Y84.796 E4.10333
G1 X34.645 Y84.877 E4.11561
G1 X34.290 Y84.989 E4.12788
G1 X33.946 Y85.131 E4.14016
G1 X33.616 Y85.303 E4.15243
G1 X33.018 Y85.684 E4.17580
G1 X33.018 Y66.316 E4.81425
G1 X33.616 Y66.697 E4.83761
G1 X33.946 Y66.869 E4.84988
G1 X34.290 Y67.011 E4.86216
G1 X34.703 Y67.136 E4.87638
G1 X35.009 Y67.204 E4.88671
G1 X35.378 Y67.252 E4.89898
G1 X35.750 Y67.269 E4.91126
G1 X36.122 Y67.252 E4.92354
G1 X36.491 Y67.204 E4.93581
G1 X36.911 Y67.105 E4.95003
G1 X37.210 Y67.011 E4.96035
G1 X37.554 Y66.869 E4.97263
G1 X37.884 Y66.697 E4.98491
G1 X38.198 Y66.497 E4.99718
G1 X38.494 Y66.270 E5.00946
G1 X38.768 Y66.018 E5.02173
G1 X39.020 Y65.744 E5.03401
G1 X39.279 Y65.398 E5.04823
G1 X39.447 Y65.134 E5.05856
G1 X39.619 Y64.804 E5.07083
G1 X39.761 Y64.460 E5.08310
G1 X39.873 Y64.105 E5.09538
G1 X39.954 Y63.741 E5.10766
G1 X40.002 Y63.372 E5.11993
G1 X40.019 Y63.000 E5.13221
G1 X40.002 Y62.628 E5.14448
G1 X39.941 Y62.201 E5.15871
G1 X39.873 Y61.895 E5.16903
G1 X39.761 Y61.540 E5.18130
G1 X39.619 Y61.196 E5.19358
G1 X39.415 Y60.816 E5.20780
G1 X39.247 Y60.552 E5.21812
G1 X39.020 Y60.256 E5.23040
G1 X38.768 Y59.982 E5.24268
G1 X38.494 Y59.730 E5.25495
G1 X38.198 Y59.503 E5.26722
G1 X37.884 Y59.303 E5.27950
G1 X37.554 Y59.131 E5.29178
G1 X37.154 Y58.971 E5.30600
G1 X36.855 Y58.877 E5.31632
G1 X36.491 Y58.796 E5.32860
G1 X36.122 Y58.748 E5.34087
G1 X35.750 Y58.731 E5.35315
G1 X35.378 Y58.748 E5.36543
G1 X35.009 Y58.796 E5.37770
G1 X34.645 Y58.877 E5.38997
G1 X34.290 Y58.989 E5.40225
G1 X33.946 Y59.131 E5.41453
G1 X33.616 Y59.303 E5.42680
G1 X33.018 Y59.684 E5.45017
G1 X33.025 Y58.849 E5.47769
G1 X33.078 Y58.552 E5.48764
G1 X33.181 Y58.268 E5.49759
G1 X33.332 Y58.007 E5.50754
