;Generated by Cura 2 GCodeWriter Version: 2.6.23
;FLAVOR:RepRap
;TIME:7617
;Filament used: 7.21316m
;Layer height: 0.38
;Generated with Cura_SteamEngine 2.6.23
;This G-Code has been generated specifically for the LulzBot Mini with standard extruder
G26                                ; clear potential 'probe fail' condition
G21                                ; set units to Millimetres
M107                               ; disable fans
G90                                ; absolute positioning
M82                                ; set extruder to absolute mode
G92 E0                             ; set extruder position to 0
M140 S110   ; start bed heating up
G28                                ; home all axes
M109 R170  ; wait for extruder to reach wiping temp
G1 Z150 E-30 F75                   ; retract filament
G1 X45 Y174 F11520                 ; move above wiper pad
G1 Z0  F1200                       ; push nozzle into wiper
G1 X45 Y174 Z-.5 F4000             ; wiping
G1 X55 Y172 Z-.5 F4000             ; wiping
G1 X45 Y174 Z0 F4000               ; wiping
G1 X55 Y172 F4000                  ; wiping
G1 X45 Y174 F4000                  ; wiping
G1 X55 Y172 F4000                  ; wiping
G1 X45 Y174 F4000                  ; wiping
G1 X55 Y172 F4000                  ; wiping
G1 X60 Y174 F4000                  ; wiping
G1 X80 Y172 F4000                  ; wiping
G1 X60 Y174 F4000                  ; wiping
G1 X80 Y172 F4000                  ; wiping
G1 X60 Y174 F4000                  ; wiping
G1 X90 Y172 F4000                  ; wiping
G1 X80 Y174 F4000                  ; wiping
G1 X100 Y172 F4000                 ; wiping
G1 X80 Y174 F4000                  ; wiping
G1 X100 Y172 F4000                 ; wiping
G1 X80 Y174 F4000                  ; wiping
G1 X100 Y172 F4000                 ; wiping
G1 X110 Y174 F4000                 ; wiping
G1 X100 Y172 F4000                 ; wiping
G1 X110 Y174 F4000                 ; wiping
G1 X100 Y172 F4000                 ; wiping
G1 X110 Y174 F4000                 ; wiping
G1 X115 Y172 Z-0.5 F1000           ; wiping
G1 Z10                             ; raise extruder
G28 X0 Y0                          ; home X and Y
M109 R170 ; wait for extruder to reach probe temp
M204 S300                          ; set probing acceleration
G29                                ; start auto-leveling sequence
M204 S2000                         ; restore standard acceleration
G1 X5 Y15 Z10 F5000                ; move up off last probe point
G4 S1                              ; pause
M400                               ; wait for moves to finish
M117 Heating...                    ; progress indicator message on LCD
M109 R240 ; wait for extruder to reach printing temp
M190 S110   ; wait for bed to reach printing temp
G1 Z2 E0 F75                       ; prime tiny bit of filment into the nozzle
M117 Mini Printing...              ; progress indicator message on LCD

;LAYER_COUNT:124
;LAYER:0
M107
M204 S2000
M205 X20
G0 F2625 X38.693 Y36.422 Z0.425
;TYPE:SKIRT
G1 F900 X39.301 Y35.782 E0.02941
G1 X39.965 Y35.2 E0.05882
G1 X40.678 Y34.68 E0.08821
G1 X41.436 Y34.227 E0.11763
G1 X41.832 Y34.025 E0.13244
G1 X50.082 Y30.058 E0.43737
G1 X50.894 Y29.712 E0.46677
G1 X51.521 Y29.502 E0.48879
G1 X52.537 Y29.199 E0.52411
G1 X53.393 Y28.985 E0.5535
G1 X54.489 Y28.828 E0.59038
G1 X55.328 Y28.756 E0.61843
G1 X56.211 Y28.72 E0.64787
G1 X56.843 Y28.744 E0.66894
G1 X57.772 Y28.809 E0.69996
G1 X58.649 Y28.91 E0.72936
G1 X59.616 Y29.118 E0.76231
G1 X100.601 Y40.106 E2.17575
G1 X101.442 Y40.373 E2.20514
G1 X102.256 Y40.715 E2.23455
G1 X103.036 Y41.129 E2.26397
G1 X103.775 Y41.612 E2.29337
G1 X104.467 Y42.16 E2.32278
G1 X105.107 Y42.769 E2.3522
G1 X105.69 Y43.432 E2.38161
G1 X106.209 Y44.146 E2.41102
G1 X106.662 Y44.904 E2.44043
G1 X107.045 Y45.7 E2.46986
G1 X107.354 Y46.527 E2.49926
G1 X107.587 Y47.378 E2.52865
G1 X107.742 Y48.248 E2.55809
G1 X107.818 Y49.127 E2.58748
G1 X107.814 Y50.01 E2.61689
G1 X107.73 Y50.889 E2.64631
G1 X107.494 Y52.047 E2.68567
G1 X86.281 Y131.21 E5.41565
G1 X86.014 Y132.051 E5.44505
G1 X85.672 Y132.865 E5.47446
G1 X85.258 Y133.645 E5.50387
G1 X84.775 Y134.384 E5.53328
G1 X84.227 Y135.077 E5.56271
G1 X83.618 Y135.716 E5.59211
G1 X82.955 Y136.299 E5.62152
G1 X82.241 Y136.819 E5.65094
G1 X81.483 Y137.272 E5.68036
G1 X80.687 Y137.655 E5.70978
G1 X79.86 Y137.964 E5.73919
G1 X79.009 Y138.197 E5.76858
G1 X78.14 Y138.352 E5.79798
G1 X77.26 Y138.428 E5.82741
G1 X76.377 Y138.424 E5.85682
G1 X75.498 Y138.34 E5.88623
G1 X74.33 Y138.101 E5.92595
G1 X33.164 Y127.027 E7.34595
G1 X32.323 Y126.76 E7.37534
G1 X31.509 Y126.417 E7.40476
G1 X30.906 Y126.104 E7.4274
G1 X29.839 Y125.502 E7.4682
G1 X29.09 Y125.033 E7.49764
G1 X28.387 Y124.499 E7.52705
G1 X27.931 Y124.095 E7.54734
G1 X27.05 Y123.262 E7.58773
G1 X26.437 Y122.627 E7.61713
G1 X25.883 Y121.939 E7.64655
G1 X25.543 Y121.443 E7.66658
G1 X24.925 Y120.48 E7.7047
G1 X24.483 Y119.716 E7.7341
G1 X23.992 Y118.611 E7.77438
G1 X23.608 Y117.578 E7.81109
G1 X23.338 Y116.738 E7.84048
G1 X23.145 Y115.876 E7.8699
G1 X23.065 Y115.334 E7.88815
G1 X22.923 Y114.142 E7.92814
G1 X22.859 Y113.262 E7.95753
G1 X22.873 Y112.403 E7.98615
G1 X24.424 Y86.653 E8.84544
G1 X24.517 Y85.775 E8.87485
G1 X24.738 Y84.716 E8.91089
G1 X36.639 Y40.289 E10.44295
G1 X36.906 Y39.447 E10.47237
G1 X37.248 Y38.633 E10.50178
G1 X37.662 Y37.854 E10.53117
G1 X38.145 Y37.114 E10.5606
G1 X38.693 Y36.422 E10.59001
G0 F2625 X39.144 Y36.666
G1 F900 X39.745 Y36.05 E10.61867
G1 X40.4 Y35.493 E10.64731
G1 X41.104 Y35 E10.67594
G1 X42.048 Y34.476 E10.71191
G1 X50.298 Y30.509 E11.01684
G1 X51.09 Y30.172 E11.04551
G1 X51.663 Y29.981 E11.06563
G1 X52.679 Y29.678 E11.10094
G1 X53.514 Y29.471 E11.1296
G1 X54.532 Y29.326 E11.16385
G1 X55.371 Y29.254 E11.1919
G1 X56.23 Y29.22 E11.22054
G1 X56.808 Y29.243 E11.23981
G1 X57.737 Y29.308 E11.27083
G1 X58.591 Y29.407 E11.29946
G1 X59.486 Y29.601 E11.32997
G1 X100.471 Y40.589 E12.74341
G1 X101.291 Y40.85 E12.77207
G1 X102.082 Y41.186 E12.8007
G1 X102.839 Y41.594 E12.82934
G1 X103.555 Y42.07 E12.85798
G1 X104.224 Y42.611 E12.88664
G1 X104.839 Y43.212 E12.91529
G1 X105.396 Y43.868 E12.94395
G1 X105.889 Y44.572 E12.97258
G1 X106.315 Y45.319 E13.00123
G1 X106.67 Y46.102 E13.02986
G1 X106.951 Y46.915 E13.05852
G1 X107.155 Y47.751 E13.08718
G1 X107.28 Y48.602 E13.11583
G1 X107.326 Y49.46 E13.14445
G1 X107.292 Y50.32 E13.17312
G1 X107.178 Y51.172 E13.20176
G1 X107.011 Y51.917 E13.22719
G1 X85.798 Y131.08 E15.95717
G1 X85.537 Y131.9 E15.98584
G1 X85.201 Y132.691 E16.01446
G1 X84.793 Y133.448 E16.04311
G1 X84.316 Y134.164 E16.07177
G1 X83.775 Y134.833 E16.10043
G1 X83.175 Y135.448 E16.12905
G1 X82.519 Y136.005 E16.15771
G1 X81.815 Y136.499 E16.18636
G1 X81.068 Y136.925 E16.215
G1 X80.285 Y137.28 E16.24364
G1 X79.472 Y137.561 E16.27229
G1 X78.636 Y137.764 E16.30095
G1 X77.786 Y137.89 E16.32957
G1 X76.927 Y137.936 E16.35823
G1 X76.067 Y137.902 E16.3869
G1 X75.215 Y137.788 E16.41553
G1 X74.46 Y137.618 E16.44131
G1 X33.294 Y126.544 E17.86131
G1 X32.475 Y126.283 E17.88995
G1 X31.684 Y125.946 E17.91859
G1 X31.152 Y125.668 E17.93858
G1 X30.085 Y125.066 E17.97939
G1 X29.356 Y124.609 E18.00805
G1 X28.673 Y124.087 E18.03669
G1 X28.275 Y123.731 E18.05447
G1 X27.394 Y122.898 E18.09486
G1 X26.797 Y122.279 E18.12351
G1 X26.261 Y121.607 E18.15214
G1 X25.964 Y121.173 E18.16966
G1 X25.346 Y120.21 E18.20777
G1 X24.916 Y119.465 E18.23643
G1 X24.461 Y118.437 E18.27387
G1 X24.077 Y117.404 E18.31058
G1 X23.815 Y116.585 E18.33923
G1 X23.63 Y115.745 E18.36788
G1 X23.562 Y115.275 E18.3837
G1 X23.42 Y114.083 E18.42368
G1 X23.358 Y113.225 E18.45234
G1 X23.372 Y112.433 E18.47872
G1 X24.923 Y86.683 E19.33802
G1 X25.014 Y85.828 E19.36666
G1 X25.221 Y84.846 E19.40009
G1 X37.122 Y40.419 E20.93215
G1 X37.383 Y39.599 E20.96081
G1 X37.719 Y38.807 E20.98947
G1 X38.127 Y38.05 E21.01812
G1 X38.603 Y37.334 E21.04676
G1 X39.144 Y36.666 E21.07539
G1 F600 E20.07539
G0 F2625 X46.083 Y42.04
G0 X46.703 Y43.33
G0 X46.764 Y43.381
G0 X46.688 Y43.318
;TYPE:WALL-INNER
G1 F600 E21.07539
G1 F900 X54.523 Y39.559 E21.36486
G1 X54.808 Y39.446 E21.37507
G1 X55.099 Y39.354 E21.38524
G1 X55.382 Y39.286 E21.39493
G1 X55.686 Y39.236 E21.40519
G1 X55.984 Y39.209 E21.41516
G1 X56.293 Y39.201 E21.42546
G1 X56.583 Y39.215 E21.43513
G1 X56.889 Y39.252 E21.4454
G1 X57.191 Y39.311 E21.45565
G1 X96.934 Y49.958 E22.82618
G1 X97.175 Y50.022 E22.83449
G1 X97.111 Y50.263 E22.83986
G1 X76.404 Y127.538 E25.50473
G1 X76.34 Y127.779 E25.51304
G1 X76.099 Y127.715 E25.51841
G1 X36.35 Y117.061 E26.8892
G1 X36.065 Y116.962 E26.89925
G1 X35.78 Y116.839 E26.90959
G1 X35.509 Y116.7 E26.91973
G1 X35.244 Y116.536 E26.93011
G1 X35.121 Y116.451 E26.93509
G1 X34.87 Y116.257 E26.94566
G1 X34.546 Y115.958 E26.96035
G1 X34.334 Y115.722 E26.97091
G1 X34.137 Y115.468 E26.98162
G1 X34.058 Y115.354 E26.98624
G1 X33.899 Y115.092 E26.99645
G1 X33.755 Y114.82 E27.0067
G1 X33.578 Y114.383 E27.02241
G1 X33.491 Y114.103 E27.03217
G1 X33.423 Y113.809 E27.04223
G1 X33.396 Y113.646 E27.04773
G1 X33.362 Y113.363 E27.05722
G1 X33.346 Y113.05 E27.06766
G1 X33.358 Y112.66 E27.08066
G1 X34.893 Y87.34 E27.92563
G1 X46.688 Y43.318 E29.44374
G0 F2625 X46.764 Y43.381
G0 X52.468 Y43.38
G0 X52.567 Y43.381
G1 F900 X52.574 Y43.716 E29.4549
G1 X52.614 Y44.041 E29.46581
G1 X52.649 Y44.229 E29.47218
G1 X52.761 Y44.627 E29.48595
G1 X52.883 Y44.944 E29.49726
G1 X53.034 Y45.244 E29.50845
G1 X53.212 Y45.532 E29.51973
G1 X53.411 Y45.792 E29.53064
G1 X53.531 Y45.929 E29.5367
G1 X53.719 Y46.118 E29.54558
G1 X53.968 Y46.333 E29.55654
G1 X54.24 Y46.529 E29.56771
G1 X54.532 Y46.7 E29.57898
G1 X54.837 Y46.841 E29.59017
G1 X55.152 Y46.953 E29.60131
G1 X55.418 Y47.022 E29.61046
G1 X55.741 Y47.082 E29.62141
G1 X56.074 Y47.112 E29.63254
G1 X56.411 Y47.112 E29.64377
G1 X56.644 Y47.089 E29.65157
G1 X56.748 Y47.079 E29.65505
G1 X56.937 Y47.044 E29.66145
G1 X57.075 Y47.017 E29.66614
G1 X57.243 Y46.97 E29.67195
G1 X57.338 Y46.943 E29.67524
G1 X57.48 Y46.891 E29.68027
G1 X57.382 Y46.987
G1 X57.277 Y47.089
G1 X57.225 Y47.148
G1 X57.05 Y47.346
G1 X57.004 Y47.397
G1 X56.941 Y47.48 E29.68374
G1 X56.755 Y47.722 E29.69391
G1 X56.528 Y48.065 E29.70761
G1 X56.328 Y48.422 E29.72124
G1 X56.152 Y48.794 E29.73495
G1 X56.003 Y49.179 E29.7487
G1 X55.86 Y49.661 E29.76545
G1 X40.362 Y107.498 E31.75999
G1 X40.265 Y107.919 E31.77438
G1 X40.227 Y108.137 E31.78175
G1 X40.18 Y108.532 E31.795
G1 X40.161 Y108.943 E31.80871
G1 X40.168 Y109.347 E31.82217
G1 X40.186 Y109.567 E31.82952
G1 X40.216 Y109.793 E31.83711
G1 X40.238 Y109.964 E31.84286
G1 X40.279 Y110.163 E31.84962
G1 X40.321 Y110.366 E31.85653
G1 X40.356 Y110.492 E31.86089
G1 X40.395 Y110.632 E31.86573
G1 X40.289 Y110.511
G1 X40.234 Y110.458
G1 X39.989 Y110.223
G1 X39.854 Y110.116 E31.87071
G1 X39.721 Y110.011 E31.87636
G1 X39.439 Y109.831 E31.8875
G1 X39.144 Y109.674 E31.89863
G1 X38.839 Y109.549 E31.90961
G1 X38.664 Y109.491 E31.91576
G1 X38.407 Y109.425 E31.92459
G1 X38.085 Y109.365 E31.9355
G1 X37.75 Y109.335 E31.94671
G1 X37.414 Y109.336 E31.9579
G1 X37.08 Y109.367 E31.96907
G1 X36.752 Y109.43 E31.9802
G1 X36.488 Y109.504 E31.98933
G1 X36.175 Y109.618 E32.00043
G1 X35.876 Y109.762 E32.01148
G1 X35.586 Y109.93 E32.02265
G1 X35.311 Y110.13 E32.03397
G1 X35.053 Y110.356 E32.0454
G1 X34.766 Y110.668 E32.05952
G1 X34.563 Y110.939 E32.0708
G1 X34.388 Y111.225 E32.08197
G1 X34.239 Y111.524 E32.0931
G1 X34.12 Y111.831 E32.10406
G1 X34.064 Y112.016 E32.1105
G1 X33.976 Y112.422 E32.12434
G1 X33.938 Y112.758 E32.1356
G1 X33.931 Y113.096 E32.14686
G1 X33.956 Y113.431 E32.15805
G1 X34.012 Y113.767 E32.1694
G1 X34.126 Y114.174 E32.18348
G1 X34.248 Y114.491 E32.19479
G1 X34.399 Y114.791 E32.20598
G1 X34.577 Y115.078 E32.21723
G1 X34.776 Y115.339 E32.22816
G1 X34.896 Y115.476 E32.23423
G1 X35.084 Y115.665 E32.24311
G1 X35.335 Y115.881 E32.25414
G1 X35.605 Y116.074 E32.2652
G1 X35.896 Y116.246 E32.27646
G1 X36.202 Y116.388 E32.28769
G1 X36.517 Y116.5 E32.29883
G1 X36.783 Y116.57 E32.30799
G1 X37.108 Y116.629 E32.319
G1 X37.44 Y116.658 E32.3301
G1 X37.775 Y116.658 E32.34126
G1 X38.111 Y116.627 E32.3525
G1 X38.449 Y116.562 E32.36396
G1 X38.854 Y116.438 E32.37807
G1 X39.167 Y116.307 E32.38937
G1 X39.461 Y116.15 E32.40047
G1 X39.744 Y115.967 E32.4117
G1 X39.999 Y115.762 E32.4226
G1 X40.141 Y115.633 E32.42899
G1 X40.424 Y115.326 E32.4429
G1 X40.627 Y115.056 E32.45415
G1 X40.803 Y114.77 E32.46534
G1 X40.952 Y114.47 E32.47649
G1 X41.072 Y114.16 E32.48757
G1 X41.124 Y113.983 E32.49371
G1 X41.185 Y113.729 E32.50241
G1 X41.237 Y113.402 E32.51344
G1 X41.253 Y113.16 E32.52152
G1 X41.259 Y113.067 E32.52463
G1 X41.251 Y112.731 E32.53582
G1 X41.213 Y112.408 E32.54665
G1 X41.192 Y112.296 E32.55045
G1 X41.25 Y112.382
G1 X41.265 Y112.404
G1 X41.418 Y112.599
G1 X41.52 Y112.728
G1 X41.57 Y112.783
G1 X41.632 Y112.851 E32.55329
G1 X41.793 Y113.029 E32.56129
G1 X42.089 Y113.31 E32.57488
G1 X42.255 Y113.453 E32.58218
G1 X42.572 Y113.696 E32.59548
G1 X42.912 Y113.92 E32.60905
G1 X43.102 Y114.031 E32.61638
G1 X43.456 Y114.212 E32.62962
G1 X43.837 Y114.378 E32.64346
G1 X44.217 Y114.507 E32.65683
G1 X44.411 Y114.565 E32.66358
G1 X63.94 Y119.794 E33.33701
G1 X64.34 Y119.87 E33.35057
G1 X64.751 Y119.92 E33.36436
G1 X65.157 Y119.938 E33.3779
G1 X65.562 Y119.93 E33.39139
G1 X65.78 Y119.914 E33.39868
G1 X66.179 Y119.861 E33.41208
G1 X66.585 Y119.778 E33.42589
G1 X66.978 Y119.667 E33.43949
G1 X67.166 Y119.599 E33.44615
G1 X67.202 Y119.647 E33.44815
G1 X67.526 Y119.475 E33.46037
G1 X67.547 Y119.502 E33.46151
G1 X67.885 Y119.3 E33.47462
G1 X67.919 Y119.338 E33.47632
G1 X68.785 Y118.709 E33.51197
G1 X69.095 Y118.445 E33.52554
G1 X69.389 Y118.16 E33.53918
G1 X69.664 Y117.849 E33.55301
G1 X69.914 Y117.523 E33.56669
G1 X70.136 Y117.185 E33.58016
G1 X70.338 Y116.826 E33.59388
G1 X70.515 Y116.451 E33.6077
G1 X70.66 Y116.073 E33.62118
G1 X70.785 Y115.669 E33.63527
G1 X86.227 Y58.038 E35.6227
G1 X86.402 Y57.336 E35.6468
G1 X86.44 Y57.114 E35.6543
G1 X86.487 Y56.718 E35.66758
G1 X86.505 Y56.318 E35.68092
G1 X86.498 Y55.895 E35.69501
G1 X86.458 Y55.483 E35.7088
G1 X86.39 Y55.079 E35.72245
G1 X86.294 Y54.679 E35.73615
G1 X86.168 Y54.288 E35.74983
G1 X86.017 Y53.908 E35.76345
G1 X85.837 Y53.538 E35.77716
G1 X85.631 Y53.182 E35.79086
G1 X85.401 Y52.843 E35.80451
G1 X85.148 Y52.52 E35.81817
G1 X84.872 Y52.216 E35.83185
G1 X84.574 Y51.933 E35.84554
G1 X84.258 Y51.671 E35.85921
G1 X83.923 Y51.433 E35.8729
G1 X83.573 Y51.22 E35.88655
G1 X83.208 Y51.032 E35.90023
G1 X82.83 Y50.87 E35.91392
G1 X82.442 Y50.737 E35.92759
G1 X62.914 Y45.5 E36.60106
G1 X62.526 Y45.411 E36.61432
G1 X62.122 Y45.348 E36.62794
G1 X61.713 Y45.313 E36.64161
G1 X61.302 Y45.309 E36.6553
G1 X60.891 Y45.333 E36.66902
G1 X60.486 Y45.387 E36.68263
G1 X60.083 Y45.469 E36.69633
G1 X59.757 Y45.562 E36.70762
G1 X59.687 Y45.581 E36.71003
G1 X59.579 Y45.619 E36.71385
G1 X59.333 Y45.707 E36.72255
G1 X59.301 Y45.719 E36.72369
G1 X59.076 Y45.818 E36.73188
G1 X58.985 Y45.859 E36.7352
G1 X59.059 Y45.779
G1 X59.175 Y45.625
G1 X59.262 Y45.509
G1 X59.347 Y45.371
G1 X59.438 Y45.224 E36.73778
G1 X59.47 Y45.159 E36.74019
G1 X59.587 Y44.923 E36.74896
G1 X59.706 Y44.615 E36.75996
G1 X59.762 Y44.431 E36.76637
G1 X59.849 Y44.025 E36.7802
G1 X59.887 Y43.69 E36.79143
G1 X59.894 Y43.354 E36.80262
G1 X59.871 Y43.017 E36.81388
G1 X59.813 Y42.678 E36.82533
G1 X59.699 Y42.271 E36.83941
G1 X59.576 Y41.956 E36.85068
G1 X59.426 Y41.657 E36.86182
G1 X59.25 Y41.371 E36.87301
G1 X59.042 Y41.097 E36.88446
G1 X58.748 Y40.787 E36.8987
G1 X58.491 Y40.566 E36.90999
G1 X58.218 Y40.372 E36.92114
G1 X57.929 Y40.202 E36.93231
G1 X57.623 Y40.059 E36.94356
G1 X57.3 Y39.945 E36.95497
G1 X56.887 Y39.845 E36.96913
G1 X56.551 Y39.8 E36.98042
G1 X56.219 Y39.785 E36.99149
G1 X55.881 Y39.802 E37.00276
G1 X55.542 Y39.85 E37.01417
G1 X55.132 Y39.955 E37.02827
G1 X54.811 Y40.071 E37.03963
G1 X54.508 Y40.216 E37.05082
G1 X54.222 Y40.384 E37.06187
G1 X53.947 Y40.582 E37.07316
G1 X53.688 Y40.809 E37.08463
G1 X53.401 Y41.121 E37.09875
G1 X53.198 Y41.393 E37.11006
G1 X53.023 Y41.678 E37.1212
G1 X52.874 Y41.977 E37.13233
