;Generated by Cura LulzBot Edition GCodeWriter Version: 2.6.66
;FLAVOR:RepRap
;TIME:10739
;Filament used: 8.28805m
;Layer height: 0.378
;Generated with Cura_SteamEngine 2.6.66
;This G-Code has been generated specifically for the LulzBot Mini with Aerostruder
G26 ; clear potential 'probe fail' condition
G21 ; set units to Millimetres
M107 ; disable fans
G90 ; absolute positioning
M82 ; set extruder to absolute mode
G92 E0 ; set extruder position to 0
M140 S115 ; start bed heating up
G28 ; home all axes
G0 X0 Y187 Z156 F200 ; move away from endstops
M109 R170 ; soften filament before retraction
G1 E-15 F75 ; retract filament
M109 R170 ; wait for extruder to reach wiping temp
G1 X45 Y173 F11520 ; move above wiper pad
G1 Z0 F1200 ; push nozzle into wiper
G1 X42 Y173 Z-.5 F4000 ; wiping
G1 X52 Y171 Z-.5 F4000 ; wiping
G1 X42 Y173 Z0 F4000 ; wiping
G1 X52 Y171 F4000 ; wiping
G1 X42 Y173 F4000 ; wiping
G1 X52 Y171 F4000 ; wiping
G1 X42 Y173 F4000 ; wiping
G1 X52 Y171 F4000 ; wiping
G1 X57 Y173 F4000 ; wiping
G1 X77 Y171 F4000 ; wiping
G1 X57 Y173 F4000 ; wiping
G1 X77 Y171 F4000 ; wiping
G1 X57 Y173 F4000 ; wiping
G1 X87 Y171 F4000 ; wiping
G1 X77 Y173 F4000 ; wiping
G1 X97 Y171 F4000 ; wiping
G1 X77 Y173 F4000 ; wiping
G1 X97 Y171 F4000 ; wiping
G1 X77 Y173 F4000 ; wiping
G1 X97 Y171 F4000 ; wiping
G1 X107 Y173 F4000 ; wiping
G1 X97 Y171 F4000 ; wiping
G1 X107 Y173 F4000 ; wiping
G1 X97 Y171 F4000 ; wiping
G1 X107 Y173 F4000 ; wiping
G1 X112 Y171 Z-0.5 F1000 ; wiping
G1 Z10 ; raise extruder
G28 X0 Y0 ; home X and Y
G0 X0 Y187 F200 ; move away from endstops
M109 R170 ; wait for extruder to reach probe temp
M204 S300 ; set probing acceleration
G29 ; start auto-leveling sequence
M204 S2000 ; restore standard acceleration
G28 X0 Y0 ; re-home to account for build variance of earlier mini builds
G0 X0 Y187 F200 ; move away from endstops
G0 Y152 F4000 ; move in front of wiper pad
G4 S1 ; pause
M400 ; wait for moves to finish
M117 Heating... ; progress indicator message on LCD
M109 R245 ; wait for extruder to reach printing temp
M190 S116 ; wait for bed to reach printing temp
G1 Z2 E0 F75 ; prime tiny bit of filament into the nozzle
M117 Mini Printing... ; progress indicator message on LCD


M221 S100
;LAYER_COUNT:124
;LAYER:0
M107
M204 S800
M205 X2
G0 F2250 X48.328 Y34.084 Z0.42
;TYPE:SKIRT
G1 F900 X48.659 Y33.692 E0.02027
G1 X49.047 Y33.355 E0.04057
G1 X49.483 Y33.083 E0.06087
G1 X49.955 Y32.882 E0.08113
G1 X50.453 Y32.756 E0.10142
G1 X51.01 Y32.709 E0.12351
G1 X93.307 Y32.718 E1.79433
G1 X93.904 Y32.773 E1.81801
G1 X95.082 Y32.99 E1.86533
G1 X95.578 Y33.122 E1.8856
G1 X95.835 Y33.224 E1.89653
G1 X96.916 Y33.709 E1.94333
G1 X97.367 Y33.955 E1.96362
G1 X97.621 Y34.139 E1.97601
G1 X98.657 Y34.964 E2.02833
G1 X99.165 Y35.467 E2.05657
G1 X99.683 Y36.106 E2.08906
G1 X99.972 Y36.525 E2.10917
G1 X100.296 Y37.082 E2.13462
G1 X100.515 Y37.536 E2.15453
G1 X100.888 Y38.487 E2.19489
G1 X101.049 Y39.031 E2.2173
G1 X106.221 Y64.329 E3.23729
G1 X106.288 Y64.99 E3.26354
G1 X106.29 Y110.983 E5.08036
G1 X106.25 Y111.495 E5.10065
G1 X106.131 Y111.994 E5.12091
G1 X105.936 Y112.469 E5.14119
G1 X105.67 Y112.908 E5.16147
G1 X105.339 Y113.301 E5.18177
G1 X105.134 Y113.492 E5.19284
G1 X97.916 Y119.659 E5.56786
G1 X97.425 Y120.006 E5.59161
G1 X96.874 Y120.325 E5.61676
G1 X96.358 Y120.567 E5.63927
G1 X95.342 Y120.94 E5.68203
G1 X94.859 Y121.077 E5.70186
G1 X94.399 Y121.17 E5.7204
G1 X93.748 Y121.235 E5.74624
G1 X51.031 Y121.269 E7.43366
G1 X50.519 Y121.229 E7.45394
G1 X50.019 Y121.111 E7.47424
G1 X49.544 Y120.917 E7.4945
G1 X49.105 Y120.651 E7.51478
G1 X48.712 Y120.32 E7.53508
G1 X48.375 Y119.932 E7.55538
G1 X48.103 Y119.497 E7.57565
G1 X47.901 Y119.025 E7.59593
G1 X47.776 Y118.527 E7.61621
G1 X47.728 Y117.97 E7.63829
G1 X47.709 Y36.01 E10.87589
G1 X47.749 Y35.498 E10.89618
G1 X47.868 Y34.998 E10.91648
G1 X48.062 Y34.523 E10.93675
G1 X48.072 Y34.507 E10.93749
G0 F810 X48.328 Y34.084
G1 F420 E9.93749
G0 F2250 X50.335 Y38.209
G0 X52.57 Y38.209
;TYPE:WALL-INNER
G1 F420 E10.95705
G1 F900 X52.5 Y38.305 E10.96174
G1 X52.5 Y37.5 E10.99354
G1 X53.31 Y37.5 E11.02554
G1 X53.137 Y37.635 E11.0342
G1 X52.843 Y37.907 E11.05003
G1 X52.808 Y37.945 E11.05207
G0 F810 X52.57 Y38.209
G1 F420 E10.05207
G0 F2250 X54.122 Y39.755
G0 X54.128 Y42.252
G0 X52.57 Y43.785
G1 F420 E11.06613
G1 F900 X52.836 Y44.085 E11.08197
G1 X53.133 Y44.366 E11.09812
G1 X53.446 Y44.606 E11.1137
G1 X53.649 Y44.742 E11.12335
G1 X54.075 Y44.979 E11.14261
G1 X54.454 Y45.14 E11.15887
G1 X54.837 Y45.264 E11.17478
G1 X55.232 Y45.355 E11.19079
G1 X55.623 Y45.404 E11.20636
G1 X55.869 Y45.417 E11.21609
G1 X56.353 Y45.406 E11.23521
G1 X56.765 Y45.354 E11.25161
G1 X57.155 Y45.266 E11.26741
G1 X57.544 Y45.143 E11.28352
G1 X57.908 Y44.988 E11.29915
G1 X58.127 Y44.874 E11.30891
G1 X58.539 Y44.618 E11.32807
G1 X58.863 Y44.365 E11.3443
G1 X59.157 Y44.093 E11.36013
G1 X59.43 Y43.791 E11.37621
G1 X59.664 Y43.471 E11.39187
G1 X59.795 Y43.263 E11.40158
G1 X60.012 Y42.852 E11.41994
G1 X60.108 Y42.629 E11.42953
G1 X60.238 Y42.26 E11.44498
G1 X60.335 Y41.866 E11.46101
G1 X60.398 Y41.462 E11.47716
G1 X60.42 Y41.048 E11.49354
G1 X60.397 Y40.548 E11.51331
G1 X60.335 Y40.14 E11.52961
G1 X60.239 Y39.744 E11.54571
G1 X60.104 Y39.357 E11.5619
G1 X59.93 Y38.978 E11.57837
G1 X59.675 Y38.545 E11.59822
G1 X59.43 Y38.215 E11.61446
G1 X59.164 Y37.915 E11.6303
G1 X58.867 Y37.634 E11.64645
G1 X58.693 Y37.5 E11.65512
G1 X90.306 Y37.503 E12.90391
G1 X90.137 Y37.635 E12.91238
G1 X89.843 Y37.907 E12.9282
G1 X89.57 Y38.209 E12.94428
G1 X89.336 Y38.529 E12.95994
G1 X89.205 Y38.737 E12.96965
G1 X88.988 Y39.148 E12.98801
G1 X88.892 Y39.371 E12.9976
G1 X88.762 Y39.74 E13.01305
G1 X88.665 Y40.134 E13.02908
G1 X88.602 Y40.538 E13.04523
G1 X88.58 Y40.952 E13.06161
G1 X88.584 Y41.039 E13.06505
G1 X88.283 Y40.915 E13.07791
G1 X88.041 Y40.828 E13.08807
G1 X87.612 Y40.701 E13.10574
G1 X87.153 Y40.602 E13.12429
G1 X86.693 Y40.536 E13.14265
G1 X86.23 Y40.503 E13.16098
G1 X65.767 Y40.502 E13.96932
G1 X65.305 Y40.537 E13.98762
G1 X64.85 Y40.6 E14.00576
G1 X64.401 Y40.7 E14.02394
G1 X64.155 Y40.768 E14.03402
G1 X63.732 Y40.907 E14.05161
G1 X63.299 Y41.087 E14.07013
G1 X62.906 Y41.283 E14.08748
G1 X62.762 Y41.138 E14.09555
G1 X61.401 Y42.406 E14.16903
G1 X61.087 Y42.742 E14.1872
G1 X60.793 Y43.107 E14.20571
G1 X60.53 Y43.487 E14.22397
G1 X60.296 Y43.883 E14.24214
G1 X60.086 Y44.298 E14.26051
G1 X59.906 Y44.734 E14.27914
G1 X59.77 Y45.151 E14.29647
G1 X59.701 Y45.396 E14.30652
G1 X59.604 Y45.833 E14.3242
G1 X59.563 Y46.095 E14.33468
G1 X59.517 Y46.535 E14.35216
G1 X59.5 Y46.995 E14.37034
G1 X59.5 Y106.687 E16.7283
G1 X59.515 Y107.438 E16.75797
G1 X59.539 Y107.704 E16.76852
G1 X59.6 Y108.144 E16.78607
G1 X59.697 Y108.592 E16.80418
G1 X59.831 Y109.053 E16.82314
G1 X59.995 Y109.488 E16.84151
G1 X60.186 Y109.909 E16.85977
G1 X60.409 Y110.316 E16.8781
G1 X60.658 Y110.707 E16.89641
G1 X60.939 Y111.08 E16.91486
G1 X61.243 Y111.43 E16.93317
G1 X61.57 Y111.757 E16.95144
G1 X61.92 Y112.061 E16.96975
G1 X62.293 Y112.342 E16.9882
G1 X62.684 Y112.591 E17.00651
G1 X63.091 Y112.814 E17.02485
G1 X63.512 Y113.006 E17.04312
G1 X63.945 Y113.167 E17.06137
G1 X64.392 Y113.3 E17.07979
G1 X64.847 Y113.398 E17.09818
G1 X65.306 Y113.463 E17.11649
G1 X65.767 Y113.497 E17.13475
G1 X86.027 Y113.5 E17.93507
G1 X86.464 Y113.484 E17.95234
G1 X86.925 Y113.434 E17.97066
G1 X87.383 Y113.353 E17.98903
G1 X87.832 Y113.237 E18.00735
G1 X88.272 Y113.092 E18.02565
G1 X88.581 Y112.964 E18.03886
G1 X88.603 Y113.452 E18.05816
G1 X88.665 Y113.86 E18.07446
G1 X88.761 Y114.256 E18.09056
G1 X88.896 Y114.643 E18.10675
G1 X89.07 Y115.022 E18.12322
G1 X89.325 Y115.455 E18.14307
G1 X89.57 Y115.785 E18.15931
G1 X89.836 Y116.085 E18.17515
G1 X90.133 Y116.366 E18.1913
G1 X90.304 Y116.497 E18.19981
G1 X58.691 Y116.5 E19.44859
G1 X58.863 Y116.365 E19.45722
G1 X59.157 Y116.093 E19.47305
G1 X59.43 Y115.791 E19.48913
G1 X59.664 Y115.471 E19.50479
G1 X59.795 Y115.263 E19.5145
G1 X60.012 Y114.852 E19.53286
G1 X60.108 Y114.629 E19.54245
G1 X60.238 Y114.26 E19.5579
G1 X60.335 Y113.866 E19.57393
G1 X60.395 Y113.477 E19.58948
G1 X60.413 Y113.229 E19.5993
G1 X60.412 Y112.747 E19.61834
G1 X60.369 Y112.336 E19.63467
G1 X60.29 Y111.943 E19.6505
G1 X60.177 Y111.554 E19.6665
G1 X60.033 Y111.192 E19.68189
G1 X59.925 Y110.966 E19.69179
G1 X59.673 Y110.544 E19.7112
G1 X59.431 Y110.215 E19.72734
G1 X59.164 Y109.915 E19.7432
G1 X58.867 Y109.634 E19.75935
G1 X58.554 Y109.394 E19.77493
G1 X58.351 Y109.258 E19.78458
G1 X57.925 Y109.021 E19.80384
G1 X57.546 Y108.861 E19.82009
G1 X57.164 Y108.736 E19.83597
G1 X56.767 Y108.645 E19.85206
G1 X56.377 Y108.596 E19.86758
G1 X56.131 Y108.583 E19.87732
G1 X55.647 Y108.594 E19.89644
G1 X55.235 Y108.646 E19.91284
G1 X54.845 Y108.734 E19.92864
G1 X54.456 Y108.857 E19.94475
G1 X54.092 Y109.012 E19.96038
G1 X53.873 Y109.126 E19.97013
G1 X53.461 Y109.382 E19.98929
G1 X53.137 Y109.635 E20.00553
G1 X52.843 Y109.907 E20.02135
G1 X52.57 Y110.209 E20.03744
G1 X52.5 Y110.305 E20.04213
G1 X52.5 Y44.069 E22.65859
G0 F810 X52.5 Y43.691
G0 X52.57 Y43.785
G1 F420 E21.65859
G0 F2250 X54.386 Y42.573
G0 X57.291 Y42.857
G0 X57.371 Y42.865
G0 X63.393 Y43.454
G0 X63.473 Y43.462
G0 X90.237 Y46.083
G0 X92.353 Y45.619
G1 F420 E22.67815
G1 F900 X92.288 Y45.362 E22.68862
G1 X92.623 Y45.404 E22.70196
G1 X92.869 Y45.417 E22.71169
G1 X93.353 Y45.406 E22.73081
G1 X93.765 Y45.354 E22.74722
G1 X94.155 Y45.266 E22.76301
G1 X94.544 Y45.143 E22.77913
G1 X94.908 Y44.988 E22.79475
G1 X95.127 Y44.874 E22.80451
G1 X95.539 Y44.618 E22.82367
G1 X95.863 Y44.365 E22.83991
G1 X96.157 Y44.093 E22.85573
G1 X96.43 Y43.791 E22.87181
G1 X96.664 Y43.471 E22.88747
G1 X96.795 Y43.263 E22.89718
G1 X96.967 Y42.937 E22.91174
G1 X101.5 Y65.156 E23.80752
G1 X101.5 Y110.313 E25.59132
G1 X97.328 Y113.894 E25.8085
G1 X97.395 Y113.477 E25.82519
G1 X97.413 Y113.229 E25.83501
G1 X97.412 Y112.747 E25.85405
G1 X97.369 Y112.336 E25.87037
G1 X97.29 Y111.943 E25.88621
G1 X97.177 Y111.554 E25.90221
G1 X97.033 Y111.192 E25.9176
G1 X96.925 Y110.966 E25.92749
G1 X96.673 Y110.544 E25.94691
G1 X96.431 Y110.215 E25.96304
G1 X96.164 Y109.915 E25.97891
G1 X95.867 Y109.634 E25.99506
G1 X95.554 Y109.394 E26.01064
G1 X95.351 Y109.258 E26.02029
G1 X94.925 Y109.021 E26.03955
G1 X94.546 Y108.86 E26.05581
G1 X94.163 Y108.736 E26.07172
G1 X93.768 Y108.645 E26.08773
G1 X93.377 Y108.596 E26.1033
G1 X93.131 Y108.583 E26.11303
G1 X92.647 Y108.594 E26.13215
G1 X92.287 Y108.639 E26.14648
G1 X92.353 Y108.383 E26.15693
G1 X92.434 Y107.926 E26.17526
G1 X92.485 Y107.459 E26.19382
G1 X92.5 Y106.92 E26.21512
G1 X92.5 Y47.018 E28.58138
G1 X92.486 Y46.54 E28.60027
G1 X92.437 Y46.106 E28.61752
G0 F810 X92.434 Y46.073
G0 X92.353 Y45.619
G1 F420 E27.61752
G0 F2250 X90.291 Y46.383
G0 X61.643 Y100.482
G0 X61.606 Y100.552
G0 X56.241 Y110.683
G0 X56.204 Y110.753
G0 X54.259 Y114.428
G0 X52.57 Y115.785
G1 F420 E28.63707
G1 F900 X52.836 Y116.085 E28.65291
G1 X53.133 Y116.366 E28.66906
G1 X53.308 Y116.5 E28.67777
G1 X52.5 Y116.5 E28.70969
G1 X52.5 Y115.892 E28.7337
G0 F810 X52.5 Y115.691
G0 X52.57 Y115.785
G0 F2250 X53.036 Y115.407
G1 F420 E28.74626
G1 F900 X53.267 Y115.667 E28.76
G1 X53.523 Y115.909 E28.77392
G1 X53.795 Y116.118 E28.78747
G1 X53.962 Y116.229 E28.79539
G1 X54.339 Y116.439 E28.81244
G1 X54.664 Y116.577 E28.82638
G1 X54.997 Y116.685 E28.84021
G1 X55.337 Y116.763 E28.85399
G1 X55.677 Y116.806 E28.86753
G1 X55.878 Y116.817 E28.87548
G1 X56.308 Y116.807 E28.89247
G1 X56.661 Y116.762 E28.90653
G1 X57.001 Y116.686 E28.92029
G1 X57.335 Y116.579 E28.93415
G1 X57.65 Y116.445 E28.94767
G1 X57.83 Y116.352 E28.95567
G1 X58.195 Y116.125 E28.97265
G1 X58.474 Y115.908 E28.98661
G1 X58.729 Y115.671 E29.00037
G1 X58.964 Y115.411 E29.01421
G1 X59.168 Y115.133 E29.02783
G1 X59.275 Y114.963 E29.03577
G1 X59.47 Y114.593 E29.05229
G1 X59.549 Y114.41 E29.06016
G1 X59.662 Y114.088 E29.07364
G1 X59.746 Y113.748 E29.08748
G1 X59.798 Y113.409 E29.10102
G1 X59.813 Y113.207 E29.10902
G1 X59.812 Y112.779 E29.12593
G1 X59.775 Y112.426 E29.13995
G1 X59.707 Y112.086 E29.15365
G1 X59.609 Y111.749 E29.16751
G1 X59.483 Y111.433 E29.18095
G1 X59.395 Y111.249 E29.18901
G1 X59.173 Y110.876 E29.20615
G1 X58.964 Y110.593 E29.22005
G1 X58.733 Y110.333 E29.23379
G1 X58.477 Y110.091 E29.24771
G1 X58.205 Y109.882 E29.26126
G1 X58.038 Y109.771 E29.26918
G1 X57.661 Y109.561 E29.28622
G1 X57.336 Y109.423 E29.30017
G1 X57.004 Y109.315 E29.31396
G1 X56.662 Y109.237 E29.32782
G1 X56.323 Y109.194 E29.34132
G1 X56.122 Y109.183 E29.34927
G1 X55.692 Y109.193 E29.36626
G1 X55.339 Y109.238 E29.38032
G1 X55.001 Y109.314 E29.394
G1 X54.665 Y109.42 E29.40792
G1 X54.349 Y109.555 E29.42149
G1 X54.17 Y109.648 E29.42946
G1 X53.805 Y109.875 E29.44644
G1 X53.526 Y110.092 E29.4604
G1 X53.271 Y110.329 E29.47416
G1 X53.036 Y110.589 E29.488
G1 X52.832 Y110.867 E29.50162
G1 X52.725 Y111.037 E29.50956
G1 X52.53 Y111.407 E29.52608
G1 X52.451 Y111.59 E29.53395
G1 X52.338 Y111.912 E29.54743
G1 X52.254 Y112.252 E29.56127
G1 X52.2 Y112.6 E29.57518
G1 X52.181 Y112.954 E29.58918
G1 X52.201 Y113.393 E29.60654
G1 X52.254 Y113.744 E29.62056
G1 X52.337 Y114.086 E29.63446
G1 X52.453 Y114.419 E29.64839
G1 X52.602 Y114.744 E29.66252
G1 X52.754 Y115.001 E29.67431
G0 F810 X52.826 Y115.123
G0 X53.036 Y115.407
G0 F2250 X51.9 Y117.1
G1 F420 E29.69387
G1 F900 X51.9 Y36.9 E32.86194
G1 X93.157 Y36.903 E34.49168
G1 X93.431 Y36.923 E34.50253
G1 X93.741 Y36.968 E34.51491
G1 X94.164 Y37.067 E34.53207
G1 X94.434 Y37.159 E34.54334
G1 X94.725 Y37.28 E34.55578
G1 X95.111 Y37.486 E34.57307
G1 X95.352 Y37.642 E34.58441
G1 X95.47 Y37.729 E34.5902
G1 X95.712 Y37.926 E34.60253
G1 X96.009 Y38.215 E34.6189
G1 X96.214 Y38.456 E34.63139
G1 X96.38 Y38.681 E34.64244
G1 X96.557 Y38.962 E34.65556
G1 X96.683 Y39.196 E34.66606
G1 X96.747 Y39.336 E34.67214
G1 X96.853 Y39.603 E34.68349
G1 X96.946 Y39.893 E34.69552
G1 X97.034 Y40.262 E34.7105
G1 X102.1 Y65.095 E35.71166
G1 X102.1 Y110.589 E37.50877
G1 X95.567 Y116.196 E37.84886
G1 X95.32 Y116.379 E37.861
G1 X95.081 Y116.532 E37.87221
G1 X94.816 Y116.676 E37.88412
G1 X94.563 Y116.79 E37.89509
G1 X94.297 Y116.888 E37.90628
G1 X93.99 Y116.979 E37.91893
G1 X93.733 Y117.034 E37.92931
G1 X93.438 Y117.076 E37.94108
G1 X93.142 Y117.097 E37.95281
G1 X52.395 Y117.1 E39.5624
G0 F810 X51.9 Y117.1
G1 F420 E38.5624
G0 F2250 X51.901 Y118.664
G0 X51.915 Y118.65
G0 X51.976 Y118.597
G0 X55.746 Y115.307
G0 X55.819 Y115.247
G0 X58.249 Y113.153
G0 X58.317 Y113.063
G0 X62.377 Y109.52
G0 X62.437 Y109.468
G0 X62.436 Y109.47
G0 X61.152 Y110.365
G1 F420 E39.58195
G1 F900 X61.406 Y110.703 E39.59866
G1 X61.682 Y111.021 E39.61529
G1 X61.979 Y111.318 E39.63188
G1 X62.297 Y111.594 E39.64851
G1 X62.635 Y111.848 E39.66522
G1 X62.99 Y112.074 E39.68184
G1 X63.36 Y112.277 E39.69851
G1 X63.742 Y112.451 E39.71509
G1 X64.135 Y112.598 E39.73167
G1 X64.541 Y112.718 E39.74839
G1 X64.953 Y112.807 E39.76504
G1 X65.37 Y112.866 E39.78168
G1 X65.789 Y112.897 E39.79827
G1 X86.016 Y112.9 E40.59728
G1 X86.421 Y112.885 E40.61329
G1 X86.84 Y112.84 E40.62994
G1 X87.255 Y112.766 E40.64659
G1 X87.663 Y112.661 E40.66323
G1 X88.062 Y112.529 E40.67984
G1 X88.452 Y112.367 E40.69652
G1 X88.828 Y112.178 E40.71314
G1 X89.189 Y111.964 E40.72972
G1 X89.362 Y111.845 E40.73801
G1 X89.338 Y111.912 E40.74083
G1 X89.254 Y112.252 E40.75466
G1 X89.2 Y112.6 E40.76857
G1 X89.181 Y112.954 E40.78258
G1 X89.201 Y113.393 E40.79993
G1 X89.254 Y113.744 E40.81396
G1 X89.337 Y114.086 E40.82786
G1 X89.453 Y114.419 E40.84179
G1 X89.602 Y114.744 E40.85591
G1 X89.826 Y115.123 E40.8733
G1 X90.036 Y115.407 E40.88725
G1 X90.267 Y115.667 E40.90099
G1 X90.523 Y115.909 E40.91491
G1 X90.795 Y116.118 E40.92846
G1 X90.962 Y116.229 E40.93638
G1 X91.339 Y116.439 E40.95343
G1 X91.664 Y116.577 E40.96737
G1 X91.997 Y116.685 E40.9812
G1 X92.337 Y116.763 E40.99498
G1 X92.677 Y116.806 E41.00852
G1 X92.878 Y116.817 E41.01647
G1 X93.308 Y116.807 E41.03346
G1 X93.661 Y116.762 E41.04752
G1 X93.999 Y116.686 E41.06121
G1 X94.335 Y116.58 E41.07512
G1 X94.651 Y116.445 E41.0887
G1 X94.83 Y116.352 E41.09667
G1 X95.195 Y116.125 E41.11364
