; generated by Slic3r 1.1.7 on 2015-01-23 at 11:27:51

; perimeters extrusion width = 0.50mm
; infill extrusion width = 0.65mm
; solid infill extrusion width = 0.55mm
; top infill extrusion width = 0.43mm

G21 ; set units to millimeters
M107

M301 P34 I4 D113     ; set PID nozzle
M304 P162 I17 D378 ; set PID Bed

;M104 S230                 ; set extruder temp for budaschnozzle
M104 S250                 ; set extruder temp for hex_hot_end
M140 S110                 ; set bed temp for PEI (reminder ~G1 Z2 ~ M140 S(@-10 degree change) ;if -m is present in file name)

G28                            ; home
G1 Z5 F300                ; move bed down 5mm
M84                            ; disable steppers
G4 S300                     ; wait 5 mins to preheat

G28                            ; home

G90 ; use absolute coordinates
G92 E0
M82 ; use absolute distances for extrusion
M204 S1800
G1 F1500.000 E-1.80000
G92 E0
G1 Z0.350 F9600.000
G1 X42.388 Y87.484 F9600.000
G1 E1.80000 F1500.000
G1 X44.120 Y86.133 E1.86319 F1800.000
G1 X46.932 Y85.443 E1.94650
G1 X107.068 Y85.443 E3.67683
G1 X109.228 Y85.840 E3.74002
G1 X111.106 Y86.978 E3.80321 F1800.000
G1 X112.457 Y88.710 E3.86639
G1 X113.147 Y91.522 E3.94970
G1 X113.147 Y186.478 E6.68192
G1 X112.750 Y188.638 E6.74511
G1 X111.612 Y190.516 E6.80829
G1 X109.880 Y191.867 E6.87148
G1 X107.068 Y192.557 E6.95479
G1 X46.932 Y192.557 E8.68512
G1 X44.772 Y192.160 E8.74831
G1 X42.894 Y191.022 E8.81150
G1 X41.543 Y189.290 E8.87469
G1 X40.853 Y186.478 E8.95800
G1 X40.853 Y91.522 E11.69021
G1 X41.250 Y89.362 E11.75340
G1 X42.349 Y87.548 E11.81443
G1 X42.864 Y87.789 F9600.000
G1 X42.921 Y87.701 E11.81747 F1800.000
G1 X44.628 Y86.484 E11.87776
G1 X46.932 Y85.982 E11.94561
G1 X107.068 Y85.982 E13.67594
G1 X109.126 Y86.379 E13.73624
G1 X110.889 Y87.511 E13.79653 F1800.000
G1 X112.106 Y89.218 E13.85683
G1 X112.608 Y91.522 E13.92468
G1 X112.608 Y186.478 E16.65689
G1 X112.211 Y188.536 E16.71719
G1 X111.079 Y190.299 E16.77748
G1 X109.372 Y191.516 E16.83778
G1 X107.068 Y192.018 E16.90563
G1 X46.932 Y192.018 E18.63596
G1 X44.874 Y191.621 E18.69626
G1 X43.111 Y190.489 E18.75655
G1 X41.894 Y188.782 E18.81685
G1 X41.392 Y186.478 E18.88470
G1 X41.392 Y91.522 E21.61691
G1 X41.789 Y89.464 E21.67721
G1 X42.824 Y87.852 E21.73231
G1 F1500.000 E19.93231
G92 E0
G1 X106.793 Y186.203 F9600.000
G1 E1.80000 F1500.000
G1 X90.143 Y186.203 E2.27908 F1950.000
G1 X89.644 Y185.834 E2.29696
G1 X89.087 Y185.351 E2.31816
G1 X88.573 Y184.825 E2.33932
G1 X88.105 Y184.257 E2.36049
G1 X87.687 Y183.652 E2.38165
G1 X87.322 Y183.014 E2.40282
G1 X87.011 Y182.347 E2.42399
G1 X86.758 Y181.656 E2.44515
G1 X86.564 Y180.947 E2.46632
G1 X86.430 Y180.223 E2.48748
G1 X86.357 Y179.491 E2.50865
G1 X86.347 Y178.756 E2.52982
G1 X86.399 Y178.022 E2.55099
G1 X86.512 Y177.295 E2.57215
G1 X86.686 Y176.580 E2.59332
G1 X86.919 Y175.883 E2.61448
G1 X87.211 Y175.207 E2.63565
G1 X87.558 Y174.559 E2.65681
G1 X90.510 Y170.047 E2.81194
G1 X92.749 Y165.972 E2.94573
G1 X94.669 Y161.734 E3.07959
G1 X96.259 Y157.350 E3.21377
G1 X97.507 Y152.853 E3.34808
G1 X98.444 Y148.032 E3.48938
G1 X98.431 Y148.032 E3.48977
G1 X98.941 Y143.650 E3.61671
G1 X99.121 Y139.013 E3.75024
G1 X98.941 Y134.353 E3.88442
G1 X98.402 Y129.720 E4.01861
G1 X97.511 Y125.164 E4.15219
G1 X96.304 Y120.795 E4.28259
G1 X94.675 Y116.279 E4.42073
G1 X92.754 Y112.037 E4.55473
G1 X90.511 Y107.955 E4.68875
G1 X87.558 Y103.441 E4.84394
G1 X87.211 Y102.793 E4.86511
G1 X86.919 Y102.117 E4.88627
G1 X86.686 Y101.420 E4.90744
G1 X86.512 Y100.705 E4.92860
G1 X86.399 Y99.978 E4.94977
G1 X86.347 Y99.244 E4.97094
G1 X86.357 Y98.509 E4.99210
G1 X86.430 Y97.777 E5.01327
G1 X86.564 Y97.053 E5.03444
G1 X86.758 Y96.344 E5.05560
G1 X87.011 Y95.653 E5.07677
G1 X87.322 Y94.986 E5.09793
G1 X87.687 Y94.348 E5.11910
G1 X88.105 Y93.743 E5.14027
G1 X88.573 Y93.175 E5.16143
G1 X89.087 Y92.649 E5.18259
G1 X89.645 Y92.166 E5.20383
G1 X90.155 Y91.797 E5.22195
G1 X106.793 Y91.797 E5.70069
G1 X106.793 Y186.128 E8.41492
G1 X106.360 Y185.953 F9600.000
G1 X106.254 Y185.664 F9600.000
G1 X90.321 Y185.664 E8.87336 F2700.000
G1 X89.981 Y185.412 E8.88553
G1 X89.457 Y184.959 E8.90549
G1 X88.975 Y184.465 E8.92534
G1 X88.536 Y183.932 E8.94520
G1 X88.144 Y183.364 E8.96505
G1 X87.801 Y182.765 E8.98491
G1 X87.510 Y182.140 E9.00477
G1 X87.272 Y181.492 E9.02463
G1 X87.090 Y180.826 E9.04448
G1 X86.964 Y180.148 E9.06434
G1 X86.896 Y179.461 E9.08420
G1 X86.887 Y178.771 E9.10405
G1 X86.935 Y178.082 E9.12391
G1 X87.041 Y177.401 E9.14376
G1 X87.204 Y176.730 E9.16362
G1 X87.424 Y176.076 E9.18348
G1 X87.697 Y175.442 E9.20334
G1 X88.023 Y174.834 E9.22319
G1 X90.970 Y170.329 E9.37808
G1 X93.228 Y166.220 E9.51300
G1 X95.165 Y161.946 E9.64800
G1 X96.770 Y157.525 E9.78333
G1 X98.042 Y152.935 E9.92037
G1 X98.903 Y148.539 E10.04926
G1 X99.084 Y147.493 E10.07982
G1 X99.037 Y147.493 E10.08118
G1 X99.479 Y143.689 E10.19136
G1 X99.660 Y139.017 E10.32588
G1 X99.479 Y134.313 E10.46135
G1 X98.935 Y129.639 E10.59674
G1 X98.036 Y125.041 E10.73153
G1 X96.808 Y120.599 E10.86414
G1 X95.174 Y116.074 E11.00257
G1 X93.236 Y111.795 E11.13772
G1 X90.973 Y107.677 E11.27294
G1 X88.023 Y103.166 E11.42801
G1 X87.697 Y102.558 E11.44787
G1 X87.424 Y101.924 E11.46773
G1 X87.204 Y101.270 E11.48759
G1 X87.041 Y100.600 E11.50744
G1 X86.935 Y99.918 E11.52730
G1 X86.887 Y99.229 E11.54715
G1 X86.896 Y98.539 E11.56701
G1 X86.964 Y97.852 E11.58687
G1 X87.090 Y97.174 E11.60673
G1 X87.272 Y96.508 E11.62658
G1 X87.510 Y95.860 E11.64644
G1 X87.801 Y95.235 E11.66630
G1 X88.144 Y94.636 E11.68615
G1 X88.536 Y94.068 E11.70601
G1 X88.975 Y93.535 E11.72586
G1 X89.457 Y93.041 E11.74572
G1 X89.984 Y92.586 E11.76577
G1 X90.316 Y92.336 E11.77772
G1 X106.254 Y92.336 E12.23632
G1 X106.254 Y185.589 E14.91952
G1 F1500.000 E13.11952
G92 E0
G1 X91.111 Y185.293 F9600.000
G1 E1.80000 F1500.000
G1 X87.885 Y182.067 E1.93128 F3300.000
G1 X87.498 Y180.914 F9600.000
G1 X91.878 Y185.293 E2.10949 F3300.000
G1 X92.644 Y185.293 E2.13154
G1 X87.319 Y179.968 E2.34822
G1 X87.263 Y179.145 E2.37196
G1 X93.411 Y185.293 E2.62212
G1 X94.177 Y185.293 E2.64418
G1 X87.285 Y178.400 E2.92466
G1 X87.367 Y177.717 E2.94448
G1 X94.944 Y185.293 E3.25278
G1 X95.710 Y185.293 E3.27483
G1 X87.500 Y177.083 E3.60892
G1 X87.675 Y176.492 E3.62666
G1 X96.477 Y185.293 E3.98481
G1 X97.244 Y185.293 E4.00687
G1 X87.887 Y175.937 E4.38758
G1 X88.132 Y175.415 E4.40416
G1 X98.010 Y185.293 E4.80611
G1 X98.777 Y185.293 E4.82816
G1 X88.407 Y174.924 E5.25010
G1 X88.711 Y174.460 E5.26604
G1 X99.543 Y185.293 E5.70684
G1 X100.310 Y185.293 E5.72890
G1 X89.014 Y173.997 E6.18855
G1 X89.317 Y173.534 E6.20449
G1 X101.076 Y185.293 E6.68300
G1 X101.843 Y185.293 E6.70506
G1 X89.620 Y173.070 E7.20244
G1 X89.923 Y172.607 E7.21837
G1 X102.609 Y185.293 E7.73460
G1 X103.376 Y185.293 E7.75666
G1 X90.226 Y172.143 E8.29175
G1 X90.529 Y171.680 E8.30768
G1 X104.143 Y185.293 E8.86163
G1 X104.909 Y185.293 E8.88369
G1 X90.832 Y171.216 E9.45649
G1 X91.135 Y170.753 E9.47243
G1 X105.676 Y185.293 E10.06409
G1 X105.883 Y184.734 E10.08125
G1 X91.423 Y170.274 E10.66965
G1 X91.695 Y169.779 E10.68589
G1 X105.883 Y183.967 E11.26323
G1 X105.883 Y183.201 E11.28529
G1 X91.967 Y169.285 E11.85156
G1 X92.239 Y168.790 E11.86780
G1 X105.883 Y182.434 E12.42301
G1 X105.883 Y181.668 E12.44507
G1 X92.511 Y168.295 E12.98921
G1 X92.783 Y167.801 E13.00546
G1 X105.883 Y180.901 E13.53854
G1 X105.883 Y180.135 E13.56059
G1 X93.055 Y167.306 E14.08261
G1 X93.326 Y166.811 E14.09885
G1 X105.883 Y179.368 E14.60981
G1 X105.883 Y178.602 E14.63186
G1 X93.594 Y166.312 E15.13194
G1 X93.833 Y165.785 E15.14860
G1 X105.883 Y177.835 E15.63895
G1 X105.883 Y177.068 E15.66101
G1 X94.072 Y165.257 E16.14163
G1 X94.311 Y164.730 E16.15829
G1 X105.883 Y176.302 E16.62919
G1 X105.883 Y175.535 E16.65125
G1 X94.550 Y164.202 E17.11242
G1 X94.789 Y163.674 E17.12908
G1 X105.883 Y174.769 E17.58053
G1 X105.883 Y174.002 E17.60258
G1 X95.028 Y163.147 E18.04430
G1 X95.267 Y162.619 E18.06097
G1 X105.883 Y173.236 E18.49296
G1 X105.883 Y172.469 E18.51501
G1 X95.506 Y162.092 E18.93728
G1 X95.710 Y161.530 E18.95449
G1 X105.883 Y171.703 E19.36843
G1 X105.883 Y170.936 E19.39049
G1 X95.915 Y160.967 E19.79612
G1 X96.119 Y160.405 E19.81334
G1 X105.883 Y170.169 E20.21066
G1 X105.883 Y169.403 E20.23272
G1 X96.323 Y159.843 E20.62174
G1 X96.527 Y159.280 E20.63895
G1 X105.883 Y168.636 E21.01967
G1 X105.883 Y167.870 E21.04172
G1 X96.731 Y158.718 E21.41413
G1 X96.935 Y158.155 E21.43134
G1 X105.883 Y167.103 E21.79544
G1 X105.883 Y166.337 E21.81749
G1 X97.137 Y157.590 E22.17340
G1 X97.303 Y156.990 E22.19133
G1 X105.883 Y165.570 E22.54047
G1 X105.883 Y164.803 E22.56252
G1 X97.469 Y156.390 E22.90490
G1 X97.636 Y155.789 E22.92282
G1 X105.883 Y164.037 E23.25842
G1 X105.883 Y163.270 E23.28048
G1 X97.802 Y155.189 E23.60932
G1 X97.968 Y154.589 E23.62724
G1 X105.883 Y162.504 E23.94931
G1 X105.883 Y161.737 E23.97136
G1 X98.135 Y153.989 E24.28666
G1 X98.301 Y153.389 E24.30458
G1 X105.883 Y160.971 E24.61311
G1 X105.883 Y160.204 E24.63517
G1 X98.452 Y152.773 E24.93757
G1 X98.577 Y152.132 E24.95636
G1 X105.883 Y159.438 E25.25365
G1 X105.883 Y158.671 E25.27571
G1 X98.703 Y151.491 E25.56789
G1 X98.828 Y150.850 E25.58668
G1 X105.883 Y157.904 E25.87375
G1 X105.883 Y157.138 E25.89581
G1 X98.954 Y150.209 E26.17777
G1 X99.080 Y149.568 E26.19656
G1 X105.883 Y156.371 E26.47341
G1 X105.883 Y155.605 E26.49546
G1 X99.205 Y148.927 E26.76720
G1 X99.325 Y148.280 E26.78614
G1 X105.883 Y154.838 E27.05302
G1 X105.883 Y154.072 E27.07507
G1 X99.438 Y147.626 E27.33735
G1 X99.479 Y146.901 E27.35825
G1 X105.883 Y153.305 E27.61885
G1 X105.883 Y152.539 E27.64091
G1 X99.559 Y146.214 E27.89826
G1 X99.639 Y145.527 E27.91815
G1 X105.883 Y151.772 E28.17225
G1 X105.883 Y151.005 E28.19430
G1 X99.718 Y144.841 E28.44516
G1 X99.798 Y144.154 E28.46505
G1 X105.883 Y150.239 E28.71265
G1 X105.883 Y149.472 E28.73471
G1 X99.859 Y143.449 E28.97983
G1 X99.888 Y142.711 E29.00108
G1 X105.883 Y148.706 E29.24503
G1 X105.883 Y147.939 E29.26708
G1 X99.917 Y141.973 E29.50987
G1 X99.945 Y141.235 E29.53112
G1 X105.883 Y147.173 E29.77275
G1 X105.883 Y146.406 E29.79481
G1 X99.974 Y140.497 E30.03527
G1 X100.002 Y139.759 E30.05652
G1 X105.883 Y145.639 E30.29582
G1 X105.883 Y144.873 E30.31788
G1 X100.031 Y139.021 E30.55601
G1 X100.001 Y138.224 E30.57896
G1 X105.883 Y144.106 E30.81833
G1 X105.883 Y143.340 E30.84039
G1 X99.970 Y137.427 E31.08101
G1 X99.939 Y136.629 E31.10396
G1 X105.883 Y142.573 E31.34583
G1 X105.883 Y141.807 E31.36789
G1 X99.909 Y135.832 E31.61100
G1 X99.878 Y135.035 E31.63396
G1 X105.883 Y141.040 E31.87832
G1 X105.883 Y140.274 E31.90037
G1 X99.843 Y134.234 E32.14615
G1 X99.742 Y133.366 E32.17128
G1 X105.883 Y139.507 E32.42116
G1 X105.883 Y138.740 E32.44321
G1 X99.641 Y132.499 E32.69720
G1 X99.540 Y131.631 E32.72233
G1 X105.883 Y137.974 E32.98043
G1 X105.883 Y137.207 E33.00248
G1 X99.439 Y130.764 E33.26469
G1 X99.339 Y129.896 E33.28982
G1 X105.883 Y136.441 E33.55613
G1 X105.883 Y135.674 E33.57818
G1 X99.183 Y128.974 E33.85082
G1 X98.997 Y128.021 E33.87875
G1 X105.883 Y134.908 E34.15897
G1 X105.883 Y134.141 E34.18102
G1 X98.811 Y127.068 E34.46882
G1 X98.624 Y126.116 E34.49676
G1 X105.883 Y133.375 E34.79213
G1 X105.883 Y132.608 E34.81419
G1 X98.438 Y125.163 E35.11715
G1 X98.168 Y124.126 E35.14796
G1 X105.883 Y131.841 E35.46189
G1 X105.883 Y131.075 E35.48395
G1 X97.875 Y123.067 E35.80980
G1 X97.583 Y122.008 E35.84142
G1 X105.883 Y130.308 E36.17918
G1 X105.883 Y129.542 E36.20124
G1 X97.290 Y120.948 E36.55092
G1 X96.918 Y119.809 E36.58539
G1 X105.883 Y128.775 E36.95022
G1 X105.883 Y128.009 E36.97228
G1 X96.484 Y118.609 E37.35475
G1 X96.050 Y117.409 F9600.000
G1 X105.883 Y127.242 E37.75486 F3300.000
G1 X105.883 Y126.475 E37.77691
G1 X95.617 Y116.209 E38.19467
G1 X95.028 Y114.854 F9600.000
G1 X105.883 Y125.709 E38.63636 F3300.000
G1 X105.883 Y124.942 E38.65842
G1 X94.394 Y113.453 E39.12592
G1 X93.760 Y112.053 F9600.000
G1 X105.883 Y124.176 E39.61922 F3300.000
G1 X105.883 Y123.409 E39.64128
G1 X92.916 Y110.442 E40.16893
G1 X91.981 Y108.741 F9600.000
G1 X105.883 Y122.643 E40.73462 F3300.000
G1 X105.883 Y121.876 E40.75667
G1 X90.911 Y106.904 E41.36589
G1 F1500.000 E39.56589
G92 E0
G1 X89.462 Y104.688 F9600.000
G1 E1.80000 F1500.000
G1 X105.883 Y121.110 E2.46821 F3300.000
G1 X105.883 Y120.343 E2.49026
G1 X88.141 Y102.601 E3.21223
G1 X87.605 Y101.298 F9600.000
G1 X105.883 Y119.576 E3.95598 F3300.000
G1 X105.883 Y118.810 E3.97804
G1 X87.369 Y100.296 E4.73139
G1 X87.273 Y99.433 E4.75638
G1 X105.883 Y118.043 E5.51367
G1 X105.883 Y117.277 E5.53573
G1 X87.266 Y98.659 E6.29330
G1 X87.327 Y97.954 E6.31367
G1 X105.883 Y116.510 E7.06875
G1 X105.883 Y115.744 E7.09081
G1 X87.443 Y97.303 E7.84116
G1 X87.604 Y96.698 E7.85918
G1 X105.883 Y114.977 E8.60297
G1 X105.883 Y114.211 E8.62503
G1 X87.805 Y96.132 E9.36066
G1 X88.040 Y95.601 E9.37739
G1 X105.883 Y113.444 E10.10346
G1 X105.883 Y112.677 E10.12552
G1 X88.306 Y95.100 E10.84078
G1 X88.600 Y94.628 E10.85678
G1 X105.883 Y111.911 E11.56005
G1 X105.883 Y111.144 E11.58211
G1 X88.922 Y94.183 E12.27229
G1 X89.278 Y93.773 E12.28792
G1 X105.883 Y110.378 E12.96359
G1 X105.883 Y109.611 E12.98565
G1 X89.662 Y93.390 E13.64572
G1 X90.054 Y93.015 E13.66132
G1 X105.883 Y108.845 E14.30544
G1 X105.883 Y108.078 E14.32750
G1 X90.512 Y92.707 E14.95297
G1 X91.279 Y92.707 E14.97503
G1 X105.883 Y107.311 E15.56931
G1 X105.883 Y106.545 E15.59137
G1 X92.045 Y92.707 E16.15446
G1 X92.812 Y92.707 E16.17652
G1 X105.883 Y105.778 E16.70842
G1 X105.883 Y105.012 E16.73047
G1 X93.578 Y92.707 E17.23118
G1 X94.345 Y92.707 E17.25324
G1 X105.883 Y104.245 E17.72275
G1 X105.883 Y103.479 E17.74481
G1 X95.111 Y92.707 E18.18313
G1 X95.878 Y92.707 E18.20519
G1 X105.883 Y102.712 E18.61232
G1 X105.883 Y101.946 E18.63437
G1 X96.644 Y92.707 E19.01031
G1 X97.411 Y92.707 E19.03237
G1 X105.883 Y101.179 E19.37711
G1 X105.883 Y100.412 E19.39917
G1 X98.178 Y92.707 E19.71272
G1 X98.944 Y92.707 E19.73477
G1 X105.883 Y99.646 E20.01713
G1 X105.883 Y98.879 E20.03919
G1 X99.711 Y92.707 E20.29036
G1 X100.477 Y92.707 E20.31241
G1 X105.883 Y98.113 E20.53239
G1 X105.883 Y97.346 E20.55445
G1 X101.244 Y92.707 E20.74323
G1 X102.010 Y92.707 E20.76528
G1 X105.883 Y96.580 E20.92287
G1 X105.883 Y95.813 E20.94493
G1 X102.777 Y92.707 E21.07133
G1 X103.543 Y92.707 E21.09338
G1 X105.883 Y95.047 E21.18859
G1 X105.883 Y94.280 E21.21065
G1 X104.310 Y92.707 E21.27466
G1 X105.077 Y92.707 E21.29671
G1 X105.883 Y93.513 E21.32953
G1 X105.883 Y92.747 E21.35159
G1 X105.843 Y92.707 E21.35322
G1 F1500.000 E19.55322
G92 E0
G1 X106.068 Y130.660 F9600.000
G1 X89.172 Y184.121 F9600.000
G1 E1.80000 F1500.000
G1 X89.921 Y184.870 E1.83048 F3300.000
M204 S1800
G1 F1500.000 E0.03048
G92 E0
G1 X47.207 Y186.203 F9600.000
G1 E1.80000 F1500.000
G1 X47.207 Y91.797 E4.51639 F1950.000
G1 X63.857 Y91.797 E4.99547
G1 X64.356 Y92.166 E5.01334
G1 X64.913 Y92.649 E5.03454
G1 X65.427 Y93.175 E5.05571
G1 X65.895 Y93.743 E5.07688
G1 X66.313 Y94.348 E5.09804
G1 X66.678 Y94.986 E5.11921
G1 X66.989 Y95.653 E5.14037
G1 X67.242 Y96.344 E5.16154
G1 X67.436 Y97.053 E5.18271
G1 X67.570 Y97.777 E5.20387
G1 X67.643 Y98.509 E5.22504
G1 X67.653 Y99.244 E5.24620
G1 X67.601 Y99.978 E5.26737
G1 X67.488 Y100.705 E5.28854
G1 X67.314 Y101.420 E5.30970
G1 X67.081 Y102.117 E5.33087
G1 X66.789 Y102.793 E5.35203
G1 X66.442 Y103.441 E5.37320
G1 X63.491 Y107.953 E5.52832
G1 X61.251 Y112.028 E5.66211
G1 X59.331 Y116.266 E5.79598
G1 X57.741 Y120.650 E5.93016
G1 X56.492 Y125.150 E6.06454
G1 X55.598 Y129.723 E6.19863
G1 X55.059 Y134.350 E6.33266
G1 X54.879 Y138.988 E6.46619
G1 X55.059 Y143.647 E6.60035
G1 X55.598 Y148.280 E6.73456
G1 X56.489 Y152.836 E6.86814
G1 X57.696 Y157.205 E6.99855
G1 X59.325 Y161.721 E7.13668
G1 X61.246 Y165.963 E7.27068
G1 X63.489 Y170.045 E7.40470
G1 X66.442 Y174.559 E7.55989
G1 X66.789 Y175.207 E7.58106
G1 X67.081 Y175.883 E7.60223
G1 X67.314 Y176.580 E7.62339
G1 X67.488 Y177.295 E7.64456
G1 X67.601 Y178.022 E7.66572
G1 X67.653 Y178.756 E7.68689
G1 X67.643 Y179.491 E7.70805
G1 X67.570 Y180.223 E7.72922
G1 X67.436 Y180.947 E7.75039
G1 X67.242 Y181.656 E7.77155
