; generated by Slic3r 1.1.7 on 2015-07-28 at 20:54:25

; perimeters extrusion width = 0.50mm
; infill extrusion width = 0.60mm
; solid infill extrusion width = 0.60mm
; top infill extrusion width = 0.43mm

G21 ; set units to millimeters
M107

M301 P34 I4 D113     ; set PID nozzle
M304 P162 I17 D378 ; set PID Bed

;M104 S230                 ; set extruder temp for budaschnozzle
M104 S250                 ; set extruder temp for hex_hot_end
;M140 S100                 ; set bed temp for PET
M140 S110                 ; set bed temp for PEI (reminder ~G1 Z2 ~ M140 S(@-10 degree change) ;if -m is present in file name)

G28                            ; home
G1 Z5 F300                ; move bed down 5mm
M84                            ; disable steppers
G4 S300                     ; wait 5 mins to preheat

G28                            ; home

G90 ; use absolute coordinates
G92 E0
M82 ; use absolute distances for extrusion
M204 S2000
G1 F1200.000 E-1.50000
G92 E0
G1 Z0.350 F9600.000
G1 X171.416 Y149.750 F9600.000
G1 E1.50000 F1200.000
G1 X171.896 Y149.261 E1.52257 F900.000
G1 X172.483 Y148.755 E1.54815
G1 X173.115 Y148.300 E1.57381
G1 X173.784 Y147.902 E1.59945
G1 X174.483 Y147.565 E1.62505
G1 X175.210 Y147.289 E1.65067
G1 X175.958 Y147.078 E1.67630
G1 X176.721 Y146.933 E1.70188
G1 X177.495 Y146.855 E1.72753
G1 X178.000 Y146.839 E1.74419
G1 X216.272 Y146.845 E3.00578
G1 X217.047 Y146.903 E3.03141 F900.000
G1 X217.814 Y147.028 E3.05700
G1 X218.567 Y147.219 E3.08264
G1 X219.496 Y147.556 E3.11520
G1 X220.009 Y147.794 E3.13384
G1 X220.688 Y148.174 E3.15949
G1 X221.330 Y148.611 E3.18508
G1 X221.931 Y149.103 E3.21070
G1 X222.489 Y149.645 E3.23634
G1 X222.996 Y150.234 E3.26196
G1 X223.450 Y150.865 E3.28759
G1 X223.848 Y151.533 E3.31321
G1 X224.185 Y152.233 E3.33882
G1 X224.461 Y152.960 E3.36445
G1 X224.672 Y153.708 E3.39006
G1 X224.817 Y154.472 E3.41569
G1 X224.895 Y155.245 E3.44131
G1 X224.911 Y155.750 E3.45797
G1 X224.905 Y190.522 E4.60417
G1 X224.847 Y191.297 E4.62980
G1 X224.722 Y192.064 E4.65542
G1 X224.531 Y192.817 E4.68104
G1 X224.275 Y193.551 E4.70666
G1 X223.955 Y194.260 E4.73228
G1 X223.576 Y194.938 E4.75790
G1 X223.138 Y195.580 E4.78351
G1 X222.647 Y196.182 E4.80913
G1 X222.037 Y196.801 E4.83778
G1 X221.516 Y197.246 E4.86036
G1 X220.885 Y197.700 E4.88599
G1 X220.217 Y198.098 E4.91161
G1 X219.517 Y198.435 E4.93723
G1 X218.790 Y198.711 E4.96285
G1 X218.042 Y198.922 E4.98846
G1 X217.278 Y199.067 E5.01409
G1 X216.505 Y199.145 E5.03971
G1 X216.000 Y199.161 E5.05637
G1 X177.636 Y199.151 E6.32098
G1 X176.953 Y199.097 E6.34357
G1 X176.186 Y198.972 E6.36918
G1 X175.433 Y198.781 E6.39481
G1 X174.699 Y198.525 E6.42043
G1 X173.991 Y198.206 E6.44604
G1 X173.312 Y197.826 E6.47167
G1 X172.670 Y197.388 E6.49729
G1 X172.069 Y196.897 E6.52288
G1 X171.449 Y196.287 E6.55154
G1 X171.004 Y195.766 E6.57413
G1 X170.550 Y195.135 E6.59976
G1 X170.152 Y194.467 E6.62539
G1 X169.815 Y193.767 E6.65100
G1 X169.539 Y193.040 E6.67662
G1 X169.308 Y192.202 E6.70527
G1 X169.171 Y191.437 E6.73089
G1 X169.106 Y190.755 E6.75347
G1 X169.089 Y190.250 E6.77014
G1 X169.099 Y155.386 E7.91939
G1 X169.153 Y154.703 E7.94196
G1 X169.278 Y153.936 E7.96758
G1 X169.469 Y153.182 E7.99321
G1 X169.725 Y152.449 E8.01884
G1 X170.044 Y151.741 E8.04442
G1 X170.424 Y151.062 E8.07007
G1 X170.862 Y150.419 E8.09570
G1 X171.365 Y149.805 E8.12188
G1 X171.871 Y150.167 F9600.000
G1 X172.313 Y149.717 E8.14268 F900.000
G1 X172.860 Y149.245 E8.16648
G1 X173.447 Y148.821 E8.19036
G1 X174.069 Y148.450 E8.21422
G1 X174.719 Y148.136 E8.23805
G1 X175.396 Y147.879 E8.26189
G1 X176.092 Y147.681 E8.28575
G1 X176.801 Y147.546 E8.30955
G1 X177.522 Y147.473 E8.33343
G1 X178.000 Y147.457 E8.34920
G1 X216.245 Y147.463 E9.60990
G1 X216.967 Y147.515 E9.63375 F900.000
G1 X217.680 Y147.631 E9.65756
G1 X218.382 Y147.808 E9.68143
G1 X219.259 Y148.127 E9.71221
G1 X219.724 Y148.342 E9.72908
G1 X220.356 Y148.695 E9.75295
G1 X220.954 Y149.101 E9.77676
G1 X221.514 Y149.558 E9.80061
G1 X222.033 Y150.063 E9.82447
G1 X222.506 Y150.610 E9.84831
G1 X222.929 Y151.197 E9.87216
G1 X223.300 Y151.818 E9.89601
G1 X223.615 Y152.470 E9.91985
G1 X223.872 Y153.146 E9.94370
G1 X224.068 Y153.842 E9.96753
G1 X224.204 Y154.552 E9.99138
G1 X224.277 Y155.272 E10.01522
G1 X224.293 Y155.750 E10.03099
G1 X224.287 Y190.495 E11.17631
G1 X224.235 Y191.216 E11.20016
G1 X224.119 Y191.930 E11.22401
G1 X223.942 Y192.632 E11.24785
G1 X223.704 Y193.315 E11.27169
G1 X223.407 Y193.975 E11.29554
G1 X223.055 Y194.606 E11.31938
G1 X222.648 Y195.204 E11.34322
G1 X222.191 Y195.765 E11.36706
G1 X221.619 Y196.345 E11.39393
G1 X221.140 Y196.756 E11.41474
G1 X220.553 Y197.179 E11.43859
G1 X219.931 Y197.550 E11.46243
G1 X219.280 Y197.865 E11.48628
G1 X218.604 Y198.121 E11.51012
G1 X217.908 Y198.318 E11.53395
G1 X217.198 Y198.454 E11.55781
G1 X216.478 Y198.527 E11.58165
G1 X216.000 Y198.543 E11.59742
G1 X177.663 Y198.533 E12.86114
G1 X177.034 Y198.485 E12.88196
G1 X176.320 Y198.369 E12.90579
G1 X175.618 Y198.192 E12.92965
G1 X174.935 Y197.954 E12.95349
G1 X174.276 Y197.658 E12.97732
G1 X173.644 Y197.305 E13.00117
G1 X173.046 Y196.898 E13.02501
G1 X172.486 Y196.442 E13.04883
G1 X171.967 Y195.937 E13.07270
G1 X171.494 Y195.390 E13.09653
G1 X171.071 Y194.803 E13.12039
G1 X170.700 Y194.181 E13.14424
G1 X170.385 Y193.530 E13.16807
G1 X170.129 Y192.854 E13.19192
G1 X169.912 Y192.068 E13.21879
G1 X169.784 Y191.357 E13.24263
G1 X169.723 Y190.728 E13.26343
G1 X169.707 Y190.250 E13.27921
G1 X169.717 Y155.413 E14.42757
G1 X169.765 Y154.784 E14.44837
G1 X169.881 Y154.070 E14.47221
G1 X170.058 Y153.368 E14.49607
G1 X170.296 Y152.685 E14.51992
G1 X170.592 Y152.026 E14.54373
G1 X170.945 Y151.394 E14.56760
G1 X171.352 Y150.796 E14.59145
G1 X171.821 Y150.222 E14.61585
G1 F1200.000 E13.11585
G92 E0
G1 X185.298 Y159.548 F9600.000
G1 E1.50000 F1200.000
G1 X184.939 Y159.856 E1.51559 F1125.000
G1 X184.625 Y160.065 E1.52802
G1 X184.374 Y160.196 E1.53736
G1 X183.841 Y160.390 E1.55604
G1 X183.564 Y160.451 E1.56539
G1 X183.000 Y160.500 E1.58406
G1 X182.528 Y160.463 E1.59966
G1 X182.159 Y160.390 E1.61208
G1 X181.626 Y160.196 E1.63076
G1 X181.215 Y159.963 E1.64635
G1 X180.911 Y159.740 E1.65878
G1 X180.702 Y159.548 E1.66812
G1 X180.338 Y159.114 E1.68680
G1 X180.097 Y158.707 E1.70239
G1 X179.946 Y158.362 E1.71482
G1 X179.799 Y157.814 E1.73349
G1 X179.762 Y157.533 E1.74284
G1 X179.758 Y157.060 E1.75844
G1 X179.799 Y156.686 E1.77086
G1 X179.946 Y156.138 E1.78953
G1 X180.185 Y155.625 E1.80821
G1 X180.338 Y155.386 E1.81756
G1 X180.638 Y155.021 E1.83315
G1 X180.911 Y154.760 E1.84557
G1 X181.136 Y154.588 E1.85492
G1 X181.626 Y154.304 E1.87360
G1 X181.888 Y154.196 E1.88295
G1 X182.436 Y154.049 E1.90162
G1 X182.717 Y154.012 E1.91097
G1 X183.190 Y154.008 E1.92656
G1 X183.564 Y154.049 E1.93899 F1125.000
G1 X184.112 Y154.196 E1.95766
G1 X184.625 Y154.435 E1.97634
G1 X184.864 Y154.588 E1.98569
G1 X185.229 Y154.888 E2.00128
G1 X185.490 Y155.161 E2.01370
G1 X185.815 Y155.625 E2.03238
G1 X186.054 Y156.138 E2.05106
G1 X186.201 Y156.686 E2.06973
G1 X186.238 Y156.967 E2.07908
G1 X186.242 Y157.440 E2.09467
G1 X186.201 Y157.814 E2.10710
G1 X186.082 Y158.272 E2.12269
G1 X185.946 Y158.624 E2.13511
G1 X185.662 Y159.114 E2.15379
G1 X185.349 Y159.493 E2.17000
G1 F1200.000 E0.67000
G92 E0
G1 X183.161 Y153.632 F9600.000
G1 X186.290 Y160.565 F9600.000
G1 E1.50000 F1200.000
G1 X186.673 Y160.142 E1.51881 F1125.000
G1 X186.911 Y159.811 E1.53226
G1 X187.119 Y159.460 E1.54570
G1 X187.296 Y159.093 E1.55915
G1 X187.440 Y158.711 E1.57259
G1 X187.551 Y158.319 E1.58603
G1 X187.715 Y157.538 E1.61234
G1 X187.865 Y157.178 E1.62519
G1 X188.073 Y156.848 E1.63805
G1 X188.334 Y156.558 E1.65090
G1 X188.481 Y156.430 E1.65734
G1 X188.806 Y156.214 E1.67019
G1 X189.162 Y156.055 E1.68304
G1 X189.539 Y155.957 E1.69590
G1 X189.921 Y155.925 E1.70854
G1 X208.089 Y155.925 E2.30742
G1 X208.460 Y155.957 E2.31970 F1125.000
G1 X208.651 Y155.998 E2.32614
G1 X208.854 Y156.061 E2.33314
G1 X209.194 Y156.214 E2.34542
G1 X209.532 Y156.441 E2.35885
G1 X209.803 Y156.697 E2.37114
G1 X209.927 Y156.848 E2.37756
G1 X210.135 Y157.178 E2.39043
G1 X210.285 Y157.538 E2.40328
G1 X210.446 Y158.303 E2.42907
G1 X210.550 Y158.682 E2.44201
G1 X210.686 Y159.050 E2.45494
G1 X210.852 Y159.405 E2.46788
G1 X211.047 Y159.746 E2.48081
G1 X211.271 Y160.069 E2.49375
G1 X211.520 Y160.371 E2.50668
G1 X211.794 Y160.652 E2.51962
G1 X212.091 Y160.909 E2.53255
G1 X212.408 Y161.140 E2.54549
G1 X212.743 Y161.344 E2.55842
G1 X213.095 Y161.519 E2.57136
G1 X213.459 Y161.664 E2.58429
G1 X213.835 Y161.777 E2.59723
G1 X214.219 Y161.859 E2.61017
G1 X214.608 Y161.908 E2.62310
G1 X215.203 Y161.934 E2.64272
G1 X215.404 Y161.960 E2.64941
G1 X215.795 Y162.065 E2.66277
G1 X216.163 Y162.236 E2.67613
G1 X216.495 Y162.469 E2.68950
G1 X216.781 Y162.755 E2.70285
G1 X216.905 Y162.916 E2.70954
G1 X217.107 Y163.267 E2.72290
G1 X217.246 Y163.648 E2.73626
G1 X217.290 Y163.846 E2.74295
G1 X217.325 Y164.243 E2.75608
G1 X217.316 Y181.052 E3.31018
G1 X217.286 Y181.272 E3.31748
G1 X217.185 Y181.645 E3.33024
G1 X217.014 Y182.013 E3.34360
G1 X216.781 Y182.345 E3.35696
G1 X216.495 Y182.631 E3.37032
G1 X216.163 Y182.864 E3.38368
G1 X215.797 Y183.034 E3.39699
G1 X215.404 Y183.140 E3.41041
G1 X215.007 Y183.175 E3.42353
G1 X181.993 Y183.175 E4.51180
G1 X181.596 Y183.140 E4.52493
G1 X181.203 Y183.034 E4.53834
G1 X180.838 Y182.864 E4.55164
G1 X180.505 Y182.631 E4.56501
G1 X180.219 Y182.345 E4.57838
G1 X180.085 Y182.168 E4.58566
G1 X179.892 Y181.833 E4.59843
G1 X179.754 Y181.452 E4.61178
G1 X179.710 Y181.254 E4.61848
G1 X179.675 Y180.857 E4.63160
G1 X179.675 Y164.171 E5.18163
G1 X179.709 Y163.782 E5.19452
G1 X179.751 Y163.587 E5.20109
G1 X179.893 Y163.196 E5.21479
G1 X180.081 Y162.865 E5.22733
G1 X180.200 Y162.706 E5.23389
G1 X180.478 Y162.420 E5.24702
G1 X180.649 Y162.287 E5.25417
G1 X180.975 Y162.091 E5.26671
G1 X181.346 Y161.947 E5.27983
G1 X181.736 Y161.868 E5.29296
G1 X182.134 Y161.857 E5.30608
G1 X182.738 Y161.917 E5.32609
G1 X183.146 Y161.922 E5.33953
G1 X183.552 Y161.892 E5.35298
G1 X183.955 Y161.826 E5.36642
G1 X184.350 Y161.725 E5.37986
G1 X184.735 Y161.591 E5.39331
G1 X185.107 Y161.423 E5.40675
G1 X185.462 Y161.224 E5.42019
G1 X185.799 Y160.994 E5.43363
G1 X186.236 Y160.617 E5.45264
G1 F1200.000 E3.95264
G92 E0
G1 X208.270 Y155.600 F9600.000
G1 X181.680 Y160.887 F9600.000
G1 E1.50000 F1200.000
G1 X181.636 Y161.258 E1.51233 F1500.000
G1 X181.172 Y161.353 E1.52795
G1 X180.933 Y161.435 E1.53625
G1 X180.481 Y161.657 E1.55288
G1 X180.073 Y161.953 E1.56949
G1 X179.721 Y162.315 E1.58612
G1 X179.437 Y162.730 E1.60272
G1 X179.228 Y163.189 E1.61933
G1 X179.153 Y163.429 E1.62763
G1 X179.067 Y163.926 E1.64426
G1 X179.067 Y181.106 E2.21058
G1 X179.157 Y181.612 E2.22749
G1 X179.234 Y181.858 E2.23599
G1 X179.430 Y182.283 E2.25142
G1 X179.589 Y182.539 E2.26136
G1 X179.745 Y182.742 E2.26980
G1 X180.108 Y183.105 E2.28673
G1 X180.529 Y183.400 E2.30366
G1 X180.989 Y183.614 E2.32040
G1 X181.489 Y183.749 E2.33746
G1 X181.980 Y183.793 E2.35370
G1 X215.021 Y183.793 E3.44286
G1 X215.511 Y183.749 E3.45908
G1 X215.762 Y183.693 E3.46757
G1 X216.244 Y183.518 E3.48449
G1 X216.688 Y183.261 E3.50138
G1 X216.892 Y183.105 E3.50986
G1 X217.082 Y182.931 E3.51833
G1 X217.397 Y182.557 E3.53445
G1 X217.732 Y182.671 E3.54612
G1 X217.732 Y190.229 E3.79527
G1 X217.705 Y190.551 E3.80590
G1 X217.627 Y190.842 E3.81585
G1 X217.499 Y191.116 E3.82579
G1 X217.387 Y191.283 E3.83243
G1 X217.224 Y191.474 E3.84072
G1 X217.073 Y191.607 E3.84735
G1 X216.866 Y191.749 E3.85564
G1 X216.732 Y191.819 E3.86062
G1 X216.448 Y191.922 E3.87057
G1 X216.151 Y191.975 E3.88052
G1 X215.979 Y191.982 E3.88617
G1 X211.316 Y191.982 E4.03990
G1 X211.697 Y191.384 E4.06327
G1 X211.869 Y191.054 E4.07553
G1 X212.011 Y190.710 E4.08781
G1 X212.136 Y190.297 E4.10204
G1 X212.204 Y189.991 E4.11236
G1 X212.252 Y189.622 E4.12463
G1 X212.269 Y189.250 E4.13691
G1 X212.252 Y188.878 E4.14919
G1 X212.191 Y188.451 E4.16341
G1 X212.123 Y188.145 E4.17373
G1 X212.011 Y187.790 E4.18601
G1 X211.869 Y187.446 E4.19828
G1 X211.697 Y187.116 E4.21056
G1 X211.497 Y186.802 E4.22284
G1 X211.270 Y186.506 E4.23511
G1 X211.018 Y186.232 E4.24739
G1 X210.744 Y185.980 E4.25967
G1 X210.449 Y185.753 E4.27193
G1 X210.134 Y185.553 E4.28422
G1 X209.804 Y185.381 E4.29649
G1 X209.460 Y185.239 E4.30876
G1 X209.105 Y185.127 E4.32104
G1 X208.741 Y185.046 E4.33331
G1 X208.372 Y184.998 E4.34559
G1 X208.000 Y184.981 E4.35787
G1 X207.628 Y184.998 E4.37014
G1 X207.201 Y185.059 E4.38436
G1 X206.895 Y185.127 E4.39468
G1 X206.540 Y185.239 E4.40696
G1 X206.196 Y185.381 E4.41924
G1 X205.866 Y185.553 E4.43151
G1 X205.552 Y185.753 E4.44379
G1 X205.256 Y185.980 E4.45606
G1 X204.982 Y186.232 E4.46834
G1 X204.730 Y186.506 E4.48062
G1 X204.471 Y186.851 E4.49484
G1 X204.303 Y187.116 E4.50516
G1 X204.131 Y187.446 E4.51744
G1 X203.971 Y187.846 E4.53166
G1 X203.877 Y188.145 E4.54198
G1 X203.796 Y188.509 E4.55425
G1 X203.745 Y188.937 E4.56848
G1 X203.731 Y189.250 E4.57880
G1 X203.748 Y189.622 E4.59108
G1 X203.809 Y190.049 E4.60530
G1 X203.877 Y190.355 E4.61562
G1 X203.989 Y190.710 E4.62789
G1 X204.131 Y191.054 E4.64018
G1 X204.303 Y191.384 E4.65245
G1 X204.684 Y191.982 E4.67582
G1 X185.316 Y191.982 E5.31426
G1 X185.697 Y191.384 E5.33763
G1 X185.869 Y191.054 E5.34990
G1 X186.011 Y190.710 E5.36218
G1 X186.123 Y190.355 E5.37446
G1 X186.204 Y189.991 E5.38673
G1 X186.252 Y189.622 E5.39900
G1 X186.266 Y189.191 E5.41322
G1 X186.252 Y188.878 E5.42355
G1 X186.204 Y188.509 E5.43582
G1 X186.123 Y188.145 E5.44810
G1 X186.011 Y187.790 E5.46038
G1 X185.869 Y187.446 E5.47265
G1 X185.697 Y187.116 E5.48493
G1 X185.497 Y186.802 E5.49720
G1 X185.270 Y186.506 E5.50947
G1 X185.018 Y186.232 E5.52175
G1 X184.744 Y185.980 E5.53403
G1 X184.399 Y185.722 E5.54825
G1 X184.134 Y185.553 E5.55858
G1 X183.804 Y185.381 E5.57085
G1 X183.460 Y185.239 E5.58312
G1 X183.105 Y185.127 E5.59540
G1 X182.683 Y185.038 E5.60962
G1 X182.372 Y184.998 E5.61995
G1 X182.000 Y184.981 E5.63222
G1 X181.628 Y184.998 E5.64450
G1 X181.259 Y185.046 E5.65677
G1 X180.895 Y185.127 E5.66905
G1 X180.485 Y185.261 E5.68327
G1 X180.196 Y185.381 E5.69360
G1 X179.866 Y185.553 E5.70587
G1 X179.552 Y185.753 E5.71814
G1 X179.213 Y186.020 E5.73236
G1 X178.982 Y186.231 E5.74269
G1 X178.730 Y186.506 E5.75496
G1 X178.503 Y186.802 E5.76725
G1 X178.303 Y187.116 E5.77952
G1 X178.131 Y187.446 E5.79179
G1 X177.971 Y187.846 E5.80601
G1 X177.877 Y188.145 E5.81634
G1 X177.796 Y188.509 E5.82861
G1 X177.748 Y188.878 E5.84088
G1 X177.731 Y189.250 E5.85316
G1 X177.748 Y189.622 E5.86544
G1 X177.796 Y189.991 E5.87771
G1 X177.877 Y190.355 E5.88999
G1 X177.989 Y190.710 E5.90227
G1 X178.131 Y191.054 E5.91454
G1 X178.303 Y191.384 E5.92682
G1 X178.684 Y191.982 E5.95018
G1 X177.849 Y191.975 E5.97771
G1 X177.650 Y191.944 E5.98434
G1 X177.408 Y191.877 E5.99263
G1 X177.224 Y191.796 E5.99927
G1 X177.007 Y191.668 E6.00756
G1 X176.776 Y191.474 E6.01750
G1 X176.582 Y191.243 E6.02745
G1 X176.431 Y190.982 E6.03740
G1 X176.328 Y190.698 E6.04735
G1 X176.275 Y190.401 E6.05729
G1 X176.268 Y190.229 E6.06295
G1 X176.268 Y155.771 E7.19885
G1 X176.295 Y155.449 E7.20947
G1 X176.328 Y155.302 E7.21445
G1 X176.431 Y155.018 E7.22440
G1 X176.582 Y154.757 E7.23435
G1 X176.674 Y154.637 E7.23933
G1 X176.813 Y154.492 E7.24596
G1 X177.007 Y154.332 E7.25425
G1 X177.134 Y154.251 E7.25923
G1 X177.408 Y154.123 E7.26918
G1 X177.699 Y154.045 E7.27913
G1 X178.021 Y154.018 E7.28975
G1 X180.806 Y154.018 E7.38158
G1 X180.264 Y154.514 E7.40582
G1 X180.036 Y154.763 E7.41694
G1 X179.766 Y155.133 E7.43203
G1 X179.494 Y155.615 E7.45029
G1 X179.365 Y155.927 E7.46141
G1 X179.263 Y156.249 E7.47254
G1 X179.190 Y156.578 E7.48367
G1 X179.146 Y156.913 E7.49479
G1 X179.131 Y157.250 E7.50592
G1 X179.146 Y157.587 E7.51704
G1 X179.190 Y157.922 E7.52817
G1 X179.263 Y158.251 E7.53929
G1 X179.365 Y158.573 E7.55042
G1 X179.549 Y158.992 E7.56551
G1 X179.831 Y159.469 E7.58377
G1 X180.036 Y159.737 E7.59489
G1 X180.264 Y159.986 E7.60602
G1 X180.513 Y160.214 E7.61714
G1 X180.781 Y160.419 E7.62827
G1 X181.066 Y160.600 E7.63939
G1 X181.365 Y160.756 E7.65052
