; generated by Slic3r 1.1.7 on 2015-07-28 at 20:54:25

; perimeters extrusion width = 0.50mm
; infill extrusion width = 0.60mm
; solid infill extrusion width = 0.60mm
; top infill extrusion width = 0.43mm

G21 ; set units to millimeters
M107

M301 P34 I4 D113     ; set PID nozzle
M304 P162 I17 D378 ; set PID Bed

;M104 S230                 ; set extruder temp for budaschnozzle
M104 S250                 ; set extruder temp for hex_hot_end
;M140 S100                 ; set bed temp for PET
M140 S110                 ; set bed temp for PEI (reminder ~G1 Z2 ~ M140 S(@-10 degree change) ;if -m is present in file name)

G28                            ; home
G1 Z5 F300                ; move bed down 5mm
M84                            ; disable steppers
G4 S300                     ; wait 5 mins to preheat

G28                            ; home

G90 ; use absolute coordinates
G92 E0
M82 ; use absolute distances for extrusion
M204 S2000
G1 F1200.000 E-1.50000
G92 E0
G1 Z0.350 F9600.000
G1 X171.416 Y81.750 F9600.000
G1 E1.50000 F1200.000
G1 X171.896 Y81.261 E1.52257 F900.000
G1 X172.483 Y80.755 E1.54815
G1 X173.115 Y80.300 E1.57381
G1 X173.784 Y79.902 E1.59945
G1 X174.483 Y79.565 E1.62505
G1 X175.210 Y79.289 E1.65067
G1 X175.958 Y79.078 E1.67630
G1 X176.721 Y78.933 E1.70188
G1 X177.495 Y78.855 E1.72753
G1 X178.000 Y78.839 E1.74419
G1 X216.272 Y78.845 E3.00578
G1 X217.047 Y78.903 E3.03141 F900.000
G1 X217.814 Y79.028 E3.05700
G1 X218.567 Y79.219 E3.08264
G1 X219.496 Y79.556 E3.11520
G1 X220.009 Y79.794 E3.13384
G1 X220.688 Y80.174 E3.15949
G1 X221.330 Y80.611 E3.18508
G1 X221.931 Y81.103 E3.21070
G1 X222.489 Y81.645 E3.23634
G1 X222.996 Y82.234 E3.26196
G1 X223.450 Y82.865 E3.28759
G1 X223.848 Y83.533 E3.31321
G1 X224.185 Y84.233 E3.33882
G1 X224.461 Y84.960 E3.36445
G1 X224.672 Y85.708 E3.39006
G1 X224.817 Y86.472 E3.41569
G1 X224.895 Y87.245 E3.44131
G1 X224.911 Y87.750 E3.45797
G1 X224.905 Y122.522 E4.60417
G1 X224.847 Y123.297 E4.62980
G1 X224.722 Y124.064 E4.65542
G1 X224.531 Y124.817 E4.68104
G1 X224.275 Y125.551 E4.70666
G1 X223.955 Y126.260 E4.73228
G1 X223.576 Y126.938 E4.75790
G1 X223.138 Y127.580 E4.78351
G1 X222.647 Y128.182 E4.80913
G1 X222.037 Y128.801 E4.83778
G1 X221.516 Y129.246 E4.86036
G1 X220.885 Y129.700 E4.88599
G1 X220.217 Y130.098 E4.91161
G1 X219.517 Y130.435 E4.93723
G1 X218.790 Y130.711 E4.96285
G1 X218.042 Y130.922 E4.98846
G1 X217.278 Y131.067 E5.01409
G1 X216.505 Y131.145 E5.03971
G1 X216.000 Y131.161 E5.05637
G1 X177.636 Y131.151 E6.32098
G1 X176.953 Y131.097 E6.34357
G1 X176.186 Y130.972 E6.36918
G1 X175.433 Y130.781 E6.39481
G1 X174.699 Y130.525 E6.42043
G1 X173.991 Y130.206 E6.44604
G1 X173.312 Y129.826 E6.47167
G1 X172.670 Y129.388 E6.49729
G1 X172.069 Y128.897 E6.52288
G1 X171.449 Y128.287 E6.55154
G1 X171.004 Y127.766 E6.57413
G1 X170.550 Y127.135 E6.59976
G1 X170.152 Y126.467 E6.62539
G1 X169.815 Y125.767 E6.65100
G1 X169.539 Y125.040 E6.67662
G1 X169.308 Y124.202 E6.70527
G1 X169.171 Y123.437 E6.73089
G1 X169.106 Y122.755 E6.75347
G1 X169.089 Y122.250 E6.77014
G1 X169.099 Y87.386 E7.91939
G1 X169.153 Y86.703 E7.94196
G1 X169.278 Y85.936 E7.96758
G1 X169.469 Y85.182 E7.99321
G1 X169.725 Y84.449 E8.01884
G1 X170.044 Y83.741 E8.04442
G1 X170.424 Y83.062 E8.07007
G1 X170.862 Y82.419 E8.09570
G1 X171.365 Y81.805 E8.12188
G1 X171.871 Y82.167 F9600.000
G1 X172.313 Y81.717 E8.14268 F900.000
G1 X172.860 Y81.245 E8.16648
G1 X173.447 Y80.821 E8.19036
G1 X174.069 Y80.450 E8.21422
G1 X174.719 Y80.136 E8.23805
G1 X175.396 Y79.879 E8.26189
G1 X176.092 Y79.681 E8.28575
G1 X176.801 Y79.546 E8.30955
G1 X177.522 Y79.473 E8.33343
G1 X178.000 Y79.457 E8.34920
G1 X216.245 Y79.463 E9.60990
G1 X216.967 Y79.515 E9.63375 F900.000
G1 X217.680 Y79.631 E9.65756
G1 X218.382 Y79.808 E9.68143
G1 X219.259 Y80.127 E9.71221
G1 X219.724 Y80.342 E9.72908
G1 X220.356 Y80.695 E9.75295
G1 X220.954 Y81.101 E9.77676
G1 X221.514 Y81.558 E9.80061
G1 X222.033 Y82.063 E9.82447
G1 X222.506 Y82.610 E9.84831
G1 X222.929 Y83.197 E9.87216
G1 X223.300 Y83.818 E9.89601
G1 X223.615 Y84.470 E9.91985
G1 X223.872 Y85.146 E9.94370
G1 X224.068 Y85.842 E9.96753
G1 X224.204 Y86.552 E9.99138
G1 X224.277 Y87.272 E10.01522
G1 X224.293 Y87.750 E10.03099
G1 X224.287 Y122.495 E11.17631
G1 X224.235 Y123.216 E11.20016
G1 X224.119 Y123.930 E11.22401
G1 X223.942 Y124.632 E11.24785
G1 X223.704 Y125.315 E11.27169
G1 X223.407 Y125.975 E11.29554
G1 X223.055 Y126.606 E11.31938
G1 X222.648 Y127.204 E11.34322
G1 X222.191 Y127.765 E11.36706
G1 X221.619 Y128.345 E11.39393
G1 X221.140 Y128.756 E11.41474
G1 X220.553 Y129.179 E11.43859
G1 X219.931 Y129.550 E11.46243
G1 X219.280 Y129.865 E11.48628
G1 X218.604 Y130.121 E11.51012
G1 X217.908 Y130.318 E11.53395
G1 X217.198 Y130.454 E11.55781
G1 X216.478 Y130.527 E11.58165
G1 X216.000 Y130.543 E11.59742
G1 X177.663 Y130.533 E12.86114
G1 X177.034 Y130.485 E12.88196
G1 X176.320 Y130.369 E12.90579
G1 X175.618 Y130.192 E12.92965
G1 X174.935 Y129.954 E12.95349
G1 X174.276 Y129.658 E12.97732
G1 X173.644 Y129.305 E13.00117
G1 X173.046 Y128.898 E13.02501
G1 X172.486 Y128.442 E13.04883
G1 X171.967 Y127.937 E13.07270
G1 X171.494 Y127.390 E13.09653
G1 X171.071 Y126.803 E13.12039
G1 X170.700 Y126.181 E13.14424
G1 X170.385 Y125.530 E13.16807
G1 X170.129 Y124.854 E13.19192
G1 X169.912 Y124.068 E13.21879
G1 X169.784 Y123.357 E13.24263
G1 X169.723 Y122.728 E13.26343
G1 X169.707 Y122.250 E13.27921
G1 X169.717 Y87.413 E14.42757
G1 X169.765 Y86.784 E14.44837
G1 X169.881 Y86.070 E14.47221
G1 X170.058 Y85.368 E14.49607
G1 X170.296 Y84.685 E14.51992
G1 X170.592 Y84.026 E14.54373
G1 X170.945 Y83.394 E14.56760
G1 X171.352 Y82.796 E14.59145
G1 X171.821 Y82.222 E14.61585
G1 F1200.000 E13.11585
G92 E0
G1 X185.298 Y91.548 F9600.000
G1 E1.50000 F1200.000
G1 X184.939 Y91.856 E1.51559 F1125.000
G1 X184.625 Y92.065 E1.52802
G1 X184.374 Y92.196 E1.53736
G1 X183.841 Y92.390 E1.55604
G1 X183.564 Y92.451 E1.56539
G1 X183.000 Y92.500 E1.58406
G1 X182.528 Y92.463 E1.59966
G1 X182.159 Y92.390 E1.61208
G1 X181.626 Y92.196 E1.63076
G1 X181.215 Y91.963 E1.64635
G1 X180.911 Y91.740 E1.65878
G1 X180.702 Y91.548 E1.66812
G1 X180.338 Y91.114 E1.68680
G1 X180.097 Y90.707 E1.70239
G1 X179.946 Y90.362 E1.71482
G1 X179.799 Y89.814 E1.73349
G1 X179.762 Y89.533 E1.74284
G1 X179.758 Y89.060 E1.75844
G1 X179.799 Y88.686 E1.77086
G1 X179.946 Y88.138 E1.78953
G1 X180.185 Y87.625 E1.80821
G1 X180.338 Y87.386 E1.81756
G1 X180.638 Y87.021 E1.83315
G1 X180.911 Y86.760 E1.84557
G1 X181.136 Y86.588 E1.85492
G1 X181.626 Y86.304 E1.87360
G1 X181.888 Y86.196 E1.88295
G1 X182.436 Y86.049 E1.90162
G1 X182.717 Y86.012 E1.91097
G1 X183.190 Y86.008 E1.92656
G1 X183.564 Y86.049 E1.93899 F1125.000
G1 X184.112 Y86.196 E1.95766
G1 X184.625 Y86.435 E1.97634
G1 X184.864 Y86.588 E1.98569
G1 X185.229 Y86.888 E2.00128
G1 X185.490 Y87.161 E2.01370
G1 X185.815 Y87.625 E2.03238
G1 X186.054 Y88.138 E2.05106
G1 X186.201 Y88.686 E2.06973
G1 X186.238 Y88.967 E2.07908
G1 X186.242 Y89.440 E2.09467
G1 X186.201 Y89.814 E2.10710
G1 X186.082 Y90.272 E2.12269
G1 X185.946 Y90.624 E2.13511
G1 X185.662 Y91.114 E2.15379
G1 X185.349 Y91.493 E2.17000
G1 F1200.000 E0.67000
G92 E0
G1 X183.161 Y85.632 F9600.000
G1 X186.290 Y92.565 F9600.000
G1 E1.50000 F1200.000
G1 X186.673 Y92.142 E1.51881 F1125.000
G1 X186.911 Y91.811 E1.53226
G1 X187.119 Y91.460 E1.54570
G1 X187.296 Y91.093 E1.55915
G1 X187.440 Y90.711 E1.57259
G1 X187.551 Y90.319 E1.58603
G1 X187.715 Y89.538 E1.61234
G1 X187.865 Y89.178 E1.62519
G1 X188.073 Y88.848 E1.63805
G1 X188.334 Y88.558 E1.65090
G1 X188.481 Y88.430 E1.65734
G1 X188.806 Y88.214 E1.67019
G1 X189.162 Y88.055 E1.68304
G1 X189.539 Y87.957 E1.69590
G1 X189.921 Y87.925 E1.70854
G1 X208.089 Y87.925 E2.30742
G1 X208.460 Y87.957 E2.31970 F1125.000
G1 X208.651 Y87.998 E2.32614
G1 X208.854 Y88.061 E2.33314
G1 X209.194 Y88.214 E2.34542
G1 X209.532 Y88.441 E2.35885
G1 X209.803 Y88.697 E2.37114
G1 X209.927 Y88.848 E2.37756
G1 X210.135 Y89.178 E2.39043
G1 X210.285 Y89.538 E2.40328
G1 X210.446 Y90.303 E2.42907
G1 X210.550 Y90.682 E2.44201
G1 X210.686 Y91.050 E2.45494
G1 X210.852 Y91.405 E2.46788
G1 X211.047 Y91.746 E2.48081
G1 X211.271 Y92.069 E2.49375
G1 X211.520 Y92.371 E2.50668
G1 X211.794 Y92.652 E2.51962
G1 X212.091 Y92.909 E2.53255
G1 X212.408 Y93.140 E2.54549
G1 X212.743 Y93.344 E2.55842
G1 X213.095 Y93.519 E2.57136
G1 X213.459 Y93.664 E2.58429
G1 X213.835 Y93.777 E2.59723
G1 X214.219 Y93.859 E2.61017
G1 X214.608 Y93.908 E2.62310
G1 X215.203 Y93.934 E2.64272
G1 X215.404 Y93.960 E2.64941
G1 X215.795 Y94.065 E2.66277
G1 X216.163 Y94.236 E2.67613
G1 X216.495 Y94.469 E2.68950
G1 X216.781 Y94.755 E2.70285
G1 X216.905 Y94.916 E2.70954
G1 X217.107 Y95.267 E2.72290
G1 X217.246 Y95.648 E2.73626
G1 X217.290 Y95.846 E2.74295
G1 X217.325 Y96.243 E2.75608
G1 X217.316 Y113.052 E3.31018
G1 X217.286 Y113.272 E3.31748
G1 X217.185 Y113.645 E3.33024
G1 X217.014 Y114.013 E3.34360
G1 X216.781 Y114.345 E3.35696
G1 X216.495 Y114.631 E3.37032
G1 X216.163 Y114.864 E3.38368
G1 X215.797 Y115.034 E3.39699
G1 X215.404 Y115.140 E3.41041
G1 X215.007 Y115.175 E3.42353
G1 X181.993 Y115.175 E4.51180
G1 X181.596 Y115.140 E4.52493
G1 X181.203 Y115.034 E4.53834
G1 X180.838 Y114.864 E4.55164
G1 X180.505 Y114.631 E4.56501
G1 X180.219 Y114.345 E4.57838
G1 X180.085 Y114.168 E4.58566
G1 X179.892 Y113.833 E4.59843
G1 X179.754 Y113.452 E4.61178
G1 X179.710 Y113.254 E4.61848
G1 X179.675 Y112.857 E4.63160
G1 X179.675 Y96.171 E5.18163
G1 X179.709 Y95.782 E5.19452
G1 X179.751 Y95.587 E5.20109
G1 X179.893 Y95.196 E5.21479
G1 X180.081 Y94.865 E5.22733
G1 X180.200 Y94.706 E5.23389
G1 X180.478 Y94.420 E5.24702
G1 X180.649 Y94.287 E5.25417
G1 X180.975 Y94.091 E5.26671
G1 X181.346 Y93.947 E5.27983
G1 X181.736 Y93.868 E5.29296
G1 X182.134 Y93.857 E5.30608
G1 X182.738 Y93.917 E5.32609
G1 X183.146 Y93.922 E5.33953
G1 X183.552 Y93.892 E5.35298
G1 X183.955 Y93.826 E5.36642
G1 X184.350 Y93.725 E5.37986
G1 X184.735 Y93.591 E5.39331
G1 X185.107 Y93.423 E5.40675
G1 X185.462 Y93.224 E5.42019
G1 X185.799 Y92.994 E5.43363
G1 X186.236 Y92.617 E5.45264
G1 F1200.000 E3.95264
G92 E0
G1 X208.270 Y87.600 F9600.000
G1 X181.680 Y92.887 F9600.000
G1 E1.50000 F1200.000
G1 X181.636 Y93.258 E1.51233 F1500.000
G1 X181.172 Y93.353 E1.52795
G1 X180.933 Y93.435 E1.53625
G1 X180.481 Y93.657 E1.55288
G1 X180.073 Y93.953 E1.56949
G1 X179.721 Y94.315 E1.58612
G1 X179.437 Y94.730 E1.60272
G1 X179.228 Y95.189 E1.61933
G1 X179.153 Y95.429 E1.62763
G1 X179.067 Y95.926 E1.64426
G1 X179.067 Y113.106 E2.21058
G1 X179.157 Y113.612 E2.22749
G1 X179.234 Y113.858 E2.23599
G1 X179.430 Y114.283 E2.25142
G1 X179.589 Y114.539 E2.26136
G1 X179.745 Y114.742 E2.26980
G1 X180.108 Y115.105 E2.28673
G1 X180.529 Y115.400 E2.30366
G1 X180.989 Y115.614 E2.32040
G1 X181.489 Y115.749 E2.33746
G1 X181.980 Y115.793 E2.35370
G1 X215.021 Y115.793 E3.44286
G1 X215.511 Y115.749 E3.45908
G1 X215.762 Y115.693 E3.46757
G1 X216.244 Y115.518 E3.48449
G1 X216.688 Y115.261 E3.50138
G1 X216.892 Y115.105 E3.50986
G1 X217.082 Y114.931 E3.51833
G1 X217.397 Y114.557 E3.53445
G1 X217.732 Y114.671 E3.54612
G1 X217.732 Y122.229 E3.79527
G1 X217.705 Y122.551 E3.80590
G1 X217.627 Y122.842 E3.81585
G1 X217.499 Y123.116 E3.82579
G1 X217.387 Y123.283 E3.83243
G1 X217.224 Y123.474 E3.84072
G1 X217.073 Y123.607 E3.84735
G1 X216.866 Y123.749 E3.85564
G1 X216.732 Y123.819 E3.86062
G1 X216.448 Y123.922 E3.87057
G1 X216.151 Y123.975 E3.88052
G1 X215.979 Y123.982 E3.88617
G1 X211.316 Y123.982 E4.03990
G1 X211.697 Y123.384 E4.06327
G1 X211.869 Y123.054 E4.07553
G1 X212.011 Y122.710 E4.08781
G1 X212.136 Y122.297 E4.10204
G1 X212.204 Y121.991 E4.11236
G1 X212.252 Y121.622 E4.12463
G1 X212.269 Y121.250 E4.13691
G1 X212.252 Y120.878 E4.14919
G1 X212.191 Y120.451 E4.16341
G1 X212.123 Y120.145 E4.17373
G1 X212.011 Y119.790 E4.18601
G1 X211.869 Y119.446 E4.19828
G1 X211.697 Y119.116 E4.21056
G1 X211.497 Y118.802 E4.22284
G1 X211.270 Y118.506 E4.23511
G1 X211.018 Y118.232 E4.24739
G1 X210.744 Y117.980 E4.25967
G1 X210.449 Y117.753 E4.27193
G1 X210.134 Y117.553 E4.28422
G1 X209.804 Y117.381 E4.29649
G1 X209.460 Y117.239 E4.30876
G1 X209.105 Y117.127 E4.32104
G1 X208.741 Y117.046 E4.33331
G1 X208.372 Y116.998 E4.34559
G1 X208.000 Y116.981 E4.35787
G1 X207.628 Y116.998 E4.37014
G1 X207.201 Y117.059 E4.38436
G1 X206.895 Y117.127 E4.39468
G1 X206.540 Y117.239 E4.40696
G1 X206.196 Y117.381 E4.41924
G1 X205.866 Y117.553 E4.43151
G1 X205.552 Y117.753 E4.44379
G1 X205.256 Y117.980 E4.45606
G1 X204.982 Y118.232 E4.46834
G1 X204.730 Y118.506 E4.48062
G1 X204.471 Y118.851 E4.49484
G1 X204.303 Y119.116 E4.50516
G1 X204.131 Y119.446 E4.51744
G1 X203.971 Y119.846 E4.53166
G1 X203.877 Y120.145 E4.54198
G1 X203.796 Y120.509 E4.55425
G1 X203.745 Y120.937 E4.56848
G1 X203.731 Y121.250 E4.57880
G1 X203.748 Y121.622 E4.59108
G1 X203.809 Y122.049 E4.60530
G1 X203.877 Y122.355 E4.61562
G1 X203.989 Y122.710 E4.62789
G1 X204.131 Y123.054 E4.64018
G1 X204.303 Y123.384 E4.65245
G1 X204.684 Y123.982 E4.67582
G1 X185.316 Y123.982 E5.31426
G1 X185.697 Y123.384 E5.33763
G1 X185.869 Y123.054 E5.34990
G1 X186.011 Y122.710 E5.36218
G1 X186.123 Y122.355 E5.37446
G1 X186.204 Y121.991 E5.38673
G1 X186.252 Y121.622 E5.39900
G1 X186.266 Y121.191 E5.41322
G1 X186.252 Y120.878 E5.42355
G1 X186.204 Y120.509 E5.43582
G1 X186.123 Y120.145 E5.44810
G1 X186.011 Y119.790 E5.46038
G1 X185.869 Y119.446 E5.47265
G1 X185.697 Y119.116 E5.48493
G1 X185.497 Y118.802 E5.49720
G1 X185.270 Y118.506 E5.50947
G1 X185.018 Y118.232 E5.52175
G1 X184.744 Y117.980 E5.53403
G1 X184.399 Y117.722 E5.54825
G1 X184.134 Y117.553 E5.55858
G1 X183.804 Y117.381 E5.57085
G1 X183.460 Y117.239 E5.58312
G1 X183.105 Y117.127 E5.59540
G1 X182.683 Y117.038 E5.60962
G1 X182.372 Y116.998 E5.61995
G1 X182.000 Y116.981 E5.63222
G1 X181.628 Y116.998 E5.64450
G1 X181.259 Y117.046 E5.65677
G1 X180.895 Y117.127 E5.66905
G1 X180.485 Y117.261 E5.68327
G1 X180.196 Y117.381 E5.69360
G1 X179.866 Y117.553 E5.70587
G1 X179.552 Y117.753 E5.71814
G1 X179.213 Y118.020 E5.73236
G1 X178.982 Y118.231 E5.74269
G1 X178.730 Y118.506 E5.75496
G1 X178.503 Y118.802 E5.76725
G1 X178.303 Y119.116 E5.77952
G1 X178.131 Y119.446 E5.79179
G1 X177.971 Y119.846 E5.80601
G1 X177.877 Y120.145 E5.81634
G1 X177.796 Y120.509 E5.82861
G1 X177.748 Y120.878 E5.84088
G1 X177.731 Y121.250 E5.85316
G1 X177.748 Y121.622 E5.86544
G1 X177.796 Y121.991 E5.87771
G1 X177.877 Y122.355 E5.88999
G1 X177.989 Y122.710 E5.90227
G1 X178.131 Y123.054 E5.91454
G1 X178.303 Y123.384 E5.92682
G1 X178.684 Y123.982 E5.95018
G1 X177.849 Y123.975 E5.97771
G1 X177.650 Y123.944 E5.98434
G1 X177.408 Y123.877 E5.99263
G1 X177.224 Y123.796 E5.99927
G1 X177.007 Y123.668 E6.00756
G1 X176.776 Y123.474 E6.01750
G1 X176.582 Y123.243 E6.02745
G1 X176.431 Y122.982 E6.03740
G1 X176.328 Y122.698 E6.04735
G1 X176.275 Y122.401 E6.05729
G1 X176.268 Y122.229 E6.06295
G1 X176.268 Y87.771 E7.19885
G1 X176.295 Y87.449 E7.20947
G1 X176.328 Y87.302 E7.21445
G1 X176.431 Y87.018 E7.22440
G1 X176.582 Y86.757 E7.23435
G1 X176.674 Y86.637 E7.23933
G1 X176.813 Y86.492 E7.24596
G1 X177.007 Y86.332 E7.25425
G1 X177.134 Y86.251 E7.25923
G1 X177.408 Y86.123 E7.26918
G1 X177.699 Y86.045 E7.27913
G1 X178.021 Y86.018 E7.28975
G1 X180.806 Y86.018 E7.38158
G1 X180.264 Y86.514 E7.40582
G1 X180.036 Y86.763 E7.41694
G1 X179.766 Y87.133 E7.43203
G1 X179.494 Y87.615 E7.45029
G1 X179.365 Y87.927 E7.46141
G1 X179.263 Y88.249 E7.47254
G1 X179.190 Y88.578 E7.48367
G1 X179.146 Y88.913 E7.49479
G1 X179.131 Y89.250 E7.50592
G1 X179.146 Y89.587 E7.51704
G1 X179.190 Y89.922 E7.52817
G1 X179.263 Y90.251 E7.53929
G1 X179.365 Y90.573 E7.55042
G1 X179.549 Y90.992 E7.56551
G1 X179.831 Y91.469 E7.58377
G1 X180.036 Y91.737 E7.59489
G1 X180.264 Y91.986 E7.60602
G1 X180.513 Y92.214 E7.61714
G1 X180.781 Y92.419 E7.62827
G1 X181.066 Y92.600 E7.63939
G1 X181.365 Y92.756 E7.65052
G1 X181.611 Y92.858 E7.65928
G1 F1200.000 E6.15928
G92 E0
G1 X185.194 Y86.018 F9600.000
G1 E1.50000 F1200.000
G1 X212.806 Y86.018 E2.41022 F1500.000
G1 X212.264 Y86.514 E2.43445
G1 X212.036 Y86.763 E2.44558
G1 X211.831 Y87.031 E2.45670
G1 X211.650 Y87.316 E2.46783
