; generated by Slic3r 1.1.7 on 2015-07-15 at 07:27:54

; perimeters extrusion width = 0.42mm
; infill extrusion width = 0.58mm
; solid infill extrusion width = 0.60mm
; top infill extrusion width = 0.45mm

G21 ; set units to millimeters
M107

M301 P34 I4 D113     ; set PID nozzle
M304 P162 I17 D378 ; set PID Bed

;M104 S230                 ; set extruder temp for budaschnozzle
M104 S250                 ; set extruder temp for hex_hot_end
;M140 S100                 ; set bed temp for PET
M140 S110                 ; set bed temp for PEI (reminder ~G1 Z2 ~ M140 S(@-10 degree change) ;if -m is present in file name)

G28                            ; home
G1 Z5 F300                ; move bed down 5mm
M84                            ; disable steppers
G4 S300                     ; wait 5 mins to preheat

G28                            ; home

G90 ; use absolute coordinates
G92 E0
M82 ; use absolute distances for extrusion
G1 F1200.000 E-1.20000
G92 E0
G1 Z0.350 F9000.000
G1 X59.516 Y166.751 F9000.000
G1 E1.20000 F1200.000
G1 X92.770 Y145.404 E2.50258 F1500.000
G1 X93.678 Y144.929 E2.53639
G1 X94.624 Y144.531 E2.57019
G1 X95.599 Y144.215 E2.60399
G1 X96.078 Y144.092 E2.62029
G1 X96.597 Y143.981 E2.63781
G1 X97.612 Y143.831 E2.67161
G1 X98.635 Y143.767 E2.70541
G1 X99.661 Y143.789 E2.73922
G1 X100.680 Y143.897 E2.77302 F1500.000
G1 X101.167 Y143.979 E2.78930
G1 X101.688 Y144.089 E2.80683
G1 X102.675 Y144.366 E2.84064
G1 X103.636 Y144.724 E2.87444
G1 X104.564 Y145.161 E2.90824
G1 X105.452 Y145.675 E2.94206
G1 X106.293 Y146.261 E2.97585
G1 X106.874 Y146.729 E3.00045
G1 X133.119 Y169.280 E4.14108
G1 X139.066 Y174.420 E4.40018
G1 X140.462 Y176.151 E4.47351
G1 X141.224 Y179.137 E4.57509
G1 X141.223 Y183.882 E4.73150
G1 X141.117 Y190.269 E4.94208
G1 X141.046 Y191.334 E4.97726
G1 X140.884 Y192.389 E5.01243
G1 X140.629 Y193.425 E5.04761
G1 X140.286 Y194.436 E5.08279
G1 X140.089 Y194.911 E5.09976
G1 X139.856 Y195.412 E5.11797
G1 X139.342 Y196.348 E5.15315
G1 X138.749 Y197.235 E5.18833
G1 X138.081 Y198.067 E5.22350
G1 X137.342 Y198.837 E5.25869
G1 X136.540 Y199.541 E5.29386
G1 X136.132 Y199.854 E5.31081
G1 X135.679 Y200.171 E5.32905
G1 X134.766 Y200.725 E5.36423
G1 X133.809 Y201.196 E5.39940
G1 X132.814 Y201.583 E5.43458
G1 X131.790 Y201.881 E5.46976
G1 X130.743 Y202.088 E5.50493
G1 X129.682 Y202.204 E5.54012
G1 X128.887 Y202.233 E5.56634
G1 X68.615 Y202.227 E7.55313
G1 X67.550 Y202.157 E7.58831
G1 X66.495 Y201.994 E7.62349
G1 X65.459 Y201.740 E7.65866
G1 X64.448 Y201.396 E7.69384
G1 X63.472 Y200.966 E7.72902
G1 X62.537 Y200.453 E7.76419
G1 X61.649 Y199.859 E7.79938
G1 X60.818 Y199.191 E7.83455
G1 X60.047 Y198.453 E7.86973
G1 X59.344 Y197.650 E7.90491
G1 X58.713 Y196.789 E7.94009
G1 X58.160 Y195.877 E7.97526
G1 X57.688 Y194.919 E8.01044
G1 X57.302 Y193.925 E8.04562
G1 X57.004 Y192.900 E8.08080
G1 X56.796 Y191.853 E8.11598
G1 X56.729 Y191.344 E8.13290
G1 X56.680 Y190.792 E8.15116
G1 X56.651 Y189.997 E8.17738
G1 X56.651 Y171.997 E8.77073
G1 X57.048 Y169.809 E8.84406
G1 X58.188 Y167.898 E8.91739
G1 X59.460 Y166.800 E8.97277
G1 X59.850 Y167.271 F9000.000
G1 X93.067 Y145.945 E10.27397 F1500.000
G1 X93.930 Y145.493 E10.30607
G1 X94.827 Y145.115 E10.33816
G1 X95.753 Y144.813 E10.37026
G1 X96.231 Y144.690 E10.38655
G1 X96.701 Y144.590 E10.40237
G1 X97.664 Y144.447 E10.43446
G1 X98.635 Y144.385 E10.46656
G1 X99.609 Y144.405 E10.49866
G1 X100.577 Y144.506 E10.53075 F1500.000
G1 X101.064 Y144.588 E10.54703
G1 X101.534 Y144.688 E10.56286
G1 X102.472 Y144.949 E10.59496
G1 X103.385 Y145.288 E10.62705
G1 X104.266 Y145.703 E10.65915
G1 X105.109 Y146.189 E10.69125
G1 X105.909 Y146.745 E10.72334
G1 X106.472 Y147.197 E10.74715
G1 X132.715 Y169.747 E11.88772
G1 X138.662 Y174.887 E12.14682
G1 X139.971 Y176.543 E12.21639
G1 X140.606 Y179.137 E12.30444
G1 X140.605 Y183.872 E12.46052
G1 X140.499 Y190.242 E12.67054
G1 X140.434 Y191.254 E12.70394
G1 X140.280 Y192.255 E12.73734
G1 X140.040 Y193.240 E12.77074
G1 X139.715 Y194.199 E12.80415
G1 X139.518 Y194.675 E12.82112
G1 X139.308 Y195.127 E12.83756
G1 X138.821 Y196.016 E12.87096
G1 X138.259 Y196.859 E12.90436
G1 X137.625 Y197.649 E12.93776
G1 X136.925 Y198.382 E12.97116
G1 X136.164 Y199.051 E13.00456
G1 X135.756 Y199.364 E13.02151
G1 X135.347 Y199.650 E13.03798
G1 X134.481 Y200.177 E13.07138
G1 X133.573 Y200.625 E13.10477
G1 X132.628 Y200.993 E13.13818
G1 X131.656 Y201.278 E13.17158
G1 X130.662 Y201.476 E13.20498
G1 X129.655 Y201.587 E13.23839
G1 X128.887 Y201.615 E13.26372
G1 X68.642 Y201.610 E15.24962
G1 X67.631 Y201.544 E15.28303
G1 X66.629 Y201.391 E15.31643
G1 X65.645 Y201.151 E15.34982
G1 X64.685 Y200.826 E15.38323
G1 X63.757 Y200.418 E15.41663
G1 X62.869 Y199.932 E15.45003
G1 X62.025 Y199.369 E15.48344
G1 X61.235 Y198.736 E15.51683
G1 X60.502 Y198.035 E15.55024
G1 X59.834 Y197.274 E15.58364
G1 X59.234 Y196.457 E15.61704
G1 X58.708 Y195.592 E15.65044
G1 X58.259 Y194.683 E15.68384
G1 X57.891 Y193.739 E15.71724
G1 X57.607 Y192.766 E15.75065
G1 X57.408 Y191.773 E15.78405
G1 X57.341 Y191.264 E15.80097
G1 X57.297 Y190.765 E15.81746
G1 X57.269 Y189.997 E15.84279
G1 X57.269 Y171.997 E16.43614
G1 X57.666 Y169.924 E16.50571
G1 X58.799 Y168.144 E16.57528
G1 X59.793 Y167.319 E16.61786
G1 F1200.000 E15.41786
G92 E0
G1 X130.603 Y192.234 F9000.000
G1 E1.20000 F1200.000
M204 S800
G1 X130.310 Y192.459 E1.21215 F1500.000
G1 X130.000 Y192.657 E1.22430
G1 X129.673 Y192.827 E1.23645
G1 X129.332 Y192.968 E1.24860
G1 X128.981 Y193.079 E1.26075
G1 X128.621 Y193.158 E1.27290
G1 X128.255 Y193.207 E1.28505
G1 X127.866 Y193.222 E1.29789
G1 X127.519 Y193.207 E1.30935
G1 X127.153 Y193.158 E1.32150
G1 X126.793 Y193.079 E1.33366
G1 X126.423 Y192.960 E1.34649
G1 X126.101 Y192.827 E1.35795
G1 X125.774 Y192.657 E1.37010
G1 X125.447 Y192.446 E1.38294
G1 X125.171 Y192.234 E1.39440
G1 X124.899 Y191.985 E1.40655
G1 X124.650 Y191.713 E1.41871
G1 X124.426 Y191.421 E1.43086
G1 X124.228 Y191.110 E1.44301
G1 X124.057 Y190.783 E1.45516
G1 X123.916 Y190.443 E1.46731
G1 X123.806 Y190.091 E1.47946
G1 X123.726 Y189.731 E1.49161
G1 X123.678 Y189.366 E1.50376
G1 X123.663 Y188.977 E1.51660
G1 X123.678 Y188.629 E1.52806
G1 X123.726 Y188.264 E1.54021
G1 X123.806 Y187.904 E1.55236
G1 X123.916 Y187.552 E1.56451
G1 X124.057 Y187.212 E1.57666
G1 X124.228 Y186.884 E1.58883
G1 X124.426 Y186.573 E1.60100
G1 X124.650 Y186.281 E1.61312
G1 X124.888 Y186.022 E1.62470
G1 X125.171 Y185.761 E1.63742
G1 X125.463 Y185.536 E1.64956
G1 X125.774 Y185.338 E1.66171
G1 X126.101 Y185.168 E1.67387
G1 X126.441 Y185.027 E1.68600
G1 X126.793 Y184.916 E1.69816
G1 X127.153 Y184.836 E1.71032
G1 X127.519 Y184.788 E1.72247
G1 X127.907 Y184.773 E1.73528
M204 S800
M204 S800
G1 X128.255 Y184.788 E1.74677 F1500.000
G1 X128.621 Y184.836 E1.75892
G1 X128.981 Y184.916 E1.77108
G1 X129.332 Y185.027 E1.78322
G1 X129.673 Y185.168 E1.79538
G1 X130.000 Y185.338 E1.80754
G1 X130.310 Y185.536 E1.81967
G1 X130.603 Y185.761 E1.83183
G1 X130.874 Y186.009 E1.84397
G1 X131.135 Y186.296 E1.85671
G1 X131.348 Y186.574 E1.86829
G1 X131.546 Y186.884 E1.88039
G1 X131.716 Y187.212 E1.89258
G1 X131.857 Y187.552 E1.90473
G1 X131.968 Y187.904 E1.91688
G1 X132.048 Y188.264 E1.92903
G1 X132.096 Y188.629 E1.94118
G1 X132.112 Y188.997 E1.95333
G1 X132.096 Y189.366 E1.96548
G1 X132.048 Y189.731 E1.97763
G1 X131.968 Y190.091 E1.98979
G1 X131.849 Y190.462 E2.00262
G1 X131.716 Y190.783 E2.01408
G1 X131.546 Y191.110 E2.02623
G1 X131.348 Y191.421 E2.03838
G1 X131.124 Y191.713 E2.05054
G1 X130.875 Y191.985 E2.06269
G1 X130.658 Y192.183 E2.07237
M204 S800
G1 F1200.000 E0.87237
G92 E0
G1 X127.872 Y184.426 F9000.000
G1 X114.830 Y182.565 F9000.000
G1 E1.20000 F1200.000
M204 S800
G1 X82.944 Y182.565 E2.25107 F1500.000
G1 X82.944 Y171.430 E2.61814
G1 X114.830 Y171.430 E3.66921
G1 X114.830 Y182.490 E4.03381
M204 S800
G1 X114.212 Y181.947 F9000.000
M204 S800
G1 X83.562 Y181.947 E5.04415 F1500.000
G1 X83.562 Y172.047 E5.37050
G1 X114.212 Y172.047 E6.38084
G1 X114.212 Y181.872 E6.70470
M204 S800
G1 X114.212 Y182.447 F9000.000
G1 F1200.000 E5.50470
G92 E0
G1 X101.000 Y159.657 F9000.000
G1 E1.20000 F1200.000
M204 S800
G1 X100.673 Y159.827 E1.21215 F1500.000
G1 X100.312 Y159.974 E1.22498
G1 X99.980 Y160.079 E1.23645
G1 X99.621 Y160.158 E1.24860
G1 X99.255 Y160.207 E1.26075
G1 X98.887 Y160.223 E1.27290
G1 X98.519 Y160.207 E1.28505
G1 X98.153 Y160.158 E1.29720
G1 X97.793 Y160.079 E1.30936
G1 X97.423 Y159.960 E1.32218
G1 X97.101 Y159.827 E1.33365
G1 X96.774 Y159.657 E1.34580
G1 X96.463 Y159.459 E1.35795
G1 X96.171 Y159.234 E1.37011
G1 X95.899 Y158.985 E1.38226
G1 X95.650 Y158.713 E1.39441
G1 X95.426 Y158.421 E1.40656
G1 X95.228 Y158.110 E1.41871
G1 X95.057 Y157.783 E1.43086
G1 X94.916 Y157.443 E1.44301
G1 X94.806 Y157.091 E1.45516
G1 X94.726 Y156.731 E1.46731
G1 X94.678 Y156.366 E1.47946
G1 X94.662 Y155.997 E1.49161
G1 X94.678 Y155.629 E1.50377
G1 X94.726 Y155.264 E1.51592
G1 X94.806 Y154.904 E1.52807
G1 X94.916 Y154.552 E1.54021
G1 X95.057 Y154.212 E1.55237
G1 X95.239 Y153.867 E1.56520
G1 X95.426 Y153.574 E1.57667
G1 X95.650 Y153.281 E1.58882
G1 X95.899 Y153.010 E1.60097
G1 X96.171 Y152.761 E1.61312
G1 X96.463 Y152.536 E1.62527
G1 X96.774 Y152.338 E1.63742
G1 X97.101 Y152.168 E1.64957
G1 X97.442 Y152.027 E1.66173
G1 X97.793 Y151.916 E1.67388
G1 X98.153 Y151.836 E1.68602
G1 X98.519 Y151.788 E1.69818
G1 X98.908 Y151.773 E1.71101
M204 S800
M204 S800
G1 X99.255 Y151.788 E1.72248 F1500.000
G1 X99.620 Y151.836 E1.73462
G1 X99.980 Y151.916 E1.74677
G1 X100.332 Y152.027 E1.75892
G1 X100.673 Y152.168 E1.77108
G1 X101.000 Y152.338 E1.78323
G1 X101.311 Y152.536 E1.79538
G1 X101.603 Y152.761 E1.80753
G1 X101.889 Y153.025 E1.82036
G1 X102.124 Y153.281 E1.83183
G1 X102.348 Y153.574 E1.84398
G1 X102.546 Y153.885 E1.85613
G1 X102.716 Y154.212 E1.86828
G1 X102.857 Y154.552 E1.88043
G1 X102.968 Y154.904 E1.89258
G1 X103.048 Y155.264 E1.90473
G1 X103.096 Y155.629 E1.91688
G1 X103.111 Y156.018 E1.92972
G1 X103.096 Y156.366 E1.94118
G1 X103.048 Y156.731 E1.95333
G1 X102.968 Y157.091 E1.96549
G1 X102.857 Y157.442 E1.97763
G1 X102.716 Y157.783 E1.98979
G1 X102.546 Y158.110 E2.00194
G1 X102.348 Y158.421 E2.01409
G1 X102.124 Y158.713 E2.02624
G1 X101.875 Y158.985 E2.03839
G1 X101.603 Y159.234 E2.05054
G1 X101.310 Y159.459 E2.06269
G1 X101.063 Y159.616 E2.07237
M204 S800
G1 F1200.000 E0.87237
G92 E0
G1 X98.883 Y151.426 F9000.000
G1 X73.311 Y185.571 F9000.000
G1 E1.20000 F1200.000
M204 S800
G1 X73.597 Y185.883 E1.21395 F1500.000
G1 X73.855 Y186.220 E1.22793
G1 X74.080 Y186.573 E1.24175
G1 X74.277 Y186.951 E1.25578
G1 X74.439 Y187.341 E1.26971
G1 X74.565 Y187.743 E1.28361
G1 X74.657 Y188.156 E1.29756
G1 X74.712 Y188.575 E1.31149
G1 X74.731 Y188.997 E1.32541
G1 X74.712 Y189.419 E1.33934
G1 X74.657 Y189.839 E1.35329
G1 X74.566 Y190.251 E1.36719
G1 X74.439 Y190.654 E1.38112
G1 X74.277 Y191.044 E1.39506
G1 X74.082 Y191.419 E1.40899
G1 X73.854 Y191.776 E1.42293
G1 X73.598 Y192.111 E1.43683
G1 X73.312 Y192.422 E1.45077
G1 X73.000 Y192.708 E1.46471
G1 X72.665 Y192.965 E1.47864
G1 X72.309 Y193.192 E1.49256
G1 X71.934 Y193.387 E1.50650
G1 X71.544 Y193.549 E1.52041
G1 X71.140 Y193.676 E1.53435
G1 X70.728 Y193.767 E1.54828
G1 X70.309 Y193.823 E1.56221
G1 X69.887 Y193.841 E1.57613
G1 X69.465 Y193.823 E1.59007
G1 X69.046 Y193.767 E1.60399
G1 X68.633 Y193.676 E1.61794
G1 X68.231 Y193.549 E1.63185
G1 X67.840 Y193.387 E1.64578
G1 X67.465 Y193.192 E1.65970
G1 X67.109 Y192.965 E1.67364
G1 X66.773 Y192.708 E1.68757
G1 X66.462 Y192.422 E1.70151
G1 X66.177 Y192.111 E1.71542
G1 X65.919 Y191.776 E1.72936
G1 X65.692 Y191.419 E1.74329
G1 X65.497 Y191.044 E1.75723
G1 X65.335 Y190.654 E1.77116
G1 X65.208 Y190.251 E1.78509
G1 X65.117 Y189.838 E1.79901
G1 X65.062 Y189.419 E1.81293
G1 X65.043 Y188.997 E1.82686
G1 X65.062 Y188.575 E1.84079
G1 X65.117 Y188.157 E1.85470
G1 X65.208 Y187.744 E1.86864
G1 X65.335 Y187.341 E1.88257
G1 X65.497 Y186.950 E1.89651
G1 X65.692 Y186.575 E1.91045
G1 X65.922 Y186.216 E1.92450
G1 X66.177 Y185.883 E1.93831
G1 X66.462 Y185.572 E1.95224
G1 X66.774 Y185.287 E1.96616
G1 X67.108 Y185.030 E1.98007
G1 X67.465 Y184.803 E1.99402
G1 X67.840 Y184.608 E2.00793
G1 X68.230 Y184.446 E2.02186
G1 X68.633 Y184.319 E2.03578
G1 X69.046 Y184.227 E2.04974
G1 X69.465 Y184.172 E2.06366
G1 X69.934 Y184.156 E2.07913
M204 S800
M204 S800
G1 X70.309 Y184.172 E2.09150 F1500.000
G1 X70.728 Y184.227 E2.10545
G1 X71.141 Y184.319 E2.11939
G1 X71.543 Y184.446 E2.13327
G1 X71.934 Y184.608 E2.14724
G1 X72.309 Y184.802 E2.16115
G1 X72.665 Y185.029 E2.17507
G1 X73.000 Y185.287 E2.18902
G1 X73.256 Y185.521 E2.20042
M204 S800
G1 X72.874 Y186.009 F9000.000
M204 S800
G1 X73.134 Y186.295 E2.21317 F1500.000
G1 X73.348 Y186.574 E2.22475
G1 X73.546 Y186.884 E2.23685
G1 X73.716 Y187.212 E2.24904
G1 X73.857 Y187.552 E2.26120
G1 X73.968 Y187.904 E2.27334
G1 X74.048 Y188.264 E2.28549
G1 X74.096 Y188.629 E2.29764
G1 X74.112 Y188.997 E2.30979
G1 X74.096 Y189.366 E2.32195
G1 X74.048 Y189.731 E2.33410
G1 X73.968 Y190.091 E2.34624
G1 X73.857 Y190.442 E2.35840
G1 X73.716 Y190.783 E2.37055
G1 X73.546 Y191.110 E2.38270
G1 X73.348 Y191.421 E2.39485
G1 X73.124 Y191.713 E2.40700
G1 X72.875 Y191.985 E2.41915
G1 X72.603 Y192.234 E2.43131
G1 X72.310 Y192.459 E2.44346
G1 X72.000 Y192.657 E2.45561
G1 X71.673 Y192.827 E2.46776
G1 X71.332 Y192.968 E2.47990
G1 X70.980 Y193.079 E2.49206
G1 X70.621 Y193.158 E2.50421
G1 X70.255 Y193.207 E2.51636
G1 X69.887 Y193.223 E2.52851
G1 X69.519 Y193.207 E2.54066
G1 X69.153 Y193.158 E2.55281
G1 X68.793 Y193.079 E2.56497
G1 X68.442 Y192.968 E2.57711
G1 X68.101 Y192.827 E2.58926
G1 X67.774 Y192.657 E2.60141
G1 X67.463 Y192.459 E2.61356
G1 X67.171 Y192.234 E2.62572
G1 X66.899 Y191.985 E2.63787
G1 X66.650 Y191.713 E2.65002
G1 X66.426 Y191.421 E2.66217
G1 X66.228 Y191.110 E2.67432
G1 X66.057 Y190.783 E2.68647
G1 X65.916 Y190.442 E2.69863
G1 X65.806 Y190.091 E2.71078
G1 X65.726 Y189.731 E2.72292
G1 X65.678 Y189.366 E2.73507
G1 X65.662 Y188.997 E2.74722
G1 X65.678 Y188.629 E2.75938
G1 X65.726 Y188.264 E2.77152
G1 X65.806 Y187.904 E2.78367
G1 X65.916 Y187.552 E2.79583
G1 X66.057 Y187.212 E2.80798
G1 X66.228 Y186.884 E2.82014
G1 X66.427 Y186.573 E2.83233
G1 X66.650 Y186.281 E2.84444
G1 X66.899 Y186.009 E2.85659
G1 X67.171 Y185.761 E2.86874
G1 X67.463 Y185.536 E2.88088
G1 X67.774 Y185.338 E2.89304
G1 X68.101 Y185.168 E2.90518
G1 X68.442 Y185.027 E2.91733
G1 X68.793 Y184.916 E2.92948
G1 X69.153 Y184.836 E2.94164
G1 X69.538 Y184.787 E2.95442
M204 S800
M204 S800
G1 X69.887 Y184.772 E2.96593 F1500.000
G1 X70.255 Y184.788 E2.97808
G1 X70.621 Y184.836 E2.99024
G1 X70.981 Y184.916 E3.00240
G1 X71.332 Y185.027 E3.01453
G1 X71.673 Y185.168 E3.02669
G1 X72.000 Y185.338 E3.03884
G1 X72.310 Y185.536 E3.05099
G1 X72.603 Y185.761 E3.06314
G1 X72.819 Y185.959 E3.07280
M204 S800
G1 F1200.000 E1.87280
G92 E0
G1 X69.386 Y184.473 F9000.000
G1 X63.830 Y172.940 F9000.000
G1 E1.20000 F1200.000
M204 S800
G1 X65.285 Y172.940 E1.24798 F1500.000
G1 X65.619 Y173.439 E1.26777
G1 X65.823 Y173.679 E1.27816
G1 X66.035 Y173.888 E1.28796
G1 X66.322 Y174.131 E1.30037
G1 X66.588 Y174.317 E1.31108
G1 X66.866 Y174.480 E1.32169
G1 X67.436 Y174.727 E1.34217
G1 X67.754 Y174.822 E1.35310
G1 X68.071 Y174.888 E1.36379
G1 X68.419 Y174.929 E1.37533
G1 X69.240 Y174.940 E1.40240
G1 X94.480 Y153.122 E2.50216
G1 X94.803 Y153.401 E2.51624
G1 X94.497 Y153.950 E2.53696
G1 X94.335 Y154.341 E2.55090
G1 X94.208 Y154.744 E2.56482
G1 X94.117 Y155.156 E2.57875
G1 X94.062 Y155.575 E2.59268
G1 X94.043 Y155.997 E2.60661
G1 X94.062 Y156.419 E2.62054
G1 X94.117 Y156.838 E2.63446
G1 X94.208 Y157.251 E2.64840
G1 X94.335 Y157.654 E2.66233
G1 X94.497 Y158.044 E2.67624
G1 X94.692 Y158.419 E2.69018
G1 X94.919 Y158.776 E2.70411
G1 X95.176 Y159.111 E2.71803
G1 X95.462 Y159.422 E2.73197
G1 X95.773 Y159.708 E2.74590
G1 X96.109 Y159.965 E2.75983
G1 X96.465 Y160.192 E2.77376
G1 X96.840 Y160.387 E2.78769
G1 X97.231 Y160.549 E2.80163
G1 X97.633 Y160.676 E2.81554
G1 X97.999 Y160.757 E2.82790
G1 X98.465 Y160.823 E2.84340
G1 X98.887 Y160.841 E2.85733
G1 X99.309 Y160.823 E2.87125
G1 X99.728 Y160.767 E2.88518
G1 X100.141 Y160.676 E2.89911
