; generated by Slic3r 1.1.7 on 2015-07-15 at 07:27:54

; perimeters extrusion width = 0.42mm
; infill extrusion width = 0.58mm
; solid infill extrusion width = 0.60mm
; top infill extrusion width = 0.45mm

G21 ; set units to millimeters
M107

M301 P34 I4 D113     ; set PID nozzle
M304 P162 I17 D378 ; set PID Bed

;M104 S230                 ; set extruder temp for budaschnozzle
M104 S250                 ; set extruder temp for hex_hot_end
;M140 S100                 ; set bed temp for PET
M140 S110                 ; set bed temp for PEI (reminder ~G1 Z2 ~ M140 S(@-10 degree change) ;if -m is present in file name)

G28                            ; home
G1 Z5 F300                ; move bed down 5mm
M84                            ; disable steppers
G4 S300                     ; wait 5 mins to preheat

G28                            ; home

G90 ; use absolute coordinates
G92 E0
M82 ; use absolute distances for extrusion
G1 F1200.000 E-1.20000
G92 E0
G1 Z0.350 F9000.000
G1 X59.516 Y98.751 F9000.000
G1 E1.20000 F1200.000
G1 X92.770 Y77.404 E2.50258 F1500.000
G1 X93.678 Y76.929 E2.53639
G1 X94.624 Y76.531 E2.57019
G1 X95.599 Y76.215 E2.60399
G1 X96.078 Y76.092 E2.62029
G1 X96.597 Y75.981 E2.63781
G1 X97.612 Y75.831 E2.67161
G1 X98.635 Y75.767 E2.70541
G1 X99.661 Y75.789 E2.73922
G1 X100.680 Y75.897 E2.77302 F1500.000
G1 X101.167 Y75.979 E2.78930
G1 X101.688 Y76.089 E2.80683
G1 X102.675 Y76.366 E2.84064
G1 X103.636 Y76.724 E2.87444
G1 X104.564 Y77.161 E2.90824
G1 X105.452 Y77.675 E2.94206
G1 X106.293 Y78.261 E2.97585
G1 X106.874 Y78.729 E3.00045
G1 X133.119 Y101.280 E4.14108
G1 X139.066 Y106.420 E4.40018
G1 X140.462 Y108.151 E4.47351
G1 X141.224 Y111.137 E4.57509
G1 X141.223 Y115.882 E4.73150
G1 X141.117 Y122.269 E4.94208
G1 X141.046 Y123.334 E4.97726
G1 X140.884 Y124.389 E5.01243
G1 X140.629 Y125.425 E5.04761
G1 X140.286 Y126.436 E5.08279
G1 X140.089 Y126.911 E5.09976
G1 X139.856 Y127.412 E5.11797
G1 X139.342 Y128.348 E5.15315
G1 X138.749 Y129.235 E5.18833
G1 X138.081 Y130.067 E5.22350
G1 X137.342 Y130.837 E5.25869
G1 X136.540 Y131.541 E5.29386
G1 X136.132 Y131.854 E5.31081
G1 X135.679 Y132.171 E5.32905
G1 X134.766 Y132.725 E5.36423
G1 X133.809 Y133.196 E5.39940
G1 X132.814 Y133.583 E5.43458
G1 X131.790 Y133.881 E5.46976
G1 X130.743 Y134.088 E5.50493
G1 X129.682 Y134.204 E5.54012
G1 X128.887 Y134.233 E5.56634
G1 X68.615 Y134.227 E7.55313
G1 X67.550 Y134.157 E7.58831
G1 X66.495 Y133.994 E7.62349
G1 X65.459 Y133.740 E7.65866
G1 X64.448 Y133.396 E7.69384
G1 X63.472 Y132.966 E7.72902
G1 X62.537 Y132.453 E7.76419
G1 X61.649 Y131.859 E7.79938
G1 X60.818 Y131.191 E7.83455
G1 X60.047 Y130.453 E7.86973
G1 X59.344 Y129.650 E7.90491
G1 X58.713 Y128.789 E7.94009
G1 X58.160 Y127.877 E7.97526
G1 X57.688 Y126.919 E8.01044
G1 X57.302 Y125.925 E8.04562
G1 X57.004 Y124.900 E8.08080
G1 X56.796 Y123.853 E8.11598
G1 X56.729 Y123.344 E8.13290
G1 X56.680 Y122.792 E8.15116
G1 X56.651 Y121.997 E8.17738
G1 X56.651 Y103.997 E8.77073
G1 X57.048 Y101.809 E8.84406
G1 X58.188 Y99.898 E8.91739
G1 X59.460 Y98.800 E8.97277
G1 X59.850 Y99.271 F9000.000
G1 X93.067 Y77.945 E10.27397 F1500.000
G1 X93.930 Y77.493 E10.30607
G1 X94.827 Y77.115 E10.33816
G1 X95.753 Y76.813 E10.37026
G1 X96.231 Y76.690 E10.38655
G1 X96.701 Y76.590 E10.40237
G1 X97.664 Y76.447 E10.43446
G1 X98.635 Y76.385 E10.46656
G1 X99.609 Y76.405 E10.49866
G1 X100.577 Y76.506 E10.53075 F1500.000
G1 X101.064 Y76.588 E10.54703
G1 X101.534 Y76.688 E10.56286
G1 X102.472 Y76.949 E10.59496
G1 X103.385 Y77.288 E10.62705
G1 X104.266 Y77.703 E10.65915
G1 X105.109 Y78.189 E10.69125
G1 X105.909 Y78.745 E10.72334
G1 X106.472 Y79.197 E10.74715
G1 X132.715 Y101.747 E11.88772
G1 X138.662 Y106.887 E12.14682
G1 X139.971 Y108.543 E12.21639
G1 X140.606 Y111.137 E12.30444
G1 X140.605 Y115.872 E12.46052
G1 X140.499 Y122.242 E12.67054
G1 X140.434 Y123.254 E12.70394
G1 X140.280 Y124.255 E12.73734
G1 X140.040 Y125.240 E12.77074
G1 X139.715 Y126.199 E12.80415
G1 X139.518 Y126.675 E12.82112
G1 X139.308 Y127.127 E12.83756
G1 X138.821 Y128.016 E12.87096
G1 X138.259 Y128.859 E12.90436
G1 X137.625 Y129.649 E12.93776
G1 X136.925 Y130.382 E12.97116
G1 X136.164 Y131.051 E13.00456
G1 X135.756 Y131.364 E13.02151
G1 X135.347 Y131.650 E13.03798
G1 X134.481 Y132.177 E13.07138
G1 X133.573 Y132.625 E13.10477
G1 X132.628 Y132.993 E13.13818
G1 X131.656 Y133.278 E13.17158
G1 X130.662 Y133.476 E13.20498
G1 X129.655 Y133.587 E13.23839
G1 X128.887 Y133.615 E13.26372
G1 X68.642 Y133.610 E15.24962
G1 X67.631 Y133.544 E15.28303
G1 X66.629 Y133.391 E15.31643
G1 X65.645 Y133.151 E15.34982
G1 X64.685 Y132.826 E15.38323
G1 X63.757 Y132.418 E15.41663
G1 X62.869 Y131.932 E15.45003
G1 X62.025 Y131.369 E15.48344
G1 X61.235 Y130.736 E15.51683
G1 X60.502 Y130.035 E15.55024
G1 X59.834 Y129.274 E15.58364
G1 X59.234 Y128.457 E15.61704
G1 X58.708 Y127.592 E15.65044
G1 X58.259 Y126.683 E15.68384
G1 X57.891 Y125.739 E15.71724
G1 X57.607 Y124.766 E15.75065
G1 X57.408 Y123.773 E15.78405
G1 X57.341 Y123.264 E15.80097
G1 X57.297 Y122.765 E15.81746
G1 X57.269 Y121.997 E15.84279
G1 X57.269 Y103.997 E16.43614
G1 X57.666 Y101.924 E16.50571
G1 X58.799 Y100.144 E16.57528
G1 X59.793 Y99.319 E16.61786
G1 F1200.000 E15.41786
G92 E0
G1 X130.603 Y124.234 F9000.000
G1 E1.20000 F1200.000
M204 S800
G1 X130.310 Y124.459 E1.21215 F1500.000
G1 X130.000 Y124.657 E1.22430
G1 X129.673 Y124.827 E1.23645
G1 X129.332 Y124.968 E1.24860
G1 X128.981 Y125.079 E1.26075
G1 X128.621 Y125.158 E1.27290
G1 X128.255 Y125.207 E1.28505
G1 X127.866 Y125.222 E1.29789
G1 X127.519 Y125.207 E1.30935
G1 X127.153 Y125.158 E1.32150
G1 X126.793 Y125.079 E1.33366
G1 X126.423 Y124.960 E1.34649
G1 X126.101 Y124.827 E1.35795
G1 X125.774 Y124.657 E1.37010
G1 X125.447 Y124.446 E1.38294
G1 X125.171 Y124.234 E1.39440
G1 X124.899 Y123.985 E1.40655
G1 X124.650 Y123.713 E1.41871
G1 X124.426 Y123.421 E1.43086
G1 X124.228 Y123.110 E1.44301
G1 X124.057 Y122.783 E1.45516
G1 X123.916 Y122.443 E1.46731
G1 X123.806 Y122.091 E1.47946
G1 X123.726 Y121.731 E1.49161
G1 X123.678 Y121.366 E1.50376
G1 X123.663 Y120.977 E1.51660
G1 X123.678 Y120.629 E1.52806
G1 X123.726 Y120.264 E1.54021
G1 X123.806 Y119.904 E1.55236
G1 X123.916 Y119.552 E1.56451
G1 X124.057 Y119.212 E1.57666
G1 X124.228 Y118.884 E1.58883
G1 X124.426 Y118.573 E1.60100
G1 X124.650 Y118.281 E1.61312
G1 X124.888 Y118.022 E1.62470
G1 X125.171 Y117.761 E1.63742
G1 X125.463 Y117.536 E1.64956
G1 X125.774 Y117.338 E1.66171
G1 X126.101 Y117.168 E1.67387
G1 X126.441 Y117.027 E1.68600
G1 X126.793 Y116.916 E1.69816
G1 X127.153 Y116.836 E1.71032
G1 X127.519 Y116.788 E1.72247
G1 X127.907 Y116.773 E1.73528
M204 S800
M204 S800
G1 X128.255 Y116.788 E1.74677 F1500.000
G1 X128.621 Y116.836 E1.75892
G1 X128.981 Y116.916 E1.77108
G1 X129.332 Y117.027 E1.78322
G1 X129.673 Y117.168 E1.79538
G1 X130.000 Y117.338 E1.80754
G1 X130.310 Y117.536 E1.81967
G1 X130.603 Y117.761 E1.83183
G1 X130.874 Y118.009 E1.84397
G1 X131.135 Y118.296 E1.85671
G1 X131.348 Y118.574 E1.86829
G1 X131.546 Y118.884 E1.88039
G1 X131.716 Y119.212 E1.89258
G1 X131.857 Y119.552 E1.90473
G1 X131.968 Y119.904 E1.91688
G1 X132.048 Y120.264 E1.92903
G1 X132.096 Y120.629 E1.94118
G1 X132.112 Y120.997 E1.95333
G1 X132.096 Y121.366 E1.96548
G1 X132.048 Y121.731 E1.97763
G1 X131.968 Y122.091 E1.98979
G1 X131.849 Y122.462 E2.00262
G1 X131.716 Y122.783 E2.01408
G1 X131.546 Y123.110 E2.02623
G1 X131.348 Y123.421 E2.03838
G1 X131.124 Y123.713 E2.05054
G1 X130.875 Y123.985 E2.06269
G1 X130.658 Y124.183 E2.07237
M204 S800
G1 F1200.000 E0.87237
G92 E0
G1 X127.872 Y116.426 F9000.000
G1 X114.830 Y114.565 F9000.000
G1 E1.20000 F1200.000
M204 S800
G1 X82.944 Y114.565 E2.25107 F1500.000
G1 X82.944 Y103.430 E2.61814
G1 X114.830 Y103.430 E3.66921
G1 X114.830 Y114.490 E4.03381
M204 S800
G1 X114.212 Y113.947 F9000.000
M204 S800
G1 X83.562 Y113.947 E5.04415 F1500.000
G1 X83.562 Y104.047 E5.37050
G1 X114.212 Y104.047 E6.38084
G1 X114.212 Y113.872 E6.70470
M204 S800
G1 X114.212 Y114.447 F9000.000
G1 F1200.000 E5.50470
G92 E0
G1 X101.000 Y91.657 F9000.000
G1 E1.20000 F1200.000
M204 S800
G1 X100.673 Y91.827 E1.21215 F1500.000
G1 X100.312 Y91.974 E1.22498
G1 X99.980 Y92.079 E1.23645
G1 X99.621 Y92.158 E1.24860
G1 X99.255 Y92.207 E1.26075
G1 X98.887 Y92.223 E1.27290
G1 X98.519 Y92.207 E1.28505
G1 X98.153 Y92.158 E1.29720
G1 X97.793 Y92.079 E1.30936
G1 X97.423 Y91.960 E1.32218
G1 X97.101 Y91.827 E1.33365
G1 X96.774 Y91.657 E1.34580
G1 X96.463 Y91.459 E1.35795
G1 X96.171 Y91.234 E1.37011
G1 X95.899 Y90.985 E1.38226
G1 X95.650 Y90.713 E1.39441
G1 X95.426 Y90.421 E1.40656
G1 X95.228 Y90.110 E1.41871
G1 X95.057 Y89.783 E1.43086
G1 X94.916 Y89.443 E1.44301
G1 X94.806 Y89.091 E1.45516
G1 X94.726 Y88.731 E1.46731
G1 X94.678 Y88.366 E1.47946
G1 X94.662 Y87.997 E1.49161
G1 X94.678 Y87.629 E1.50377
G1 X94.726 Y87.264 E1.51592
G1 X94.806 Y86.904 E1.52807
G1 X94.916 Y86.552 E1.54021
G1 X95.057 Y86.212 E1.55237
G1 X95.239 Y85.867 E1.56520
G1 X95.426 Y85.574 E1.57667
G1 X95.650 Y85.281 E1.58882
G1 X95.899 Y85.010 E1.60097
G1 X96.171 Y84.761 E1.61312
G1 X96.463 Y84.536 E1.62527
G1 X96.774 Y84.338 E1.63742
G1 X97.101 Y84.168 E1.64957
G1 X97.442 Y84.027 E1.66173
G1 X97.793 Y83.916 E1.67388
G1 X98.153 Y83.836 E1.68602
G1 X98.519 Y83.788 E1.69818
G1 X98.908 Y83.773 E1.71101
M204 S800
M204 S800
G1 X99.255 Y83.788 E1.72248 F1500.000
G1 X99.620 Y83.836 E1.73462
G1 X99.980 Y83.916 E1.74677
G1 X100.332 Y84.027 E1.75892
G1 X100.673 Y84.168 E1.77108
G1 X101.000 Y84.338 E1.78323
G1 X101.311 Y84.536 E1.79538
G1 X101.603 Y84.761 E1.80753
G1 X101.889 Y85.025 E1.82036
G1 X102.124 Y85.281 E1.83183
G1 X102.348 Y85.574 E1.84398
G1 X102.546 Y85.885 E1.85613
G1 X102.716 Y86.212 E1.86828
G1 X102.857 Y86.552 E1.88043
G1 X102.968 Y86.904 E1.89258
G1 X103.048 Y87.264 E1.90473
G1 X103.096 Y87.629 E1.91688
G1 X103.111 Y88.018 E1.92972
G1 X103.096 Y88.366 E1.94118
G1 X103.048 Y88.731 E1.95333
G1 X102.968 Y89.091 E1.96549
G1 X102.857 Y89.442 E1.97763
G1 X102.716 Y89.783 E1.98979
G1 X102.546 Y90.110 E2.00194
G1 X102.348 Y90.421 E2.01409
G1 X102.124 Y90.713 E2.02624
G1 X101.875 Y90.985 E2.03839
G1 X101.603 Y91.234 E2.05054
G1 X101.310 Y91.459 E2.06269
G1 X101.063 Y91.616 E2.07237
M204 S800
G1 F1200.000 E0.87237
G92 E0
G1 X98.883 Y83.426 F9000.000
G1 X73.311 Y117.571 F9000.000
G1 E1.20000 F1200.000
M204 S800
G1 X73.597 Y117.883 E1.21395 F1500.000
G1 X73.855 Y118.220 E1.22793
G1 X74.080 Y118.573 E1.24175
G1 X74.277 Y118.951 E1.25578
G1 X74.439 Y119.341 E1.26971
G1 X74.565 Y119.743 E1.28361
G1 X74.657 Y120.156 E1.29756
G1 X74.712 Y120.575 E1.31149
G1 X74.731 Y120.997 E1.32541
G1 X74.712 Y121.419 E1.33934
G1 X74.657 Y121.839 E1.35329
G1 X74.566 Y122.251 E1.36719
G1 X74.439 Y122.654 E1.38112
G1 X74.277 Y123.044 E1.39506
G1 X74.082 Y123.419 E1.40899
G1 X73.854 Y123.776 E1.42293
G1 X73.598 Y124.111 E1.43683
G1 X73.312 Y124.422 E1.45077
G1 X73.000 Y124.708 E1.46471
G1 X72.665 Y124.965 E1.47864
G1 X72.309 Y125.192 E1.49256
G1 X71.934 Y125.387 E1.50650
G1 X71.544 Y125.549 E1.52041
G1 X71.140 Y125.676 E1.53435
G1 X70.728 Y125.767 E1.54828
G1 X70.309 Y125.823 E1.56221
G1 X69.887 Y125.841 E1.57613
G1 X69.465 Y125.823 E1.59007
G1 X69.046 Y125.767 E1.60399
G1 X68.633 Y125.676 E1.61794
G1 X68.231 Y125.549 E1.63185
G1 X67.840 Y125.387 E1.64578
G1 X67.465 Y125.192 E1.65970
G1 X67.109 Y124.965 E1.67364
G1 X66.773 Y124.708 E1.68757
G1 X66.462 Y124.422 E1.70151
G1 X66.177 Y124.111 E1.71542
G1 X65.919 Y123.776 E1.72936
G1 X65.692 Y123.419 E1.74329
G1 X65.497 Y123.044 E1.75723
G1 X65.335 Y122.654 E1.77116
G1 X65.208 Y122.251 E1.78509
G1 X65.117 Y121.838 E1.79901
G1 X65.062 Y121.419 E1.81293
G1 X65.043 Y120.997 E1.82686
G1 X65.062 Y120.575 E1.84079
G1 X65.117 Y120.157 E1.85470
G1 X65.208 Y119.744 E1.86864
G1 X65.335 Y119.341 E1.88257
G1 X65.497 Y118.950 E1.89651
G1 X65.692 Y118.575 E1.91045
G1 X65.922 Y118.216 E1.92450
G1 X66.177 Y117.883 E1.93831
G1 X66.462 Y117.572 E1.95224
G1 X66.774 Y117.287 E1.96616
G1 X67.108 Y117.030 E1.98007
G1 X67.465 Y116.803 E1.99402
G1 X67.840 Y116.608 E2.00793
G1 X68.230 Y116.446 E2.02186
G1 X68.633 Y116.319 E2.03578
G1 X69.046 Y116.227 E2.04974
G1 X69.465 Y116.172 E2.06366
G1 X69.934 Y116.156 E2.07913
M204 S800
M204 S800
G1 X70.309 Y116.172 E2.09150 F1500.000
G1 X70.728 Y116.227 E2.10545
G1 X71.141 Y116.319 E2.11939
G1 X71.543 Y116.446 E2.13327
G1 X71.934 Y116.608 E2.14724
G1 X72.309 Y116.802 E2.16115
G1 X72.665 Y117.029 E2.17507
G1 X73.000 Y117.287 E2.18902
G1 X73.256 Y117.521 E2.20042
M204 S800
G1 X72.874 Y118.009 F9000.000
M204 S800
G1 X73.134 Y118.295 E2.21317 F1500.000
G1 X73.348 Y118.574 E2.22475
G1 X73.546 Y118.884 E2.23685
G1 X73.716 Y119.212 E2.24904
G1 X73.857 Y119.552 E2.26120
G1 X73.968 Y119.904 E2.27334
G1 X74.048 Y120.264 E2.28549
G1 X74.096 Y120.629 E2.29764
G1 X74.112 Y120.997 E2.30979
G1 X74.096 Y121.366 E2.32195
G1 X74.048 Y121.731 E2.33410
G1 X73.968 Y122.091 E2.34624
G1 X73.857 Y122.442 E2.35840
G1 X73.716 Y122.783 E2.37055
G1 X73.546 Y123.110 E2.38270
G1 X73.348 Y123.421 E2.39485
G1 X73.124 Y123.713 E2.40700
G1 X72.875 Y123.985 E2.41915
G1 X72.603 Y124.234 E2.43131
G1 X72.310 Y124.459 E2.44346
G1 X72.000 Y124.657 E2.45561
G1 X71.673 Y124.827 E2.46776
G1 X71.332 Y124.968 E2.47990
G1 X70.980 Y125.079 E2.49206
G1 X70.621 Y125.158 E2.50421
G1 X70.255 Y125.207 E2.51636
G1 X69.887 Y125.223 E2.52851
G1 X69.519 Y125.207 E2.54066
G1 X69.153 Y125.158 E2.55281
G1 X68.793 Y125.079 E2.56497
G1 X68.442 Y124.968 E2.57711
G1 X68.101 Y124.827 E2.58926
G1 X67.774 Y124.657 E2.60141
G1 X67.463 Y124.459 E2.61356
G1 X67.171 Y124.234 E2.62572
G1 X66.899 Y123.985 E2.63787
G1 X66.650 Y123.713 E2.65002
G1 X66.426 Y123.421 E2.66217
G1 X66.228 Y123.110 E2.67432
G1 X66.057 Y122.783 E2.68647
G1 X65.916 Y122.442 E2.69863
G1 X65.806 Y122.091 E2.71078
G1 X65.726 Y121.731 E2.72292
G1 X65.678 Y121.366 E2.73507
G1 X65.662 Y120.997 E2.74722
G1 X65.678 Y120.629 E2.75938
G1 X65.726 Y120.264 E2.77152
G1 X65.806 Y119.904 E2.78367
G1 X65.916 Y119.552 E2.79583
G1 X66.057 Y119.212 E2.80798
G1 X66.228 Y118.884 E2.82014
G1 X66.427 Y118.573 E2.83233
G1 X66.650 Y118.281 E2.84444
G1 X66.899 Y118.009 E2.85659
G1 X67.171 Y117.761 E2.86874
G1 X67.463 Y117.536 E2.88088
G1 X67.774 Y117.338 E2.89304
G1 X68.101 Y117.168 E2.90518
G1 X68.442 Y117.027 E2.91733
G1 X68.793 Y116.916 E2.92948
G1 X69.153 Y116.836 E2.94164
G1 X69.538 Y116.787 E2.95442
M204 S800
M204 S800
G1 X69.887 Y116.772 E2.96593 F1500.000
G1 X70.255 Y116.788 E2.97808
G1 X70.621 Y116.836 E2.99024
G1 X70.981 Y116.916 E3.00240
G1 X71.332 Y117.027 E3.01453
G1 X71.673 Y117.168 E3.02669
G1 X72.000 Y117.338 E3.03884
G1 X72.310 Y117.536 E3.05099
G1 X72.603 Y117.761 E3.06314
G1 X72.819 Y117.959 E3.07280
M204 S800
G1 F1200.000 E1.87280
G92 E0
G1 X69.386 Y116.473 F9000.000
G1 X63.830 Y104.940 F9000.000
G1 E1.20000 F1200.000
M204 S800
G1 X65.285 Y104.940 E1.24798 F1500.000
G1 X65.619 Y105.439 E1.26777
G1 X65.823 Y105.679 E1.27816
G1 X66.035 Y105.888 E1.28796
G1 X66.322 Y106.131 E1.30037
G1 X66.588 Y106.317 E1.31108
G1 X66.866 Y106.480 E1.32169
G1 X67.436 Y106.727 E1.34217
G1 X67.754 Y106.822 E1.35310
G1 X68.071 Y106.888 E1.36379
G1 X68.419 Y106.929 E1.37533
G1 X69.240 Y106.940 E1.40240
G1 X94.480 Y85.122 E2.50216
G1 X94.803 Y85.401 E2.51624
G1 X94.497 Y85.950 E2.53696
G1 X94.335 Y86.341 E2.55090
G1 X94.208 Y86.744 E2.56482
G1 X94.117 Y87.156 E2.57875
G1 X94.062 Y87.575 E2.59268
G1 X94.043 Y87.997 E2.60661
G1 X94.062 Y88.419 E2.62054
G1 X94.117 Y88.838 E2.63446
G1 X94.208 Y89.251 E2.64840
G1 X94.335 Y89.654 E2.66233
G1 X94.497 Y90.044 E2.67624
G1 X94.692 Y90.419 E2.69018
G1 X94.919 Y90.776 E2.70411
G1 X95.176 Y91.111 E2.71803
G1 X95.462 Y91.422 E2.73197
G1 X95.773 Y91.708 E2.74590
G1 X96.109 Y91.965 E2.75983
G1 X96.465 Y92.192 E2.77376
G1 X96.840 Y92.387 E2.78769
G1 X97.231 Y92.549 E2.80163
G1 X97.633 Y92.676 E2.81554
G1 X97.999 Y92.757 E2.82790
G1 X98.465 Y92.823 E2.84340
G1 X98.887 Y92.841 E2.85733
G1 X99.309 Y92.823 E2.87125
G1 X99.728 Y92.767 E2.88518
G1 X100.141 Y92.676 E2.89911
G1 X100.544 Y92.549 E2.91305
G1 X100.934 Y92.387 E2.92696
G1 X101.309 Y92.192 E2.94090
G1 X101.665 Y91.965 E2.95483
G1 X102.000 Y91.708 E2.96875
