;Generated by Cura 2 GCodeWriter Version: 2.6.24
;FLAVOR:RepRap
;TIME:3190
;Filament used: 2.57565m
;Layer height: 0.38
;Generated with Cura_SteamEngine 2.6.24
;This G-Code has been generated specifically for the LulzBot TAZ 6 with standard extruder
G26                                 ; clear potential 'probe fail' condition
G21                                 ; set units to Millimetres
M107                                ; disable fans
G90                                 ; absolute positioning
M82                                 ; set extruder to absolute mode
G92 E0                              ; set extruder position to 0
M140 S110    ; start bed heating up
G28 XY                              ; home X and Y
G1 X-19 Y258 F1000                  ; move to safe homing position
M109 R170 ; soften filament before homing Z
G28 Z                               ; home Z
M109 R170   ; wait for extruder to reach wiping temp
G1 E-30 F100                        ; retract filament
G1 X-15 Y100 F3000                  ; move above wiper pad
G1 Z1                               ; push nozzle into wiper
G1 X-17 Y95 F1000                   ; slow wipe
G1 X-17 Y90 F1000                   ; slow wipe
G1 X-17 Y85 F1000                   ; slow wipe
G1 X-15 Y90 F1000                   ; slow wipe
G1 X-17 Y80 F1000                   ; slow wipe
G1 X-15 Y95 F1000                   ; slow wipe
G1 X-17 Y75 F2000                   ; fast wipe
G1 X-15 Y65 F2000                   ; fast wipe
G1 X-17 Y70 F2000                   ; fast wipe
G1 X-15 Y60 F2000                   ; fast wipe
G1 X-17 Y55 F2000                   ; fast wipe
G1 X-15 Y50 F2000                   ; fast wipe
G1 X-17 Y40 F2000                   ; fast wipe
G1 X-15 Y45 F2000                   ; fast wipe
G1 X-17 Y35 F2000                   ; fast wipe
G1 X-15 Y40 F2000                   ; fast wipe
G1 X-17 Y70 F2000                   ; fast wipe
G1 X-15 Y30 Z2 F2000                ; fast wipe
G1 X-17 Y35 F2000                   ; fast wipe
G1 X-15 Y25 F2000                   ; fast wipe
G1 X-17 Y30 F2000                   ; fast wipe
G1 X-15 Y25 Z1.5 F1000              ; slow wipe
G1 X-17 Y23 F1000                   ; slow wipe
G1 Z10                              ; raise extruder
M109 R170  ; wait for extruder to reach probe temp
G1 X-9 Y-9                          ; move above first probe point
M204 S100                           ; set probing acceleration
G29                                 ; start auto-leveling sequence
M204 S500                           ; restore standard acceleration
G1 X0 Y0 Z15 F5000                  ; move up off last probe point
G4 S1                               ; pause
M400                                ; wait for moves to finish
M117 Heating...                     ; progress indicator message on LCD
M109 R240  ; wait for extruder to reach printing temp
M190 S110    ; wait for bed to reach printing temp
G1 Z2 E0 F75                        ; prime tiny bit of filment into the nozzle
M117 TAZ 6 Printing...              ; progress indicator message on LCD

;LAYER_COUNT:26
;LAYER:0
M107
G0 F2625 X82.042 Y143.929 Z0.425
;TYPE:SKIRT
G1 F900 X82.848 Y143.472 E0.03086
G1 X83.582 Y143.131 E0.05782
G1 X84.794 Y142.622 E0.10161
G1 X85.663 Y142.3 E0.13248
G1 X86.984 Y141.965 E0.17788
G1 X91.053 Y141.206 E0.31575
G1 X95.961 Y140.038 E0.48381
G1 X100.848 Y138.583 E0.65366
G1 X105.559 Y136.881 E0.82051
G1 X110.224 Y134.892 E0.98944
G1 X114.915 Y132.568 E1.16382
G1 X119.755 Y129.952 E1.34709
G1 X124.176 Y127.27 E1.51933
G1 X126.183 Y125.934 E1.59964
G1 X186.707 Y82.761 E4.07607
G1 X187.485 Y82.256 E4.10697
G1 X188.258 Y81.841 E4.1362
G1 X189.365 Y81.304 E4.17718
G1 X190.216 Y80.936 E4.20806
G1 X191.095 Y80.642 E4.23894
G1 X192.103 Y80.405 E4.27343
G1 X193.477 Y80.151 E4.31997
G1 X194.395 Y80.022 E4.35085
G1 X195.321 Y79.973 E4.38174
G1 X196.441 Y80.02 E4.41908
G1 X197.818 Y80.15 E4.46516
G1 X198.737 Y80.276 E4.49605
G1 X199.641 Y80.482 E4.52694
G1 X200.924 Y80.921 E4.57211
G1 X202.386 Y81.527 E4.62483
G1 X203.227 Y81.919 E4.65573
G1 X204.03 Y82.381 E4.68659
G1 X204.783 Y82.906 E4.71717
G1 X205.731 Y83.628 E4.75686
G1 X206.444 Y84.221 E4.78775
G1 X207.303 Y85.095 E4.82858
G1 X210.472 Y88.711 E4.98874
G1 X211.102 Y89.503 E5.02245
G1 X211.832 Y90.514 E5.06398
G1 X212.342 Y91.288 E5.09486
G1 X212.784 Y92.104 E5.12577
G1 X213.153 Y92.954 E5.15664
G1 X213.497 Y94.012 E5.1937
G1 X213.64 Y94.543 E5.21202
G1 X213.842 Y95.447 E5.24287
G1 X213.966 Y96.366 E5.27376
G1 X214.01 Y97.421 E5.30893
G1 X214.005 Y98.072 E5.33062
G1 X213.958 Y98.998 E5.3615
G1 X213.831 Y99.916 E5.39237
G1 X213.626 Y100.82 E5.42325
G1 X213.486 Y101.29 E5.43959
G1 X213.315 Y101.82 E5.45814
G1 X212.992 Y102.689 E5.48902
G1 X212.596 Y103.527 E5.51989
G1 X211.999 Y104.526 E5.55866
G1 X211.592 Y105.13 E5.58292
G1 X211.041 Y105.876 E5.61381
G1 X210.428 Y106.572 E5.64471
G1 X209.942 Y107.047 E5.66734
G1 X206.995 Y109.749 E5.80053
G1 X206.285 Y110.345 E5.8314
G1 X205.711 Y110.758 E5.85496
G1 X204.891 Y111.307 E5.88783
G1 X203.738 Y111.979 E5.93228
G1 X199.554 Y114.082 E6.08827
G1 X195.171 Y116.594 E6.25655
G1 X190.937 Y119.35 E6.42483
G1 X186.882 Y122.328 E6.59242
G1 X182.613 Y125.865 E6.77709
G1 X138.265 Y164.945 E8.74606
G1 X134.604 Y168.553 E8.91728
G1 X132.999 Y170.276 E8.99572
G1 X129.663 Y174.175 E9.16664
G1 X126.587 Y178.212 E9.33571
G1 X123.239 Y183.118 E9.53355
G1 X122.684 Y183.861 E9.56445
G1 X121.958 Y184.663 E9.60048
G1 X111.063 Y195.549 E10.11351
G1 X110.38 Y196.175 E10.14437
G1 X109.95 Y196.518 E10.16269
G1 X109.084 Y197.173 E10.19886
G1 X108.321 Y197.7 E10.22975
G1 X107.515 Y198.159 E10.26065
G1 X106.761 Y198.511 E10.28837
G1 X105.575 Y199.009 E10.33121
G1 X104.705 Y199.33 E10.3621
G1 X103.811 Y199.576 E10.39299
G1 X102.871 Y199.748 E10.42482
G1 X101.571 Y199.926 E10.46853
G1 X100.648 Y200.012 E10.49941
G1 X99.721 Y200.018 E10.53029
G1 X98.769 Y199.941 E10.5621
G1 X97.483 Y199.779 E10.60528
G1 X96.569 Y199.623 E10.63616
G1 X95.672 Y199.39 E10.66703
G1 X94.758 Y199.063 E10.69937
G1 X93.545 Y198.567 E10.74302
G1 X92.703 Y198.18 E10.77389
G1 X91.897 Y197.721 E10.80479
G1 X90.969 Y197.067 E10.8426
G1 X89.771 Y196.125 E10.89337
G1 X88.813 Y195.275 E10.93603
G1 X70.562 Y177.016 E11.79599
G1 X69.935 Y176.332 E11.82689
G1 X69.635 Y175.959 E11.84284
G1 X68.871 Y174.963 E11.88465
G1 X68.339 Y174.204 E11.91553
G1 X67.875 Y173.401 E11.94642
G1 X67.491 Y172.585 E11.97646
G1 X66.985 Y171.381 E12.01996
G1 X66.663 Y170.512 E12.05083
G1 X66.417 Y169.618 E12.08172
G1 X66.243 Y168.668 E12.11389
G1 X66.068 Y167.384 E12.15706
G1 X65.983 Y166.461 E12.18793
G1 X65.977 Y165.533 E12.21885
G1 X66.053 Y164.601 E12.24999
G1 X66.215 Y163.303 E12.29357
G1 X66.369 Y162.388 E12.32447
G1 X66.602 Y161.491 E12.35535
G1 X66.931 Y160.566 E12.38805
G1 X67.422 Y159.365 E12.43127
G1 X67.81 Y158.523 E12.46215
G1 X68.269 Y157.717 E12.49305
G1 X68.931 Y156.778 E12.53132
G1 X69.918 Y155.526 E12.58442
G1 X70.784 Y154.554 E12.62779
G1 X79.407 Y145.988 E13.03266
G1 X80.092 Y145.364 E13.06352
G1 X80.517 Y145.027 E13.08159
G1 X81.278 Y144.454 E13.11332
G1 X82.042 Y143.929 E13.1442
G0 F2625 X82.325 Y144.342
G1 F900 X83.114 Y143.897 E13.17438
G1 X83.775 Y143.592 E13.19862
G1 X84.987 Y143.083 E13.24241
G1 X85.836 Y142.769 E13.27257
G1 X87.075 Y142.457 E13.31513
G1 X91.143 Y141.698 E13.45297
G1 X96.094 Y140.52 E13.62249
G1 X101.003 Y139.059 E13.7931
G1 X105.752 Y137.343 E13.9613
G1 X110.426 Y135.35 E14.13056
G1 X115.151 Y133.009 E14.30621
G1 X120.014 Y130.381 E14.49034
G1 X124.436 Y127.699 E14.66261
G1 X126.466 Y126.346 E14.74387
G1 X186.998 Y83.168 E17.22062
G1 X187.757 Y82.676 E17.25075
G1 X188.476 Y82.291 E17.27792
G1 X189.583 Y81.754 E17.3189
G1 X190.415 Y81.395 E17.34909
G1 X191.274 Y81.111 E17.37922
G1 X192.194 Y80.897 E17.41069
G1 X193.568 Y80.643 E17.45723
G1 X194.464 Y80.518 E17.48737
G1 X195.369 Y80.472 E17.51755
G1 X196.394 Y80.517 E17.55173
G1 X197.771 Y80.647 E17.5978
G1 X198.668 Y80.772 E17.62797
G1 X199.55 Y80.976 E17.65812
G1 X200.733 Y81.383 E17.6998
G1 X202.195 Y81.989 E17.75251
G1 X203.015 Y82.372 E17.78266
G1 X203.798 Y82.827 E17.81283
G1 X204.48 Y83.304 E17.84055
G1 X205.428 Y84.026 E17.88024
G1 X206.124 Y84.605 E17.9104
G1 X206.927 Y85.424 E17.94861
G1 X210.096 Y89.04 E18.10877
G1 X210.697 Y89.796 E18.14094
G1 X211.427 Y90.807 E18.18248
G1 X211.924 Y91.563 E18.21261
G1 X212.352 Y92.361 E18.24278
G1 X212.709 Y93.193 E18.27293
G1 X213.014 Y94.142 E18.30614
G1 X213.157 Y94.673 E18.32446
G1 X213.354 Y95.556 E18.35459
G1 X213.472 Y96.454 E18.38476
G1 X213.51 Y97.417 E18.41687
G1 X213.505 Y98.068 E18.43855
G1 X213.458 Y98.972 E18.4687
G1 X213.331 Y99.868 E18.49885
G1 X213.01 Y101.136 E18.54242
G1 X212.839 Y101.666 E18.56097
G1 X212.523 Y102.515 E18.59114
G1 X212.134 Y103.332 E18.62129
G1 X211.584 Y104.247 E18.65685
G1 X211.177 Y104.851 E18.68111
G1 X210.639 Y105.579 E18.71126
G1 X210.038 Y106.256 E18.74142
G1 X209.604 Y106.678 E18.76158
G1 X206.657 Y109.38 E18.89476
G1 X205.963 Y109.962 E18.92493
G1 X205.432 Y110.342 E18.94668
G1 X204.612 Y110.891 E18.97956
G1 X203.514 Y111.532 E19.02191
G1 X199.311 Y113.645 E19.17861
G1 X194.914 Y116.164 E19.34741
G1 X190.654 Y118.937 E19.51672
G1 X186.575 Y121.934 E19.68533
G1 X182.299 Y125.475 E19.87026
G1 X137.919 Y164.584 E21.84067
G1 X134.252 Y168.198 E22.01218
G1 X132.619 Y169.952 E22.092
G1 X129.272 Y173.863 E22.26347
G1 X126.183 Y177.918 E22.43328
G1 X122.826 Y182.836 E22.63162
G1 X122.283 Y183.561 E22.66179
G1 X121.605 Y184.309 E22.69542
G1 X110.71 Y195.195 E23.20845
G1 X110.042 Y195.806 E23.23861
G1 X109.648 Y196.119 E23.25537
G1 X108.782 Y196.774 E23.29154
G1 X108.037 Y197.288 E23.32169
G1 X107.249 Y197.734 E23.35185
G1 X106.567 Y198.05 E23.37689
G1 X105.381 Y198.548 E23.41973
G1 X104.532 Y198.861 E23.44988
G1 X103.658 Y199.098 E23.48004
G1 X102.803 Y199.252 E23.50898
G1 X101.503 Y199.43 E23.55269
G1 X100.602 Y199.513 E23.58283
G1 X99.697 Y199.517 E23.61297
G1 X98.832 Y199.445 E23.64189
G1 X97.546 Y199.283 E23.68506
G1 X96.654 Y199.13 E23.71521
G1 X95.778 Y198.899 E23.74539
G1 X94.948 Y198.6 E23.77477
G1 X93.735 Y198.104 E23.81842
G1 X92.913 Y197.725 E23.84858
G1 X92.127 Y197.275 E23.87875
G1 X91.278 Y196.674 E23.91339
G1 X90.08 Y195.732 E23.96416
G1 X89.167 Y194.921 E24.00484
G1 X70.916 Y176.662 E24.86479
G1 X70.032 Y175.654 E24.90945
G1 X69.268 Y174.658 E24.95127
G1 X68.749 Y173.917 E24.9814
G1 X68.298 Y173.132 E25.01156
G1 X67.952 Y172.391 E25.0388
G1 X67.446 Y171.187 E25.0823
G1 X67.132 Y170.338 E25.11246
G1 X66.895 Y169.464 E25.14262
G1 X66.739 Y168.6 E25.17187
G1 X66.564 Y167.316 E25.21503
G1 X66.481 Y166.415 E25.24517
G1 X66.479 Y165.509 E25.27535
G1 X66.549 Y164.663 E25.30363
G1 X66.711 Y163.365 E25.3472
G1 X66.863 Y162.472 E25.37737
G1 X67.092 Y161.596 E25.40754
G1 X67.394 Y160.755 E25.4373
G1 X67.885 Y159.554 E25.48052
G1 X68.265 Y158.732 E25.51069
G1 X68.715 Y157.947 E25.54083
G1 X69.324 Y157.087 E25.57593
G1 X70.311 Y155.835 E25.62903
G1 X71.136 Y154.909 E25.67035
G1 X79.759 Y146.343 E26.07522
G1 X80.429 Y145.734 E26.10538
G1 X80.818 Y145.427 E26.12188
G1 X81.579 Y144.854 E26.15362
G1 X82.325 Y144.342 E26.18375
G1 F600 E25.18375
G0 F2625 X87.274 Y152.554
G0 X88.147 Y153.69
G0 X88.39 Y154.11
;TYPE:WALL-INNER
G1 F600 E26.18375
G1 F900 X89.291 Y153.738 E26.21622
G1 X90.262 Y153.609 E26.24885
G1 X91.233 Y153.738 E26.28148
G1 X92.131 Y154.109 E26.31385
G1 X92.968 Y154.751 E26.34898
G1 X94.982 Y156.764 E26.44384
G1 X129.106 Y138.613 E27.73132
G1 X193.435 Y92.663 E30.36465
G1 X194.45 Y92.164 E30.40233
G1 X195.487 Y91.974 E30.43745
G1 X196.544 Y92.075 E30.47282
G1 X197.526 Y92.456 E30.5079
G1 X198.405 Y93.121 E30.54462
G1 X201.813 Y97.04 E30.71762
G1 X201.976 Y97.316 E30.72829
G1 X202.036 Y97.561 E30.7367
G1 X202.023 Y97.805 E30.74484
G1 X201.939 Y98.038 E30.75309
G1 X201.755 Y98.285 E30.76335
G1 X198.835 Y100.959 E30.89523
G1 X198.623 Y101.12 E30.9041
G1 X198.467 Y101.182 E30.90969
G1 X198.298 Y101.198 E30.91535
G1 X198.14 Y101.171 E30.92069
G1 X197.995 Y101.101 E30.92605
G1 X197.76 Y100.894 E30.93648
G1 X195.472 Y98.564 E31.04526
G1 X111.264 Y172.671 E34.78179
G1 X111.065 Y172.846 E34.79062
G1 X111.253 Y173.034 E34.79624
G1 X113.367 Y175.149 E34.89585
G1 X113.528 Y175.358 E34.90464
G1 X113.602 Y175.538 E34.91112
G1 X113.628 Y175.732 E34.91764
G1 X113.602 Y175.927 E34.92419
G1 X113.529 Y176.104 E34.93057
G1 X113.373 Y176.307 E34.9391
G1 X102.79 Y186.891 E35.43767
G1 X101.963 Y187.525 E35.47238
G1 X101.062 Y187.898 E35.50486
G1 X100.091 Y188.026 E35.53748
G1 X99.12 Y187.898 E35.57011
G1 X98.219 Y187.525 E35.60259
G1 X97.417 Y186.91 E35.63626
G1 X79.107 Y168.605 E36.49869
G1 X78.467 Y167.771 E36.5337
G1 X78.097 Y166.874 E36.56603
G1 X77.968 Y165.903 E36.59865
G1 X78.097 Y164.932 E36.63128
G1 X78.469 Y164.031 E36.66375
G1 X79.102 Y163.207 E36.69836
G1 X87.566 Y154.743 E37.09709
G1 X88.39 Y154.11 E37.1317
G0 F2625 X87.497 Y160.231
G1 F900 X86.434 Y160.331 E37.16726
G1 X85.429 Y160.694 E37.20286
G1 X84.546 Y161.294 E37.23842
G1 X83.84 Y162.095 E37.27398
G1 X83.355 Y163.046 E37.30954
G1 X83.121 Y164.089 E37.34515
G1 X83.155 Y165.155 E37.38068
G1 X83.455 Y166.181 E37.41628
G1 X83.998 Y167.1 E37.45184
G1 X84.752 Y167.855 E37.48738
G1 X85.672 Y168.397 E37.52295
G1 X86.696 Y168.697 E37.5585
G1 X87.763 Y168.731 E37.59406
G1 X88.806 Y168.497 E37.62966
G1 X89.757 Y168.012 E37.66522
G1 X90.558 Y167.306 E37.70079
G1 X91.158 Y166.423 E37.73635
G1 X91.521 Y165.419 E37.77191
G1 X91.622 Y164.355 E37.80751
G1 X91.454 Y163.3 E37.8431
G1 X91.03 Y162.32 E37.87867
G1 X90.374 Y161.478 E37.91422
G1 X89.532 Y160.822 E37.94978
G1 X88.552 Y160.398 E37.98535
G1 X87.497 Y160.231 E38.02093
G0 F2625 X89.295 Y161.222
G0 X90.046 Y161.806
G0 X90.63 Y162.557
G0 X97.274 Y174.022
G1 F900 X96.568 Y174.823 E38.05649
G1 X96.083 Y175.774 E38.09205
G1 X95.849 Y176.817 E38.12766
G1 X95.883 Y177.883 E38.16318
G1 X96.183 Y178.909 E38.19879
G1 X96.726 Y179.828 E38.23435
G1 X97.48 Y180.583 E38.26989
G1 X98.4 Y181.125 E38.30546
G1 X99.424 Y181.425 E38.341
G1 X100.491 Y181.459 E38.37656
G1 X101.534 Y181.225 E38.41217
G1 X102.485 Y180.74 E38.44773
G1 X103.286 Y180.034 E38.4833
G1 X103.886 Y179.151 E38.51886
G1 X104.249 Y178.146 E38.55445
G1 X104.35 Y177.083 E38.59002
G1 X104.182 Y176.028 E38.6256
G1 X103.758 Y175.048 E38.66117
G1 X103.102 Y174.206 E38.69673
G1 X102.26 Y173.55 E38.73228
G1 X101.28 Y173.126 E38.76785
G1 X100.225 Y172.959 E38.80343
G1 X99.162 Y173.059 E38.839
G1 X98.157 Y173.422 E38.87459
G1 X97.274 Y174.022 E38.91015
G0 F2625 X97.607 Y174.4
G1 F900 X96.985 Y175.106 E38.94149
G1 X96.557 Y175.945 E38.97287
G1 X96.351 Y176.864 E39.00424
G1 X96.381 Y177.804 E39.03557
G1 X96.645 Y178.709 E39.06697
G1 X97.124 Y179.519 E39.09831
G1 X97.789 Y180.185 E39.12967
G1 X98.6 Y180.663 E39.16102
G1 X99.503 Y180.927 E39.19236
G1 X100.444 Y180.957 E39.22372
G1 X101.363 Y180.751 E39.25509
G1 X102.202 Y180.323 E39.28647
G1 X102.908 Y179.701 E39.31781
G1 X103.437 Y178.922 E39.34918
G1 X103.757 Y178.036 E39.38056
G1 X103.846 Y177.099 E39.41191
G1 X103.698 Y176.169 E39.44328
G1 X103.324 Y175.305 E39.47464
G1 X102.746 Y174.562 E39.50599
G1 X102.003 Y173.984 E39.53735
G1 X101.139 Y173.61 E39.56871
G1 X100.209 Y173.463 E39.60007
G1 X99.272 Y173.551 E39.63142
G1 X98.386 Y173.871 E39.6628
G1 X97.607 Y174.4 E39.69417
G0 F2625 X97.541 Y174.325
G0 X90.255 Y167.039
G0 X90.18 Y166.973
G1 F900 X90.709 Y166.194 E39.72553
G1 X91.029 Y165.309 E39.75688
G1 X91.118 Y164.371 E39.78827
G1 X90.97 Y163.441 E39.81964
G1 X90.596 Y162.577 E39.851
G1 X90.018 Y161.834 E39.88235
G1 X89.275 Y161.256 E39.91371
G1 X88.411 Y160.882 E39.94507
G1 X87.481 Y160.735 E39.97643
G1 X86.544 Y160.823 E40.00778
G1 X85.658 Y161.143 E40.03916
G1 X84.879 Y161.672 E40.07053
G1 X84.257 Y162.378 E40.10187
G1 X83.829 Y163.217 E40.13324
G1 X83.623 Y164.136 E40.16462
G1 X83.653 Y165.076 E40.19594
G1 X83.917 Y165.981 E40.22735
G1 X84.396 Y166.791 E40.25869
G1 X85.061 Y167.457 E40.29004
G1 X85.872 Y167.935 E40.3214
G1 X86.775 Y168.199 E40.35274
G1 X87.716 Y168.229 E40.3841
G1 X88.635 Y168.023 E40.41547
G1 X89.474 Y167.595 E40.44685
G1 X90.18 Y166.973 E40.47819
