;This Gcode has been generated specifically for the LulzBot Mini
;Basic settings: Layer height: 0.35 Walls: 1 Fill: 60
;Filament Diameter: 2.89
;Nozzle Size: 0.5
G21                          ; metric values
G90                          ; absolute positioning
M82                          ; set extruder to absolute mode
M107                         ; start with the fan off
G92 E0                       ; set extruder position to 0
M140 S110; get bed heating up
G28                          ; home all
M907 X675                    ; reduce extruder torque for safety
M109 S180                    ; set to cleaning temp and wait
G1 Z150 E-30 F55             ; suck up XXmm of filament
M109 S180                    ; heat up rest of way
G1 X45 Y174 F11520           ; move behind scraper
G1 Z0  F1200                 ; CRITICAL: set Z to height of top of scraper
G1 X45 Y174 Z-.5 F4000       ; wiping ; plunge into wipe pad
G1 X55 Y172 Z-.5 F4000       ; wiping
G1 X45 Y174 Z0 F4000         ; wiping
G1 X55 Y172 F4000            ; wiping
G1 X45 Y174 F4000            ; wiping
G1 X55 Y172 F4000            ; wiping
G1 X45 Y174 F4000            ; wiping
G1 X55 Y172 F4000            ; wiping
G1 X60 Y174 F4000            ; wiping
G1 X80 Y172 F4000            ; wiping
G1 X60 Y174 F4000            ; wiping
G1 X80 Y172 F4000            ; wiping
G1 X60 Y174 F4000            ; wiping
G1 X90 Y172 F4000            ; wiping
G1 X80 Y174 F4000            ; wiping
G1 X100 Y172 F4000           ; wiping
G1 X80 Y174 F4000            ; wiping
G1 X100 Y172 F4000           ; wiping
G1 X80 Y174 F4000            ; wiping
G1 X100 Y172 F4000           ; wiping
G1 X110 Y174 F4000           ; wiping
G1 X100 Y172 F4000           ; wiping
G1 X110 Y174 F4000           ; wiping
G1 X100 Y172 F4000           ; wiping
G1 X110 Y174 F4000           ; wiping
G1 X115 Y172 Z-0.5 F1000     ; wipe slower and bury noz in cleanish area
G1 Z10                       ; raise z
G28 X0 Y0                    ; home x and y
M109 S180                    ; set to probing temp
M204 S300                    ; Set probing acceleration
G29                          ; Probe
M204 S2000                   ; Restore standard acceleration
G1 X5 Y15 Z10 F5000          ; get out the way
G4 S1                        ; pause
M400                         ; clear buffer
M109 S245    ; set extruder temp and wait
G1 Z2 E0 F45                 ; extrude filament back into nozzle
M140 S110; get bed temping up during first layer

;Layer count: 60
;LAYER:0
M107
G0 F10500 X55.424 Y87.387 Z0.425
;TYPE:SKIRT
G1 F1500 X100.642 Y99.504 E1.89563
G1 X88.525 Y54.286 E3.79126
G1 X55.424 Y87.387 E5.68682
G0 F10500 X46.939 Y88.783
G1 F1500 X37.264 Y79.108 E6.24087
G1 X36.793 Y78.625 E6.26819
G1 X36.264 Y77.972 E6.30222
G1 X35.792 Y77.245 E6.33732
G1 X35.398 Y76.477 E6.37227
G1 X35.110 Y75.730 E6.40469
G1 X35.023 Y75.455 E6.41637
G1 X34.966 Y75.252 E6.42491
G1 X34.913 Y75.048 E6.43345
G1 X34.863 Y74.831 E6.44246
G1 X34.819 Y74.615 E6.45139
G1 X34.782 Y74.399 E6.46026
G1 X34.749 Y74.174 E6.46947
G1 X34.701 Y73.741 E6.48711
G1 X34.674 Y73.083 E6.51378
G1 X34.712 Y72.295 E6.54573
G1 X34.769 Y71.836 E6.56445
G1 X34.808 Y71.607 E6.57386
G1 X34.846 Y71.403 E6.58226
G1 X34.896 Y71.177 E6.59164
G1 X34.965 Y70.903 E6.60308
G1 X35.206 Y70.147 E6.63521
G1 X35.553 Y69.351 E6.67037
G1 X35.982 Y68.600 E6.70539
G1 X36.483 Y67.896 E6.74038
G1 X37.062 Y67.244 E6.77569
G1 X37.699 Y66.662 E6.81063
G1 X38.391 Y66.148 E6.84554
G1 X39.140 Y65.705 E6.88077
G1 X39.927 Y65.347 E6.91578
G1 X40.689 Y65.089 E6.94836
G1 X40.964 Y65.017 E6.95987
G1 X41.168 Y64.968 E6.96837
G1 X41.374 Y64.925 E6.97689
G1 X41.588 Y64.884 E6.98571
G1 X41.832 Y64.846 E6.99571
G1 X42.594 Y64.759 E7.02677
G1 X43.171 Y64.680 E7.05035
G1 X43.746 Y64.590 E7.07392
G1 X44.292 Y64.493 E7.09637
G1 X44.820 Y64.387 E7.11818
G1 X45.385 Y64.262 E7.14161
G1 X45.909 Y64.134 E7.16345
G1 X46.461 Y63.987 E7.18659
G1 X47.012 Y63.828 E7.20981
G1 X47.565 Y63.655 E7.23327
G1 X48.044 Y63.494 E7.25373
G1 X48.583 Y63.302 E7.27690
G1 X49.117 Y63.097 E7.30007
G1 X49.639 Y62.885 E7.32288
G1 X50.179 Y62.652 E7.34669
G1 X50.647 Y62.439 E7.36752
G1 X51.163 Y62.190 E7.39072
G1 X51.667 Y61.934 E7.41361
G1 X52.183 Y61.658 E7.43730
G1 X52.631 Y61.405 E7.45814
G1 X53.125 Y61.114 E7.48135
G1 X53.633 Y60.799 E7.50556
G1 X54.080 Y60.509 E7.52713
G1 X54.534 Y60.202 E7.54933
G1 X55.028 Y59.850 E7.57389
G1 X55.447 Y59.540 E7.59499
G1 X55.899 Y59.189 E7.61817
G1 X56.326 Y58.843 E7.64042
G1 X56.764 Y58.474 E7.66361
G1 X57.176 Y58.111 E7.68585
G1 X57.595 Y57.725 E7.70892
G1 X57.975 Y57.361 E7.73022
G1 X58.390 Y56.946 E7.75399
G1 X58.774 Y56.546 E7.77644
G1 X59.182 Y56.102 E7.80086
G1 X59.514 Y55.724 E7.82123
G1 X59.889 Y55.281 E7.84474
G1 X60.237 Y54.851 E7.86714
G1 X60.603 Y54.378 E7.89135
G1 X60.917 Y53.956 E7.91265
G1 X61.258 Y53.475 E7.93653
G1 X61.542 Y53.057 E7.95699
G1 X61.880 Y52.536 E7.98214
G1 X62.159 Y52.085 E8.00361
G1 X62.458 Y51.578 E8.02745
G1 X62.707 Y51.137 E8.04796
G1 X62.995 Y50.597 E8.07274
G1 X63.258 Y50.081 E8.09619
G1 X63.471 Y49.639 E8.11606
G1 X63.709 Y49.117 E8.13929
G1 X63.941 Y48.580 E8.16298
G1 X64.139 Y48.095 E8.18419
G1 X64.357 Y47.523 E8.20898
G1 X64.538 Y47.022 E8.23055
G1 X64.715 Y46.494 E8.25310
G1 X64.871 Y45.993 E8.27434
G1 X65.038 Y45.416 E8.29867
G1 X65.189 Y44.848 E8.32247
G1 X65.308 Y44.356 E8.34296
G1 X65.439 Y43.773 E8.36716
G1 X65.547 Y43.234 E8.38942
G1 X65.640 Y42.714 E8.41081
G1 X65.735 Y42.102 E8.43589
G1 X65.811 Y41.541 E8.45881
G1 X65.885 Y40.895 E8.48514
G1 X66.016 Y40.123 E8.51685
G1 X66.247 Y39.289 E8.55189
G1 X66.567 Y38.479 E8.58716
G1 X66.967 Y37.713 E8.62215
G1 X67.443 Y36.992 E8.65714
G1 X67.996 Y36.321 E8.69235
G1 X68.599 Y35.727 E8.72662
G1 X69.137 Y35.287 E8.75476
G1 X69.831 Y34.816 E8.78873
G1 X70.598 Y34.407 E8.82393
G1 X71.396 Y34.082 E8.85882
G1 X72.228 Y33.839 E8.89391
G1 X73.082 Y33.686 E8.92905
G1 X73.870 Y33.627 E8.96104
G1 X74.221 Y33.622 E8.97526
G1 X74.988 Y33.664 E9.00636
G1 X75.447 Y33.727 E9.02512
G1 X75.669 Y33.767 E9.03426
G1 X75.876 Y33.807 E9.04280
G1 X76.139 Y33.867 E9.05372
G1 X76.746 Y34.040 E9.07928
G1 X77.531 Y34.344 E9.11337
G1 X78.301 Y34.739 E9.14841
G1 X79.025 Y35.210 E9.18338
G1 X79.698 Y35.755 E9.21845
G1 X90.185 Y46.235 E9.81880
G1 X90.763 Y46.080 E9.84303
G1 X104.684 Y42.349 E10.42664
G1 X105.264 Y42.203 E10.45085
G1 X105.517 Y42.151 E10.46131
G1 X105.737 Y42.114 E10.47035
G1 X105.973 Y42.079 E10.48001
G1 X106.406 Y42.034 E10.49764
G1 X107.054 Y42.008 E10.52390
G1 X107.855 Y42.048 E10.55637
G1 X108.310 Y42.108 E10.57496
G1 X108.539 Y42.147 E10.58436
G1 X108.743 Y42.187 E10.59278
G1 X108.960 Y42.235 E10.60178
G1 X109.236 Y42.305 E10.61331
G1 X109.974 Y42.542 E10.64470
G1 X110.618 Y42.815 E10.67302
G1 X111.357 Y43.214 E10.70703
G1 X112.072 Y43.700 E10.74204
G1 X112.735 Y44.261 E10.77721
G1 X113.332 Y44.883 E10.81212
G1 X113.864 Y45.567 E10.84721
G1 X114.323 Y46.304 E10.88236
G1 X114.701 Y47.082 E10.91739
G1 X114.975 Y47.839 E10.94999
G1 X115.054 Y48.111 E10.96146
G1 X115.106 Y48.312 E10.96986
G1 X115.155 Y48.516 E10.97836
G1 X115.201 Y48.734 E10.98738
G1 X115.240 Y48.950 E10.99627
G1 X115.277 Y49.187 E11.00598
G1 X115.327 Y49.638 E11.02436
G1 X115.357 Y50.459 E11.05763
G1 X115.302 Y51.255 E11.08993
G1 X115.265 Y51.536 E11.10141
G1 X115.230 Y51.753 E11.11031
G1 X115.191 Y51.960 E11.11884
G1 X115.145 Y52.177 E11.12782
G1 X115.077 Y52.452 E11.13929
G1 X114.844 Y53.199 E11.17098
G1 X114.561 Y53.870 E11.20047
G1 X114.321 Y54.439 E11.22548
G1 X114.121 Y54.941 E11.24736
G1 X113.914 Y55.496 E11.27134
G1 X113.741 Y55.991 E11.29258
G1 X113.553 Y56.566 E11.31707
G1 X113.399 Y57.075 E11.33861
G1 X113.258 Y57.576 E11.35968
G1 X113.118 Y58.117 E11.38231
G1 X112.983 Y58.683 E11.40587
G1 X112.857 Y59.277 E11.43046
G1 X112.763 Y59.762 E11.45047
G1 X112.664 Y60.347 E11.47449
G1 X112.582 Y60.890 E11.49673
G1 X112.506 Y61.491 E11.52126
G1 X112.479 Y61.726 E11.53084
G1 X112.480 Y61.726 E11.53088
G1 X112.448 Y62.039 E11.54362
G1 X112.406 Y62.533 E11.56369
G1 X112.369 Y63.101 E11.58674
G1 X112.342 Y63.730 E11.61224
G1 X112.332 Y64.220 E11.63208
G1 X112.330 Y64.816 E11.65622
G1 X112.342 Y65.372 E11.67874
G1 X112.364 Y65.904 E11.70030
G1 X112.400 Y66.487 E11.72395
G1 X112.446 Y67.048 E11.74674
G1 X112.472 Y67.304 E11.75716
G1 X112.539 Y67.891 E11.78109
G1 X112.610 Y68.412 E11.80238
G1 X112.701 Y68.991 E11.82611
G1 X112.806 Y69.571 E11.84998
G1 X112.902 Y70.053 E11.86988
G1 X113.037 Y70.656 E11.89490
G1 X113.167 Y71.185 E11.91696
G1 X113.309 Y71.717 E11.93926
G1 X113.474 Y72.281 E11.96305
G1 X113.636 Y72.802 E11.98515
G1 X113.805 Y73.304 E12.00660
G1 X113.993 Y73.828 E12.02914
G1 X114.214 Y74.404 E12.05412
G1 X114.403 Y74.867 E12.07437
G1 X114.642 Y75.421 E12.09880
G1 X114.857 Y75.890 E12.11969
G1 X115.131 Y76.457 E12.14519
G1 X115.367 Y76.919 E12.16620
G1 X115.649 Y77.443 E12.19030
G1 X115.891 Y77.874 E12.21031
G1 X116.198 Y78.391 E12.23466
G1 X116.474 Y78.836 E12.25586
G1 X116.803 Y79.342 E12.28030
G1 X117.118 Y79.805 E12.30298
G1 X117.457 Y80.282 E12.32668
G1 X117.764 Y80.695 E12.34752
G1 X118.092 Y81.118 E12.36919
G1 X118.485 Y81.603 E12.39447
G1 X118.807 Y81.983 E12.41464
G1 X119.202 Y82.430 E12.43879
G1 X119.578 Y82.838 E12.46126
G1 X119.968 Y83.244 E12.48406
G1 X120.390 Y83.665 E12.50819
G1 X120.761 Y84.020 E12.52899
G1 X121.180 Y84.404 E12.55200
G1 X121.594 Y84.769 E12.57435
G1 X122.005 Y85.115 E12.59610
G1 X122.495 Y85.510 E12.62159
G1 X122.890 Y85.815 E12.64180
G1 X123.463 Y86.240 E12.67069
G1 X124.072 Y86.743 E12.70267
G1 X124.665 Y87.351 E12.73706
G1 X125.101 Y87.887 E12.76504
G1 X125.571 Y88.582 E12.79901
G1 X125.978 Y89.349 E12.83417
G1 X126.302 Y90.152 E12.86924
G1 X126.542 Y90.983 E12.90426
G1 X126.689 Y91.813 E12.93840
G1 X126.745 Y92.464 E12.96485
G1 X126.755 Y92.965 E12.98514
G1 X126.707 Y93.779 E13.01816
G1 X126.568 Y94.634 E13.05324
G1 X126.339 Y95.471 E13.08838
G1 X126.025 Y96.278 E13.12344
G1 X125.628 Y97.049 E13.15856
G1 X125.151 Y97.777 E13.19380
G1 X124.605 Y98.448 E13.22883
G1 X123.991 Y99.058 E13.26388
G1 X123.316 Y99.603 E13.29901
G1 X122.588 Y100.073 E13.33410
G1 X121.820 Y100.464 E13.36900
G1 X121.012 Y100.775 E13.40405
G1 X106.652 Y104.628 E14.00611
G1 X105.410 Y104.962 E14.05819
G1 X105.347 Y105.199 E14.06812
G1 X101.617 Y119.123 E14.65182
G1 X101.432 Y119.774 E14.67923
G1 X101.140 Y120.533 E14.71216
G1 X100.835 Y121.157 E14.74028
G1 X100.394 Y121.877 E14.77447
G1 X99.868 Y122.567 E14.80961
G1 X99.274 Y123.194 E14.84458
G1 X98.620 Y123.758 E14.87955
G1 X97.906 Y124.252 E14.91471
G1 X97.184 Y124.648 E14.94805
G1 X96.706 Y124.863 E14.96928
G1 X95.997 Y125.118 E14.99979
G1 X95.731 Y125.195 E15.01100
G1 X95.515 Y125.251 E15.02004
G1 X95.298 Y125.301 E15.02905
G1 X95.095 Y125.342 E15.03744
G1 X94.893 Y125.378 E15.04575
G1 X94.650 Y125.416 E15.05571
G1 X94.192 Y125.466 E15.07436
G1 X93.375 Y125.494 E15.10747
G1 X92.570 Y125.437 E15.14015
G1 X92.291 Y125.398 E15.15155
G1 X92.074 Y125.362 E15.16046
G1 X91.870 Y125.322 E15.16888
G1 X91.668 Y125.279 E15.17724
G1 X91.385 Y125.210 E15.18904
G1 X90.621 Y124.969 E15.22148
G1 X89.827 Y124.625 E15.25652
G1 X89.071 Y124.197 E15.29169
G1 X88.367 Y123.696 E15.32668
G1 X87.718 Y123.125 E15.36169
G1 X87.138 Y122.496 E15.39633
G1 X86.701 Y121.918 E15.42567
G1 X86.354 Y121.459 E15.44897
G1 X85.964 Y120.964 E15.47449
G1 X85.647 Y120.580 E15.49466
G1 X85.266 Y120.137 E15.51832
G1 X84.913 Y119.744 E15.53971
G1 X84.500 Y119.303 E15.56417
G1 X84.116 Y118.908 E15.58648
G1 X83.721 Y118.522 E15.60884
G1 X83.304 Y118.129 E15.63205
G1 X82.882 Y117.747 E15.65510
G1 X82.471 Y117.393 E15.67706
G1 X82.056 Y117.049 E15.69889
G1 X81.594 Y116.681 E15.72281
G1 X81.142 Y116.337 E15.74581
G1 X80.726 Y116.035 E15.76662
G1 X80.217 Y115.680 E15.79175
G1 X79.804 Y115.405 E15.81184
G1 X79.307 Y115.089 E15.83569
G1 X78.798 Y114.780 E15.85980
G1 X78.371 Y114.533 E15.87978
G1 X77.828 Y114.233 E15.90490
G1 X77.382 Y113.999 E15.92530
G1 X76.826 Y113.723 E15.95043
G1 X76.361 Y113.504 E15.97124
G1 X75.836 Y113.269 E15.99454
G1 X75.327 Y113.055 E16.01689
G1 X74.780 Y112.839 E16.04071
G1 X74.256 Y112.643 E16.06336
G1 X73.728 Y112.460 E16.08599
G1 X73.220 Y112.294 E16.10763
G1 X72.705 Y112.139 E16.12941
G1 X72.122 Y111.975 E16.15393
G1 X71.563 Y111.832 E16.17730
G1 X71.072 Y111.717 E16.19772
G1 X70.475 Y111.590 E16.22243
G1 X69.944 Y111.488 E16.24433
G1 X69.390 Y111.395 E16.26708
G1 X68.841 Y111.314 E16.28955
G1 X68.260 Y111.242 E16.31325
G1 X68.035 Y111.216 E16.32243
G1 X67.427 Y111.159 E16.34715
G1 X66.889 Y111.119 E16.36900
G1 X66.313 Y111.090 E16.39235
G1 X65.775 Y111.073 E16.41415
G1 X65.213 Y111.068 E16.43691
G1 X64.608 Y111.074 E16.46141
G1 X64.107 Y111.089 E16.48170
G1 X63.531 Y111.121 E16.50506
G1 X62.943 Y111.165 E16.52894
G1 X62.449 Y111.211 E16.54903
G1 X61.841 Y111.282 E16.57382
G1 X61.313 Y111.355 E16.59540
G1 X60.727 Y111.448 E16.61943
G1 X60.209 Y111.541 E16.64074
G1 X59.664 Y111.653 E16.66327
G1 X59.087 Y111.782 E16.68721
G1 X58.567 Y111.910 E16.70890
G1 X57.984 Y112.067 E16.73334
G1 X57.470 Y112.217 E16.75503
G1 X56.961 Y112.378 E16.77664
G1 X56.421 Y112.560 E16.79972
G1 X55.882 Y112.754 E16.82291
G1 X55.334 Y112.966 E16.84671
G1 X54.873 Y113.155 E16.86688
G1 X54.214 Y113.441 E16.89597
G1 X53.479 Y113.714 E16.92772
G1 X52.683 Y113.919 E16.96101
G1 X52.186 Y114.007 E16.98144
G1 X51.557 Y114.075 E17.00706
G1 X50.889 Y114.094 E17.03412
G1 X50.052 Y114.044 E17.06808
G1 X49.197 Y113.900 E17.10319
G1 X48.364 Y113.671 E17.13817
G1 X47.555 Y113.354 E17.17335
G1 X46.788 Y112.956 E17.20834
G1 X46.082 Y112.492 E17.24255
G1 X45.534 Y112.054 E17.27096
G1 X44.929 Y111.473 E17.30493
G1 X44.374 Y110.817 E17.33972
G1 X43.885 Y110.102 E17.37480
G1 X43.470 Y109.331 E17.41025
G1 X43.159 Y108.570 E17.44354
G1 X43.020 Y108.140 E17.46184
G1 X42.957 Y107.914 E17.47134
G1 X42.902 Y107.698 E17.48037
G1 X42.854 Y107.481 E17.48937
G1 X42.814 Y107.275 E17.49787
G1 X42.777 Y107.059 E17.50674
G1 X42.744 Y106.824 E17.51635
G1 X42.700 Y106.398 E17.53369
G1 X42.675 Y105.742 E17.56027
G1 X42.718 Y104.946 E17.59255
G1 X42.777 Y104.497 E17.61089
G1 X42.818 Y104.256 E17.62079
G1 X42.860 Y104.052 E17.62922
G1 X42.910 Y103.826 E17.63860
G1 X46.696 Y89.686 E18.23134
G1 X46.939 Y88.783 E18.26921
G1 F420 E16.26921
G1 Z0.525
G0 F10500 X50.484 Y86.318
;TYPE:WALL-INNER
G1 Z0.425
G1 F420 E18.26921
G1 F1500 X40.285 Y76.120 E18.85324
G1 X39.974 Y75.800 E18.87131
G1 X39.706 Y75.470 E18.88852
G1 X39.472 Y75.109 E18.90594
G1 X39.282 Y74.739 E18.92278
G1 X39.092 Y74.230 E18.94478
G1 X38.980 Y73.740 E18.96514
G1 X38.940 Y73.417 E18.97832
G1 X38.927 Y73.096 E18.99133
G1 X38.975 Y72.448 E19.01764
G1 X39.055 Y72.063 E19.03356
G1 X39.188 Y71.647 E19.05125
G1 X39.358 Y71.256 E19.06851
G1 X39.566 Y70.892 E19.08549
G1 X39.812 Y70.547 E19.10264
G1 X40.092 Y70.231 E19.11974
G1 X40.405 Y69.945 E19.13691
G1 X40.750 Y69.689 E19.15431
G1 X41.100 Y69.482 E19.17077
G1 X41.501 Y69.299 E19.18862
G1 X41.984 Y69.141 E19.20920
G1 X42.407 Y69.057 E19.22666
G1 X43.141 Y68.973 E19.25658
G1 X43.793 Y68.884 E19.28322
G1 X44.434 Y68.783 E19.30950
G1 X45.073 Y68.670 E19.33578
G1 X45.710 Y68.542 E19.36209
G1 X46.336 Y68.404 E19.38804
G1 X46.976 Y68.247 E19.41473
G1 X47.604 Y68.080 E19.44104
G1 X48.228 Y67.899 E19.46735
G1 X48.839 Y67.709 E19.49326
G1 X49.454 Y67.503 E19.51953
G1 X50.076 Y67.281 E19.54627
G1 X50.682 Y67.048 E19.57256
G1 X51.275 Y66.807 E19.59848
G1 X51.872 Y66.549 E19.62481
G1 X52.471 Y66.276 E19.65147
G1 X53.057 Y65.994 E19.67780
G1 X53.627 Y65.704 E19.70370
G1 X54.209 Y65.392 E19.73044
G1 X54.775 Y65.074 E19.75673
G1 X55.334 Y64.744 E19.78301
G1 X55.878 Y64.407 E19.80893
G1 X56.431 Y64.049 E19.83560
G1 X56.970 Y63.684 E19.86196
G1 X57.498 Y63.307 E19.88823
G1 X58.013 Y62.927 E19.91415
G1 X58.534 Y62.522 E19.94087
G1 X59.039 Y62.113 E19.96719
G1 X59.528 Y61.701 E19.99308
G1 X60.016 Y61.270 E20.01944
G1 X60.500 Y60.825 E20.04607
G1 X60.969 Y60.376 E20.07236
G1 X61.422 Y59.923 E20.09830
G1 X61.879 Y59.448 E20.12499
G1 X62.319 Y58.968 E20.15136
G1 X62.748 Y58.481 E20.17764
G1 X63.161 Y57.992 E20.20356
G1 X63.570 Y57.487 E20.22987
G1 X63.967 Y56.974 E20.25614
G1 X64.355 Y56.454 E20.28241
G1 X64.731 Y55.923 E20.30876
G1 X65.101 Y55.379 E20.33540
G1 X65.450 Y54.841 E20.36137
G1 X65.798 Y54.280 E20.38810
G1 X66.123 Y53.729 E20.41400
G1 X66.447 Y53.155 E20.44069
G1 X66.748 Y52.591 E20.46658
G1 X67.048 Y52.003 E20.49331
G1 X67.325 Y51.426 E20.51923
G1 X67.595 Y50.835 E20.54554
G1 X67.853 Y50.240 E20.57180
G1 X68.098 Y49.638 E20.59812
G1 X68.329 Y49.031 E20.62442
G1 X68.550 Y48.420 E20.65073
G1 X68.757 Y47.804 E20.67704
G1 X68.950 Y47.183 E20.70337
G1 X69.131 Y46.559 E20.72968
G1 X69.298 Y45.930 E20.75604
G1 X69.451 Y45.300 E20.78229
G1 X69.594 Y44.666 E20.80861
G1 X69.721 Y44.029 E20.83491
G1 X69.835 Y43.390 E20.86119
G1 X69.935 Y42.747 E20.88754
G1 X70.023 Y42.105 E20.91378
G1 X70.093 Y41.496 E20.93860
G1 X70.169 Y41.045 E20.95712
G1 X70.281 Y40.644 E20.97398
G1 X70.439 Y40.241 E20.99151
G1 X70.631 Y39.876 E21.00821
G1 X70.865 Y39.520 E21.02546
G1 X71.134 Y39.193 E21.04261
G1 X71.436 Y38.897 E21.05973
G1 X71.687 Y38.692 E21.07286
G1 X72.026 Y38.461 E21.08947
G1 X72.405 Y38.259 E21.10686
G1 X72.799 Y38.099 E21.12408
G1 X73.202 Y37.981 E21.14108
G1 X73.618 Y37.906 E21.15820
G1 X74.053 Y37.874 E21.17586
G1 X74.129 Y37.873 E21.17894
G1 X74.778 Y37.923 E21.20530
G1 X75.392 Y38.073 E21.23089
G1 X75.792 Y38.228 E21.24826
G1 X76.170 Y38.421 E21.26545
G1 X76.519 Y38.648 E21.28231
G1 X76.852 Y38.918 E21.29967
G1 X87.371 Y49.430 E21.90185
G1 X50.484 Y86.318 E24.01426
G0 F10500 X44.705 Y76.514
G1 F1500 X45.240 Y76.191 E24.03956
G1 X45.766 Y75.729 E24.06791
G1 X46.127 Y75.293 E24.09083
G1 X46.470 Y74.696 E24.11871
G1 X46.630 Y74.299 E24.13604
G1 X46.786 Y73.639 E24.16351
G1 X46.822 Y73.253 E24.17920
G1 X46.827 Y73.071 E24.18658
G1 X46.768 Y72.399 E24.21389
G1 X46.634 Y71.874 E24.23583
G1 X46.344 Y71.209 E24.26521
G1 X45.985 Y70.676 E24.29123
G1 X45.642 Y70.303 E24.31175
G1 X45.165 Y69.913 E24.33670
G1 X44.540 Y69.565 E24.36567
G1 X43.848 Y69.336 E24.39518
G1 X43.341 Y69.256 E24.41597
G1 X43.043 Y69.239 E24.42806
G1 X42.440 Y69.277 E24.45252
G1 X41.762 Y69.440 E24.48076
G1 X41.268 Y69.646 E24.50243
G1 X40.737 Y69.966 E24.52754
G1 X40.211 Y70.428 E24.55589
G1 X39.865 Y70.844 E24.57780
G1 X39.499 Y71.473 E24.60726
G1 X39.279 Y72.084 E24.63356
G1 X39.169 Y72.684 E24.65826
G1 X39.150 Y73.197 E24.67905
G1 X39.236 Y73.892 E24.70741
G1 X39.420 Y74.497 E24.73301
G1 X39.599 Y74.884 E24.75028
G1 X39.983 Y75.470 E24.77865
G1 X40.500 Y76.004 E24.80875
G1 X41.092 Y76.415 E24.83793
G1 X41.477 Y76.609 E24.85539
G1 X42.132 Y76.821 E24.88326
G1 X42.646 Y76.902 E24.90433
G1 X43.047 Y76.916 E24.92058
G1 X43.537 Y76.879 E24.94048
G1 X44.132 Y76.744 E24.96519
G1 X44.705 Y76.514 E24.99019
G0 F10500 X62.267 Y66.470
G1 F1500 X62.628 Y67.007 E25.01639
G1 X63.129 Y67.519 E25.04540
G1 X63.740 Y67.945 E25.07556
G1 X64.423 Y68.243 E25.10573
G1 X65.114 Y68.400 E25.13443
G1 X65.679 Y68.433 E25.15734
G1 X66.370 Y68.357 E25.18549
G1 X66.879 Y68.219 E25.20685
G1 X67.339 Y68.025 E25.22706
G1 X67.863 Y67.709 E25.25184
G1 X68.320 Y67.317 E25.27622
G1 X68.588 Y67.022 E25.29236
G1 X68.814 Y66.717 E25.30773
G1 X69.107 Y66.191 E25.33212
G1 X69.326 Y65.589 E25.35806
G1 X69.435 Y64.993 E25.38259
G1 X69.455 Y64.602 E25.39844
G1 X69.409 Y63.996 E25.42305
G1 X69.236 Y63.310 E25.45170
G1 X68.967 Y62.718 E25.47803
G1 X68.604 Y62.179 E25.50435
G1 X68.103 Y61.667 E25.53335
G1 X67.492 Y61.241 E25.56351
G1 X66.820 Y60.948 E25.59320
G1 X66.310 Y60.818 E25.61451
G1 X65.837 Y60.761 E25.63380
G1 X65.549 Y60.755 E25.64547
G1 X65.068 Y60.793 E25.66501
G1 X64.472 Y60.926 E25.68973
G1 X63.899 Y61.158 E25.71477
G1 X63.364 Y61.481 E25.74007
G1 X62.852 Y61.932 E25.76770
G1 X62.645 Y62.163 E25.78026
G1 X62.492 Y62.365 E25.79052
G1 X62.229 Y62.785 E25.81059
G1 X62.029 Y63.227 E25.83023
G1 X61.903 Y63.613 E25.84668
G1 X61.797 Y64.193 E25.87055
G1 X61.777 Y64.591 E25.88669
G1 X61.835 Y65.256 E25.91372
G1 X62.015 Y65.923 E25.94169
G1 X62.267 Y66.470 E25.96608
G0 F10500 X61.910 Y64.206
G0 X62.932 Y62.012
G0 X64.506 Y61.035
G0 X72.491 Y45.407
G1 F1500 X73.064 Y45.624 E25.99089
G1 X73.663 Y45.746 E26.01564
G1 X74.184 Y45.774 E26.03677
G1 X74.680 Y45.735 E26.05692
G1 X75.276 Y45.602 E26.08165
G1 X75.849 Y45.370 E26.10668
G1 X76.384 Y45.047 E26.13199
G1 X76.903 Y44.591 E26.15996
G1 X77.193 Y44.253 E26.17799
G1 X77.518 Y43.747 E26.20235
G1 X77.719 Y43.301 E26.22216
G1 X77.845 Y42.915 E26.23860
G1 X77.951 Y42.335 E26.26247
G1 X77.971 Y41.937 E26.27861
G1 X77.913 Y41.272 E26.30564
G1 X77.733 Y40.605 E26.33362
G1 X77.481 Y40.058 E26.35800
G1 X77.120 Y39.521 E26.38420
G1 X76.619 Y39.009 E26.41321
G1 X76.008 Y38.583 E26.44337
G1 X75.325 Y38.285 E26.47355
G1 X74.634 Y38.128 E26.50224
G1 X74.069 Y38.095 E26.52516
G1 X73.378 Y38.171 E26.55331
G1 X72.869 Y38.309 E26.57466
G1 X72.409 Y38.503 E26.59488
G1 X71.885 Y38.819 E26.61966
G1 X71.428 Y39.211 E26.64404
G1 X70.999 Y39.720 E26.67099
G1 X70.643 Y40.329 E26.69956
G1 X70.421 Y40.946 E26.72611
G1 X70.306 Y41.623 E26.75392
G1 X70.294 Y41.931 E26.76640
G1 X70.339 Y42.532 E26.79080
G1 X70.512 Y43.218 E26.81945
G1 X70.781 Y43.810 E26.84578
G1 X71.136 Y44.337 E26.87151
G1 X71.484 Y44.715 E26.89232
G1 X72.025 Y45.145 E26.92030
G1 X72.491 Y45.407 E26.94195
G0 F10500 X72.757 Y44.840
;TYPE:WALL-OUTER
G1 F1500 X73.238 Y45.022 E26.96277
G1 X73.742 Y45.124 E26.98360
G1 X74.176 Y45.148 E27.00120
G1 X74.587 Y45.115 E27.01789
G1 X75.089 Y45.003 E27.03872
G1 X75.569 Y44.809 E27.05969
G1 X76.013 Y44.541 E27.08069
G1 X76.457 Y44.150 E27.10464
G1 X76.691 Y43.879 E27.11914
G1 X76.967 Y43.448 E27.13987
G1 X77.135 Y43.076 E27.15639
G1 X77.237 Y42.761 E27.16980
G1 X77.329 Y42.262 E27.19035
G1 X77.345 Y41.948 E27.20308
G1 X77.294 Y41.367 E27.22670
G1 X77.149 Y40.830 E27.24922
G1 X76.935 Y40.366 E27.26991
G1 X76.633 Y39.917 E27.29182
G1 X76.213 Y39.488 E27.31613
G1 X75.701 Y39.131 E27.34141
G1 X75.129 Y38.881 E27.36669
G1 X74.546 Y38.749 E27.39089
G1 X74.085 Y38.722 E27.40959
G1 X73.495 Y38.787 E27.43363
G1 X73.073 Y38.901 E27.45133
G1 X72.693 Y39.061 E27.46802
G1 X72.253 Y39.327 E27.48884
G1 X71.864 Y39.660 E27.50958
G1 X71.645 Y39.902 E27.52280
G1 X71.520 Y40.067 E27.53118
G1 X71.212 Y40.594 E27.55589
G1 X71.028 Y41.105 E27.57789
G1 X70.929 Y41.688 E27.60183
G1 X70.920 Y41.920 E27.61123
G1 X70.958 Y42.431 E27.63198
G1 X71.104 Y43.011 E27.65620
G1 X71.329 Y43.504 E27.67815
G1 X71.628 Y43.949 E27.69986
G1 X71.911 Y44.256 E27.71676
G1 X72.374 Y44.625 E27.74074
G1 X72.757 Y44.840 E27.75852
G0 F10500 X72.611 Y45.225
G0 X69.513 Y43.979
G0 X69.107 Y43.913
G1 F1500 X69.219 Y43.286 E27.78431
G1 X69.317 Y42.657 E27.81009
G1 X69.403 Y42.027 E27.83584
G1 X69.473 Y41.414 E27.86082
G1 X69.558 Y40.911 E27.88148
G1 X69.689 Y40.439 E27.90132
G1 X69.868 Y39.986 E27.92104
G1 X70.093 Y39.555 E27.94073
G1 X70.361 Y39.149 E27.96043
G1 X70.673 Y38.770 E27.98030
G1 X71.020 Y38.429 E28.00000
G1 X71.308 Y38.193 E28.01508
G1 X71.707 Y37.923 E28.03459
G1 X72.135 Y37.694 E28.05425
G1 X72.597 Y37.506 E28.07444
G1 X73.054 Y37.373 E28.09372
G1 X73.540 Y37.286 E28.11371
G1 X74.030 Y37.249 E28.13361
G1 X74.141 Y37.247 E28.13810
G1 X74.651 Y37.276 E28.15879
G1 X75.233 Y37.378 E28.18271
G1 X75.592 Y37.480 E28.19783
G1 X76.047 Y37.656 E28.21758
G1 X76.487 Y37.881 E28.23759
G1 X76.891 Y38.145 E28.25714
G1 X77.262 Y38.445 E28.27646
G1 X88.255 Y49.430 E28.90575
G1 X50.484 Y87.202 E31.06878
G1 X39.843 Y76.562 E31.67813
G1 X39.507 Y76.217 E31.69763
G1 X39.200 Y75.839 E31.71734
G1 X38.932 Y75.426 E31.73728
G1 X38.710 Y74.993 E31.75698
G1 X38.496 Y74.417 E31.78187
G1 X38.464 Y74.307 E31.78651
G1 X38.381 Y73.943 E31.80162
G1 X38.361 Y73.832 E31.80619
G1 X38.317 Y73.469 E31.82100
G1 X38.302 Y73.096 E31.83611
G1 X38.356 Y72.359 E31.86604
G1 X38.374 Y72.250 E31.87051
G1 X38.455 Y71.887 E31.88557
G1 X38.601 Y71.428 E31.90508
G1 X38.797 Y70.979 E31.92491
G1 X39.041 Y70.552 E31.94483
G1 X39.324 Y70.155 E31.96457
G1 X39.648 Y69.789 E31.98436
G1 X39.999 Y69.468 E32.00362
G1 X40.398 Y69.172 E32.02374
G1 X40.823 Y68.921 E32.04373
G1 X41.258 Y68.722 E32.06310
G1 X41.734 Y68.561 E32.08345
G1 X42.078 Y68.479 E32.09777
G1 X43.063 Y68.353 E32.13798
G1 X43.702 Y68.266 E32.16409
G1 X44.331 Y68.167 E32.18987
G1 X44.957 Y68.056 E32.21562
G1 X45.581 Y67.930 E32.24140
G1 X46.194 Y67.795 E32.26681
G1 X46.821 Y67.641 E32.29296
G1 X47.436 Y67.478 E32.31872
G1 X48.048 Y67.301 E32.34452
G1 X48.647 Y67.114 E32.36993
G1 X49.250 Y66.912 E32.39568
G1 X49.858 Y66.695 E32.42182
G1 X50.453 Y66.466 E32.44764
G1 X51.033 Y66.231 E32.47298
G1 X51.619 Y65.978 E32.49882
G1 X52.206 Y65.710 E32.52495
G1 X52.779 Y65.434 E32.55071
G1 X53.338 Y65.150 E32.57610
G1 X53.908 Y64.845 E32.60228
G1 X54.463 Y64.532 E32.62808
G1 X55.010 Y64.209 E32.65380
G1 X55.544 Y63.879 E32.67922
G1 X56.085 Y63.528 E32.70533
G1 X56.613 Y63.170 E32.73116
G1 X57.131 Y62.802 E32.75689
G1 X57.635 Y62.429 E32.78228
G1 X58.146 Y62.032 E32.80849
G1 X58.641 Y61.631 E32.83428
G1 X59.120 Y61.227 E32.85966
G1 X59.598 Y60.806 E32.88545
G1 X60.073 Y60.370 E32.91156
G1 X60.532 Y59.929 E32.93733
G1 X60.976 Y59.485 E32.96276
G1 X61.423 Y59.020 E32.98888
G1 X61.854 Y58.551 E33.01467
G1 X62.274 Y58.073 E33.04044
G1 X62.679 Y57.594 E33.06584
G1 X63.080 Y57.099 E33.09163
G1 X63.469 Y56.596 E33.11738
G1 X63.849 Y56.086 E33.14314
G1 X64.217 Y55.567 E33.16890
G1 X64.581 Y55.033 E33.19507
G1 X64.923 Y54.506 E33.22051
G1 X65.263 Y53.956 E33.24669
G1 X65.581 Y53.417 E33.27203
G1 X65.899 Y52.854 E33.29822
G1 X66.194 Y52.301 E33.32360
G1 X66.488 Y51.726 E33.34975
G1 X66.760 Y51.160 E33.37517
G1 X67.024 Y50.581 E33.40094
G1 X67.277 Y49.998 E33.42668
G1 X67.516 Y49.408 E33.45245
G1 X67.743 Y48.814 E33.47820
G1 X67.960 Y48.215 E33.50400
G1 X68.162 Y47.611 E33.52979
G1 X68.352 Y47.003 E33.55559
G1 X68.529 Y46.391 E33.58138
G1 X68.692 Y45.776 E33.60715
G1 X68.843 Y45.158 E33.63291
G1 X68.982 Y44.537 E33.65868
G1 X69.107 Y43.913 E33.68445
G0 F10500 X69.513 Y43.979
G0 X66.244 Y61.024
G0 X66.195 Y61.434
G1 F1500 X65.793 Y61.385 E33.70084
G1 X65.567 Y61.381 E33.71000
G1 X65.161 Y61.413 E33.72649
G1 X64.659 Y61.525 E33.74732
G1 X64.179 Y61.719 E33.76828
G1 X63.735 Y61.987 E33.78928
G1 X63.293 Y62.376 E33.81312
G1 X63.007 Y62.721 E33.83127
G1 X62.781 Y63.081 E33.84848
G1 X62.613 Y63.452 E33.86497
G1 X62.511 Y63.767 E33.87838
G1 X62.419 Y64.266 E33.89893
G1 X62.403 Y64.580 E33.91166
G1 X62.454 Y65.161 E33.93528
G1 X62.599 Y65.698 E33.95780
G1 X62.813 Y66.162 E33.97849
G1 X63.115 Y66.611 E34.00040
G1 X63.535 Y67.040 E34.02471
G1 X64.047 Y67.397 E34.04999
G1 X64.619 Y67.647 E34.07527
G1 X65.202 Y67.779 E34.09947
G1 X65.663 Y67.806 E34.11817
G1 X66.253 Y67.741 E34.14221
G1 X66.675 Y67.627 E34.15991
G1 X67.055 Y67.467 E34.17660
G1 X67.495 Y67.201 E34.19742
G1 X67.884 Y66.868 E34.21816
G1 X68.105 Y66.625 E34.23146
G1 X68.288 Y66.377 E34.24394
G1 X68.537 Y65.931 E34.26462
G1 X68.720 Y65.425 E34.28641
G1 X68.813 Y64.920 E34.30720
G1 X68.829 Y64.609 E34.31981
G1 X68.790 Y64.097 E34.34061
G1 X68.644 Y63.517 E34.36482
G1 X68.419 Y63.024 E34.38677
G1 X68.117 Y62.575 E34.40868
G1 X67.697 Y62.146 E34.43299
G1 X67.185 Y61.789 E34.45827
G1 X66.617 Y61.541 E34.48336
G1 X66.195 Y61.434 E34.50099
G0 F10500 X66.244 Y61.024
G0 X64.506 Y61.035
G0 X62.585 Y62.430
G0 X46.137 Y71.282
G0 X45.794 Y71.511
G1 F1500 X45.493 Y71.064 E34.52281
G1 X45.212 Y70.758 E34.53964
G1 X44.812 Y70.432 E34.56053
G1 X44.288 Y70.140 E34.58482
G1 X43.700 Y69.946 E34.60990
G1 X43.274 Y69.878 E34.62736
G1 X43.045 Y69.865 E34.63665
G1 X42.533 Y69.897 E34.65742
G1 X41.956 Y70.036 E34.68146
G1 X41.551 Y70.205 E34.69923
G1 X41.108 Y70.472 E34.72017
G1 X40.661 Y70.865 E34.74427
G1 X40.379 Y71.204 E34.76213
G1 X40.068 Y71.739 E34.78719
G1 X39.885 Y72.247 E34.80905
G1 X39.792 Y72.753 E34.82989
G1 X39.776 Y73.170 E34.84678
G1 X39.850 Y73.761 E34.87090
G1 X40.006 Y74.273 E34.89258
G1 X40.147 Y74.580 E34.90626
G1 X40.473 Y75.078 E34.93036
G1 X40.907 Y75.526 E34.95562
G1 X41.412 Y75.877 E34.98052
G1 X41.715 Y76.029 E34.99425
G1 X42.278 Y76.211 E35.01821
G1 X42.706 Y76.279 E35.03575
G1 X43.034 Y76.290 E35.04904
G1 X43.443 Y76.259 E35.06565
G1 X43.945 Y76.146 E35.08649
G1 X44.425 Y75.953 E35.10744
G1 X44.869 Y75.685 E35.12844
G1 X45.317 Y75.292 E35.15257
G1 X45.611 Y74.935 E35.17130
G1 X45.906 Y74.423 E35.19523
G1 X46.032 Y74.110 E35.20889
G1 X46.168 Y73.538 E35.23270
G1 X46.198 Y73.214 E35.24587
G1 X46.201 Y73.089 E35.25093
G1 X46.150 Y72.504 E35.27471
G1 X46.041 Y72.077 E35.29256
G1 X45.794 Y71.511 E35.31756
G0 F10500 X46.921 Y72.112
;TYPE:SKIN
G1 F1500 X55.650 Y80.841 E35.81744
G0 F10500 X56.091 Y80.399
G1 F1500 X44.658 Y68.965 E36.47219
G0 F10500 X45.403 Y68.826
G1 F1500 X56.533 Y79.957 E37.10960
G0 F10500 X56.975 Y79.515
G1 F1500 X46.132 Y68.672 E37.73053
G0 F10500 X46.847 Y68.503
G1 F1500 X57.417 Y79.073 E38.33584
G0 F10500 X57.859 Y78.631
G1 F1500 X47.549 Y68.321 E38.92625
G0 F10500 X48.236 Y68.124
G1 F1500 X58.301 Y78.189 E39.50264
G0 F10500 X58.743 Y77.747
G1 F1500 X48.911 Y67.915 E40.06568
G0 F10500 X49.572 Y67.692
G1 F1500 X59.185 Y77.305 E40.61618
G0 F10500 X59.627 Y76.863
G1 F1500 X50.222 Y67.459 E41.15474
G0 F10500 X50.860 Y67.212
G1 F1500 X60.069 Y76.421 E41.68210
G0 F10500 X60.511 Y75.980
G1 F1500 X51.485 Y66.954 E42.19899
G0 F10500 X52.099 Y66.684
G1 F1500 X60.953 Y75.538 E42.70602
G0 F10500 X61.395 Y75.096
G1 F1500 X52.704 Y66.405 E43.20372
G0 F10500 X53.299 Y66.116
G1 F1500 X61.837 Y74.654 E43.69266
G0 F10500 X62.279 Y74.212
G1 F1500 X53.882 Y65.816 E44.17350
G0 F10500 X54.455 Y65.504
G1 F1500 X62.721 Y73.770 E44.64686
G0 F10500 X63.163 Y73.328
G1 F1500 X55.018 Y65.183 E45.11329
G0 F10500 X55.572 Y64.853
G1 F1500 X63.604 Y72.886 E45.57328
G0 F10500 X64.046 Y72.444
G1 F1500 X56.115 Y64.513 E46.02746
G0 F10500 X56.650 Y64.164
G1 F1500 X64.488 Y72.002 E46.47631
G0 F10500 X64.930 Y71.560
G1 F1500 X57.175 Y63.805 E46.92041
G0 F10500 X57.690 Y63.436
G1 F1500 X65.372 Y71.118 E47.36033
G0 F10500 X65.814 Y70.676
G1 F1500 X58.198 Y63.060 E47.79647
G0 F10500 X58.695 Y62.673
G1 F1500 X61.731 Y65.710 E47.97036
G0 F10500 X61.563 Y64.657
G1 F1500 X59.183 Y62.277 E48.10665
G0 F10500 X59.662 Y61.873
G1 F1500 X61.637 Y63.847 E48.21973
G0 F10500 X61.823 Y63.150
G1 F1500 X60.132 Y61.458 E48.31659
G0 F10500 X60.593 Y61.036
G1 F1500 X62.113 Y62.556 E48.40364
G0 F10500 X62.470 Y62.029
G1 F1500 X61.045 Y60.604 E48.48524
G0 F10500 X61.489 Y60.164
G1 F1500 X62.911 Y61.586 E48.56667
G0 F10500 X63.406 Y61.197
G1 F1500 X61.924 Y59.715 E48.65154
G0 F10500 X62.349 Y59.256
G1 F1500 X63.980 Y60.887 E48.74494
G0 F10500 X64.640 Y60.664
G1 F1500 X62.766 Y58.789 E48.85229
G0 F10500 X63.174 Y58.313
G1 F1500 X65.407 Y60.546 E48.98016
G0 F10500 X66.345 Y60.601
G1 F1500 X63.573 Y57.829 E49.13891
G0 F10500 X63.963 Y57.335
G1 F1500 X67.855 Y61.226 E49.36176
G0 F10500 X68.992 Y62.363
G1 F1500 X71.559 Y64.931 E49.50879
G0 F10500 X71.117 Y65.373
G1 F1500 X69.597 Y63.853 E49.59583
G0 F10500 X69.663 Y64.802
G1 F1500 X70.676 Y65.815 E49.65384
G0 F10500 X70.234 Y66.257
G1 F1500 X69.437 Y65.902 E49.69302
G1 X69.571 Y66.920 E49.71976
G1 X68.821 Y67.054 E49.73891
G1 X68.687 Y67.804 E49.75491
G1 X67.911 Y67.911 E49.77170
G1 X67.803 Y68.687 E49.79313
G1 X66.710 Y68.479 E49.82326
G1 X67.140 Y69.350 E49.86259
G0 F10500 X66.698 Y69.792
G1 F1500 X65.550 Y68.644 E49.92833
G0 F10500 X64.508 Y68.486
G1 F1500 X66.256 Y70.234 E50.02843
G0 F10500 X72.001 Y64.489
G1 F1500 X64.343 Y56.831 E50.46698
G0 F10500 X64.715 Y56.319
G1 F1500 X72.443 Y64.047 E50.90953
G0 F10500 X72.885 Y63.605
G1 F1500 X65.079 Y55.799 E51.35655
G0 F10500 X65.432 Y55.268
G1 F1500 X73.327 Y63.163 E51.80867
G0 F10500 X73.769 Y62.721
G1 F1500 X65.775 Y54.727 E52.26645
G0 F10500 X66.110 Y54.179
G1 F1500 X74.211 Y62.279 E52.73034
G0 F10500 X74.653 Y61.837
G1 F1500 X66.434 Y53.619 E53.20098
G0 F10500 X66.750 Y53.050
G1 F1500 X75.095 Y61.395 E53.67887
G0 F10500 X75.537 Y60.954
G1 F1500 X67.054 Y52.470 E54.16469
G0 F10500 X67.347 Y51.880
G1 F1500 X75.979 Y60.512 E54.65901
G0 F10500 X76.421 Y60.070
G1 F1500 X67.631 Y51.280 E55.16238
G0 F10500 X67.904 Y50.669
G1 F1500 X76.863 Y59.628 E55.67543
G0 F10500 X77.305 Y59.186
G1 F1500 X68.167 Y50.048 E56.19872
G0 F10500 X68.416 Y49.414
G1 F1500 X77.747 Y58.744 E56.73305
G0 F10500 X78.189 Y58.302
G1 F1500 X68.655 Y48.769 E57.27899
G0 F10500 X68.883 Y48.112
G1 F1500 X78.630 Y57.860 E57.83720
G0 F10500 X79.072 Y57.418
G1 F1500 X69.097 Y47.442 E58.40845
G0 F10500 X69.300 Y46.761
G1 F1500 X79.514 Y56.976 E58.99340
G0 F10500 X79.956 Y56.534
G1 F1500 X69.487 Y46.065 E59.59292
G0 F10500 X69.661 Y45.355
G1 F1500 X80.398 Y56.092 E60.20779
G0 F10500 X80.840 Y55.650
G1 F1500 X69.823 Y44.633 E60.83869
G0 F10500 X69.966 Y43.892
G1 F1500 X81.282 Y55.208 E61.48671
G0 F10500 X81.724 Y54.766
G1 F1500 X72.665 Y45.707 E62.00549
G0 F10500 X73.815 Y45.973
G1 F1500 X82.166 Y54.324 E62.48372
G0 F10500 X82.608 Y53.882
G1 F1500 X74.679 Y45.954 E62.93775
G0 F10500 X75.398 Y45.788
G1 F1500 X83.050 Y53.441 E63.37598
G0 F10500 X83.492 Y52.999
G1 F1500 X76.017 Y45.524 E63.80405
G0 F10500 X76.560 Y45.183
G1 F1500 X83.934 Y52.557 E64.22633
G0 F10500 X84.376 Y52.115
G1 F1500 X77.031 Y44.770 E64.64695
G0 F10500 X77.431 Y44.286
G1 F1500 X84.818 Y51.673 E65.06997
G0 F10500 X85.260 Y51.231
G1 F1500 X77.762 Y43.733 E65.49936
G0 F10500 X78.013 Y43.100
G1 F1500 X85.702 Y50.789 E65.93968
G0 F10500 X86.143 Y50.347
G1 F1500 X78.166 Y42.369 E66.39652
G0 F10500 X78.148 Y41.468
G1 F1500 X86.585 Y49.905 E66.87967
G0 F10500 X87.027 Y49.463
G1 F1500 X78.017 Y40.452 E67.39567
G0 F10500 X75.289 Y38.393
G0 X72.906 Y38.416
G0 X71.093 Y39.783
G0 X70.406 Y41.929
G0 X70.349 Y43.391
G1 F1500 X70.095 Y43.137 E67.41022
G0 F10500 X67.224 Y51.377
G0 X63.878 Y56.906
G0 X59.454 Y61.615
G0 X54.155 Y65.294
G0 X47.044 Y73.119
G1 F1500 X55.208 Y81.283 E67.87774
G0 F10500 X54.766 Y81.725
G1 F1500 X46.947 Y73.906 E68.32550
G0 F10500 X46.747 Y74.590
G1 F1500 X54.324 Y82.167 E68.75941
G0 F10500 X53.882 Y82.609
G1 F1500 X46.446 Y75.173 E69.18524
G0 F10500 X46.080 Y75.690
G1 F1500 X53.440 Y83.051 E69.60675
G0 F10500 X52.998 Y83.493
G1 F1500 X45.638 Y76.132 E70.02825
G0 F10500 X45.132 Y76.511
G1 F1500 X52.556 Y83.934 E70.45337
G0 F10500 X52.114 Y84.376
G1 F1500 X44.549 Y76.812 E70.88656
G0 F10500 X43.879 Y77.025
G1 F1500 X51.672 Y84.818 E71.33284
G0 F10500 X51.230 Y85.260
G1 F1500 X43.100 Y77.130 E71.79841
G0 F10500 X42.128 Y77.042
G1 F1500 X50.788 Y85.702 E72.29433
G1 F420 E70.29433
G1 Z0.525
G0 F10500 X99.308 Y74.906
;TYPE:WALL-INNER
G1 Z0.425
G1 F420 E72.29433
G1 F1500 X99.519 Y75.604 E72.32386
G1 X99.750 Y76.079 E72.34525
G1 X100.024 Y76.490 E72.36525
G1 X100.371 Y76.887 E72.38660
G1 X100.912 Y77.334 E72.41502
G1 X101.481 Y77.656 E72.44150
G1 X102.153 Y77.889 E72.47030
G1 X102.777 Y77.989 E72.49589
G1 X103.165 Y77.999 E72.51160
G1 X103.682 Y77.954 E72.53262
G1 X104.352 Y77.783 E72.56062
G1 X104.844 Y77.570 E72.58233
G1 X105.370 Y77.242 E72.60743
G1 X105.889 Y76.775 E72.63570
G1 X106.220 Y76.365 E72.65704
G1 X106.480 Y75.937 E72.67732
G1 X106.724 Y75.361 E72.70265
G1 X106.849 Y74.878 E72.72285
G1 X106.907 Y74.406 E72.74211
G1 X106.914 Y74.105 E72.75430
G1 X106.844 Y73.418 E72.78226
G1 X106.628 Y72.698 E72.81270
G1 X106.214 Y71.944 E72.84753
G1 X105.718 Y71.373 E72.87816
G1 X105.142 Y70.925 E72.90771
G1 X104.665 Y70.664 E72.92972
G1 X104.000 Y70.434 E72.95822
G1 X103.376 Y70.334 E72.98381
G1 X102.974 Y70.324 E73.00009
G1 X102.290 Y70.404 E73.02798
G1 X101.682 Y70.584 E73.05365
G1 X101.301 Y70.758 E73.07061
G1 X100.783 Y71.081 E73.09533
G1 X100.265 Y71.548 E73.12357
G1 X99.932 Y71.958 E73.14496
G1 X99.677 Y72.380 E73.16493
G1 X99.466 Y72.854 E73.18594
G1 X99.306 Y73.436 E73.21038
G1 X99.245 Y73.915 E73.22993
G1 X99.238 Y74.218 E73.24221
G1 X99.308 Y74.906 E73.27021
G0 F10500 X99.777 Y72.432
G0 X106.116 Y54.051
G1 F1500 X106.733 Y54.149 E73.29551
G1 X107.015 Y54.162 E73.30694
G1 X107.640 Y54.117 E73.33231
G1 X108.317 Y53.945 E73.36060
G1 X108.810 Y53.731 E73.38236
G1 X109.322 Y53.413 E73.40676
G1 X109.713 Y53.082 E73.42751
G1 X110.165 Y52.556 E73.45559
G1 X110.444 Y52.101 E73.47720
G1 X110.689 Y51.523 E73.50263
G1 X110.813 Y51.040 E73.52282
G1 X110.872 Y50.569 E73.54204
G1 X110.880 Y50.267 E73.55427
G1 X110.810 Y49.578 E73.58232
G1 X110.593 Y48.858 E73.61277
G1 X110.183 Y48.112 E73.64724
G1 X109.769 Y47.620 E73.67327
G1 X109.477 Y47.355 E73.68924
G1 X108.978 Y47.005 E73.71392
G1 X108.330 Y46.706 E73.74282
G1 X107.629 Y46.529 E73.77210
G1 X107.058 Y46.485 E73.79529
G1 X106.451 Y46.529 E73.81993
G1 X105.849 Y46.672 E73.84499
G1 X105.287 Y46.909 E73.86969
G1 X104.854 Y47.167 E73.89010
G1 X104.374 Y47.558 E73.91516
G1 X103.931 Y48.077 E73.94280
G1 X103.759 Y48.334 E73.95532
G1 X103.631 Y48.564 E73.96598
G1 X103.388 Y49.137 E73.99118
G1 X103.235 Y49.823 E74.01964
G1 X103.202 Y50.362 E74.04151
G1 X103.274 Y51.067 E74.07020
G1 X103.488 Y51.780 E74.10035
G1 X103.837 Y52.440 E74.13058
G1 X104.302 Y53.014 E74.16049
G1 X104.801 Y53.443 E74.18714
G1 X105.420 Y53.805 E74.21618
G1 X106.116 Y54.051 E74.24607
G0 F10500 X109.510 Y55.258
G1 F1500 X109.321 Y55.880 E74.27239
G1 X109.146 Y56.506 E74.29871
G1 X108.986 Y57.125 E74.32460
G1 X108.834 Y57.766 E74.35128
G1 X108.699 Y58.402 E74.37761
G1 X108.576 Y59.040 E74.40392
G1 X108.469 Y59.671 E74.42983
G1 X108.371 Y60.323 E74.45653
G1 X108.290 Y60.965 E74.48273
G1 X108.220 Y61.615 E74.50921
G1 X108.167 Y62.252 E74.53509
G1 X108.124 Y62.909 E74.56175
G1 X108.096 Y63.558 E74.58806
G1 X108.083 Y64.198 E74.61398
G1 X108.081 Y64.848 E74.64030
G1 X108.095 Y65.508 E74.66703
G1 X108.122 Y66.155 E74.69325
G1 X108.161 Y66.794 E74.71917
G1 X108.215 Y67.441 E74.74546
G1 X108.321 Y68.411 E74.78498
G1 X108.411 Y69.064 E74.81167
G1 X108.512 Y69.705 E74.83795
G1 X108.625 Y70.335 E74.86386
G1 X108.753 Y70.973 E74.89021
G1 X108.898 Y71.616 E74.91690
G1 X109.052 Y72.246 E74.94317
G1 X109.217 Y72.865 E74.96911
G1 X109.402 Y73.498 E74.99581
G1 X109.596 Y74.117 E75.02208
G1 X109.803 Y74.733 E75.04839
G1 X110.020 Y75.336 E75.07434
G1 X110.253 Y75.942 E75.10063
G1 X110.498 Y76.543 E75.12691
G1 X110.756 Y77.140 E75.15325
G1 X111.027 Y77.731 E75.17958
G1 X111.314 Y78.324 E75.20625
G1 X111.605 Y78.894 E75.23217
G1 X111.917 Y79.474 E75.25884
G1 X112.230 Y80.031 E75.28471
G1 X112.567 Y80.599 E75.31145
G1 X112.905 Y81.143 E75.33739
G1 X113.264 Y81.695 E75.36405
G1 X113.625 Y82.224 E75.38999
G1 X114.000 Y82.753 E75.41624
G1 X114.388 Y83.275 E75.44258
G1 X114.787 Y83.789 E75.46893
G1 X115.197 Y84.293 E75.49524
G1 X115.616 Y84.789 E75.52153
G1 X116.046 Y85.276 E75.54784
G1 X116.487 Y85.753 E75.57414
G1 X116.936 Y86.221 E75.60040
G1 X117.396 Y86.680 E75.62672
G1 X117.865 Y87.130 E75.65304
G1 X118.345 Y87.569 E75.67938
G1 X118.833 Y87.998 E75.70569
G1 X119.330 Y88.417 E75.73201
G1 X119.836 Y88.825 E75.75833
G1 X120.349 Y89.221 E75.78457
G1 X120.843 Y89.587 E75.80947
G1 X121.191 Y89.875 E75.82776
G1 X121.491 Y90.182 E75.84514
G1 X121.684 Y90.420 E75.85755
G1 X121.926 Y90.778 E75.87505
G1 X122.120 Y91.143 E75.89179
G1 X122.282 Y91.545 E75.90934
G1 X122.395 Y91.936 E75.92582
G1 X122.472 Y92.368 E75.94359
G1 X122.500 Y92.693 E75.95679
G1 X122.503 Y92.890 E75.96477
G1 X122.479 Y93.305 E75.98161
G1 X122.410 Y93.731 E75.99908
G1 X122.298 Y94.139 E76.01621
G1 X122.144 Y94.534 E76.03338
G1 X121.953 Y94.906 E76.05031
G1 X121.723 Y95.257 E76.06731
G1 X121.446 Y95.597 E76.08507
G1 X121.153 Y95.889 E76.10182
G1 X120.818 Y96.158 E76.11921
G1 X120.469 Y96.384 E76.13605
G1 X120.084 Y96.579 E76.15352
G1 X119.701 Y96.727 E76.17015
G1 X105.329 Y100.584 E76.77271
G1 X91.827 Y50.193 E78.88519
G1 X105.746 Y46.464 E79.46869
G1 X106.217 Y46.345 E79.48837
G1 X106.504 Y46.296 E79.50016
G1 X106.717 Y46.274 E79.50883
G1 X107.029 Y46.261 E79.52147
G1 X107.682 Y46.311 E79.54799
G1 X107.761 Y46.324 E79.55123
G1 X108.067 Y46.392 E79.56393
G1 X108.489 Y46.527 E79.58187
G1 X108.768 Y46.646 E79.59415
G1 X109.155 Y46.855 E79.61196
G1 X109.499 Y47.088 E79.62878
G1 X109.818 Y47.358 E79.64571
G1 X110.115 Y47.668 E79.66309
G1 X110.372 Y47.998 E79.68003
G1 X110.599 Y48.362 E79.69740
G1 X110.780 Y48.736 E79.71423
G1 X110.954 Y49.226 E79.73528
G1 X110.982 Y49.332 E79.73972
G1 X111.065 Y49.756 E79.75722
G1 X111.087 Y49.957 E79.76540
G1 X111.103 Y50.384 E79.78271
G1 X111.063 Y50.902 E79.80374
G1 X110.983 Y51.306 E79.82042
G1 X110.846 Y51.746 E79.83908
G1 X110.647 Y52.217 E79.85979
G1 X110.394 Y52.815 E79.88608
G1 X110.154 Y53.419 E79.91240
G1 X109.930 Y54.018 E79.93829
G1 X109.711 Y54.641 E79.96503
G1 X109.510 Y55.258 E79.99131
G0 F10500 X108.237 Y62.916
G0 X108.623 Y69.686
G0 X110.357 Y75.900
G0 X113.358 Y81.632
G0 X117.842 Y89.073
G1 F1500 X117.242 Y89.216 E80.01629
G1 X116.609 Y89.492 E80.04425
G1 X116.250 Y89.712 E80.06130
G1 X115.785 Y90.091 E80.08559
G1 X115.451 Y90.459 E80.10572
G1 X115.163 Y90.866 E80.12590
G1 X115.026 Y91.113 E80.13734
G1 X114.758 Y91.772 E80.16615
G1 X114.621 Y92.483 E80.19547
G1 X114.603 Y92.896 E80.21221
G1 X114.636 Y93.394 E80.23242
G1 X114.797 Y94.075 E80.26076
G1 X115.054 Y94.677 E80.28726
G1 X115.450 Y95.275 E80.31630
G1 X115.966 Y95.801 E80.34614
G1 X116.503 Y96.181 E80.37278
G1 X117.153 Y96.482 E80.40179
G1 X117.854 Y96.659 E80.43106
G1 X118.423 Y96.703 E80.45417
G1 X119.039 Y96.659 E80.47918
G1 X119.718 Y96.487 E80.50754
G1 X120.217 Y96.270 E80.52958
G1 X120.811 Y95.886 E80.55822
G1 X121.343 Y95.379 E80.58798
G1 X121.731 Y94.848 E80.61461
G1 X122.039 Y94.206 E80.64344
G1 X122.211 Y93.591 E80.66930
G1 X122.271 Y93.111 E80.68889
G1 X122.279 Y92.809 E80.70112
G1 X122.209 Y92.121 E80.72912
G1 X122.006 Y91.443 E80.75778
G1 X121.924 Y91.255 E80.76609
G1 X121.589 Y90.670 E80.79339
G1 X121.411 Y90.433 E80.80539
G1 X121.155 Y90.150 E80.82084
G1 X120.871 Y89.892 E80.83638
G1 X120.292 Y89.499 E80.86471
G1 X119.609 Y89.206 E80.89481
G1 X118.895 Y89.052 E80.92439
G1 X118.363 Y89.026 E80.94595
G1 X117.842 Y89.073 E80.96714
G0 F10500 X117.943 Y89.691
;TYPE:WALL-OUTER
G1 F1500 X117.441 Y89.811 E80.98804
G1 X116.898 Y90.048 E81.01203
G1 X116.612 Y90.223 E81.02560
G1 X116.216 Y90.546 E81.04630
G1 X115.939 Y90.850 E81.06295
G1 X115.693 Y91.199 E81.08024
G1 X115.591 Y91.383 E81.08876
G1 X115.360 Y91.951 E81.11359
G1 X115.243 Y92.556 E81.13854
G1 X115.229 Y92.889 E81.15204
G1 X115.256 Y93.301 E81.16876
G1 X115.392 Y93.879 E81.19280
G1 X115.606 Y94.379 E81.21483
G1 X115.938 Y94.880 E81.23916
G1 X116.373 Y95.323 E81.26430
G1 X116.817 Y95.638 E81.28635
G1 X117.362 Y95.890 E81.31066
G1 X117.961 Y96.041 E81.33568
G1 X118.307 Y96.075 E81.34975
G1 X118.409 Y96.077 E81.35389
G1 X118.939 Y96.039 E81.37540
G1 X119.515 Y95.893 E81.39946
G1 X119.921 Y95.717 E81.41738
G1 X120.423 Y95.393 E81.44158
G1 X120.871 Y94.966 E81.46664
G1 X121.193 Y94.526 E81.48872
G1 X121.452 Y93.985 E81.51300
G1 X121.597 Y93.468 E81.53475
G1 X121.647 Y93.064 E81.55123
G1 X121.653 Y92.833 E81.56059
G1 X121.593 Y92.244 E81.58456
G1 X121.418 Y91.658 E81.60933
G1 X121.364 Y91.535 E81.61477
G1 X121.066 Y91.014 E81.63907
G1 X120.712 Y90.592 E81.66137
G1 X120.484 Y90.384 E81.67387
G1 X119.990 Y90.050 E81.69802
G1 X119.418 Y89.804 E81.72323
G1 X118.813 Y89.674 E81.74829
G1 X118.376 Y89.652 E81.76601
G1 X117.943 Y89.691 E81.78361
G0 F10500 X117.906 Y89.281
G0 X119.457 Y88.245
G0 X119.728 Y87.935
G1 F1500 X120.223 Y88.334 E81.80936
G1 X120.727 Y88.723 E81.83514
G1 X121.221 Y89.090 E81.86006
G1 X121.619 Y89.418 E81.88094
G1 X121.955 Y89.763 E81.90044
G1 X122.184 Y90.045 E81.91515
G1 X122.466 Y90.462 E81.93554
G1 X122.687 Y90.878 E81.95461
G1 X122.871 Y91.332 E81.97445
G1 X123.008 Y91.807 E81.99447
G1 X123.092 Y92.282 E82.01400
G1 X123.124 Y92.657 E82.02924
G1 X123.129 Y92.906 E82.03932
G1 X123.101 Y93.376 E82.05839
G1 X123.022 Y93.863 E82.07837
G1 X122.894 Y94.331 E82.09801
G1 X122.714 Y94.792 E82.11805
G1 X122.495 Y95.219 E82.13749
G1 X122.223 Y95.633 E82.15755
G1 X121.913 Y96.014 E82.17744
G1 X121.571 Y96.354 E82.19696
G1 X121.186 Y96.665 E82.21700
G1 X120.779 Y96.928 E82.23663
G1 X120.345 Y97.148 E82.25633
G1 X119.887 Y97.324 E82.27620
G1 X104.887 Y101.350 E82.90509
G1 X91.061 Y49.751 E85.06822
G1 X105.593 Y45.857 E85.67743
G1 X106.187 Y45.714 E85.70217
G1 X106.658 Y45.651 E85.72141
G1 X107.035 Y45.636 E85.73669
G1 X107.535 Y45.661 E85.75696
G1 X108.129 Y45.763 E85.78136
G1 X108.709 Y45.941 E85.80593
G1 X109.040 Y46.082 E85.82050
G1 X109.478 Y46.319 E85.84067
G1 X109.874 Y46.587 E85.86003
G1 X110.252 Y46.907 E85.88008
G1 X110.587 Y47.256 E85.89967
G1 X110.887 Y47.642 E85.91947
G1 X111.145 Y48.057 E85.93926
G1 X111.359 Y48.498 E85.95910
G1 X111.558 Y49.068 E85.98355
G1 X111.619 Y49.313 E85.99378
G1 X111.710 Y49.904 E86.01799
G1 X111.729 Y50.404 E86.03825
G1 X111.695 Y50.894 E86.05814
G1 X111.584 Y51.479 E86.08225
G1 X111.437 Y51.951 E86.10227
G1 X110.972 Y53.053 E86.15070
G1 X110.737 Y53.644 E86.17646
G1 X110.518 Y54.231 E86.20183
G1 X110.303 Y54.841 E86.22802
G1 X110.106 Y55.445 E86.25374
G1 X109.921 Y56.055 E86.27956
G1 X109.750 Y56.668 E86.30533
G1 X109.593 Y57.275 E86.33071
G1 X109.444 Y57.903 E86.35685
G1 X109.311 Y58.526 E86.38265
G1 X109.191 Y59.151 E86.40842
G1 X109.086 Y59.770 E86.43384
G1 X108.990 Y60.408 E86.45996
G1 X108.910 Y61.039 E86.48572
G1 X108.842 Y61.673 E86.51154
G1 X108.790 Y62.298 E86.53694
G1 X108.748 Y62.942 E86.56307
G1 X108.721 Y63.578 E86.58885
G1 X108.708 Y64.205 E86.61424
G1 X108.706 Y64.842 E86.64004
G1 X108.720 Y65.488 E86.66620
G1 X108.746 Y66.123 E86.69194
G1 X108.785 Y66.749 E86.71733
G1 X108.837 Y67.384 E86.74313
G1 X108.941 Y68.333 E86.78179
G1 X109.029 Y68.973 E86.80795
G1 X109.128 Y69.601 E86.83369
G1 X109.239 Y70.218 E86.85908
G1 X109.365 Y70.843 E86.88490
G1 X109.506 Y71.473 E86.91104
G1 X109.658 Y72.091 E86.93681
G1 X109.819 Y72.697 E86.96220
G1 X110.000 Y73.317 E86.98835
G1 X110.190 Y73.924 E87.01411
G1 X110.393 Y74.528 E87.03991
G1 X110.606 Y75.118 E87.06531
G1 X110.834 Y75.712 E87.09108
G1 X111.074 Y76.301 E87.11683
G1 X111.327 Y76.886 E87.14264
G1 X111.593 Y77.465 E87.16844
G1 X111.874 Y78.046 E87.19457
G1 X112.159 Y78.604 E87.21995
G1 X112.465 Y79.172 E87.24607
G1 X112.772 Y79.719 E87.27147
G1 X113.101 Y80.275 E87.29763
G1 X113.433 Y80.807 E87.32303
G1 X113.784 Y81.349 E87.34917
G1 X114.138 Y81.867 E87.37458
G1 X114.506 Y82.385 E87.40031
G1 X114.886 Y82.897 E87.42613
G1 X115.277 Y83.400 E87.45193
G1 X115.678 Y83.894 E87.47769
G1 X116.089 Y84.380 E87.50346
G1 X116.510 Y84.857 E87.52923
G1 X116.942 Y85.325 E87.55502
G1 X117.382 Y85.784 E87.58076
G1 X117.833 Y86.233 E87.60653
G1 X118.293 Y86.674 E87.63234
G1 X118.763 Y87.104 E87.65813
G1 X119.240 Y87.524 E87.68387
G1 X119.728 Y87.935 E87.70970
G0 F10500 X119.457 Y88.245
G0 X105.709 Y76.650
G0 X105.434 Y76.343
G1 F1500 X105.708 Y76.005 E87.72732
G1 X105.922 Y75.652 E87.74404
G1 X106.130 Y75.160 E87.76567
G1 X106.233 Y74.761 E87.78236
G1 X106.283 Y74.360 E87.79872
G1 X106.288 Y74.129 E87.80808
G1 X106.228 Y73.541 E87.83201
G1 X106.048 Y72.941 E87.85737
G1 X105.698 Y72.304 E87.88681
G1 X105.287 Y71.829 E87.91224
G1 X104.798 Y71.449 E87.93732
G1 X104.411 Y71.238 E87.95517
G1 X103.847 Y71.042 E87.97935
G1 X103.319 Y70.958 E88.00099
G1 X103.003 Y70.950 E88.01379
G1 X102.416 Y71.018 E88.03772
G1 X101.901 Y71.171 E88.05948
G1 X101.597 Y71.309 E88.07300
G1 X101.161 Y71.582 E88.09383
G1 X100.719 Y71.979 E88.11789
G1 X100.444 Y72.318 E88.13556
G1 X100.232 Y72.669 E88.15217
G1 X100.056 Y73.065 E88.16971
G1 X99.920 Y73.559 E88.19046
G1 X99.869 Y73.963 E88.20695
G1 X99.864 Y74.194 E88.21631
G1 X99.924 Y74.782 E88.24024
G1 X100.103 Y75.375 E88.26532
G1 X100.294 Y75.767 E88.28298
G1 X100.522 Y76.110 E88.29966
G1 X100.808 Y76.437 E88.31725
G1 X101.267 Y76.817 E88.34138
G1 X101.740 Y77.084 E88.36337
G1 X102.306 Y77.281 E88.38764
G1 X102.834 Y77.365 E88.40929
G1 X103.146 Y77.373 E88.42193
G1 X103.577 Y77.336 E88.43945
G1 X104.150 Y77.189 E88.46340
G1 X104.553 Y77.015 E88.48117
G1 X104.992 Y76.741 E88.50213
G1 X105.434 Y76.343 E88.52621
G0 F10500 X105.709 Y76.650
G0 X106.617 Y75.324
G0 X106.733 Y73.441
G0 X106.778 Y53.938
G0 X106.796 Y53.526
G1 F1500 X107.007 Y53.536 E88.53477
G1 X107.540 Y53.497 E88.55641
G1 X108.115 Y53.351 E88.58043
G1 X108.519 Y53.176 E88.59826
G1 X108.953 Y52.906 E88.61896
G1 X109.271 Y52.637 E88.63582
G1 X109.658 Y52.186 E88.65989
G1 X109.887 Y51.813 E88.67761
G1 X110.095 Y51.322 E88.69920
G1 X110.198 Y50.923 E88.71589
G1 X110.248 Y50.522 E88.73225
G1 X110.254 Y50.291 E88.74161
G1 X110.194 Y49.702 E88.76558
G1 X110.013 Y49.101 E88.79100
G1 X109.665 Y48.467 E88.82029
G1 X109.317 Y48.054 E88.84216
G1 X109.086 Y47.844 E88.85480
G1 X108.665 Y47.549 E88.87561
G1 X108.121 Y47.298 E88.89987
G1 X107.522 Y47.147 E88.92489
G1 X107.176 Y47.113 E88.93897
G1 X107.073 Y47.111 E88.94314
G1 X106.546 Y47.149 E88.96453
G1 X106.044 Y47.268 E88.98542
G1 X105.569 Y47.468 E89.00629
G1 X105.213 Y47.680 E89.02307
G1 X104.813 Y48.007 E89.04399
G1 X104.430 Y48.455 E89.06786
G1 X104.293 Y48.660 E89.07784
G1 X104.193 Y48.839 E89.08615
G1 X103.986 Y49.328 E89.10765
G1 X103.856 Y49.910 E89.13180
G1 X103.829 Y50.349 E89.14961
G1 X103.890 Y50.944 E89.17383
G1 X104.069 Y51.542 E89.19910
G1 X104.361 Y52.094 E89.22439
G1 X104.752 Y52.577 E89.24955
G1 X105.165 Y52.932 E89.27161
G1 X105.684 Y53.235 E89.29594
G1 X106.270 Y53.443 E89.32112
G1 X106.796 Y53.526 E89.34268
G0 F10500 X106.970 Y54.380
;TYPE:SKIN
G1 F1500 X108.957 Y56.367 E89.45647
G0 F10500 X109.152 Y55.678
G1 F1500 X107.781 Y54.307 E89.53498
G0 F10500 X108.474 Y54.116
G1 F1500 X109.361 Y55.003 E89.58578
G0 F10500 X109.583 Y54.341
G1 F1500 X109.332 Y53.648 E89.61515
G1 X109.817 Y53.692 E89.63487
G0 F10500 X108.774 Y57.068
G1 F1500 X105.920 Y54.213 E89.79833
G0 F10500 X103.161 Y51.454
G1 F1500 X99.949 Y48.243 E89.98224
G0 F10500 X99.252 Y48.429
G1 F1500 X108.607 Y57.784 E90.51797
G0 F10500 X108.453 Y58.514
G1 F1500 X98.555 Y48.616 E91.08479
G0 F10500 X97.857 Y48.803
G1 F1500 X108.316 Y59.261 E91.68371
G0 F10500 X103.933 Y52.377
G0 X102.985 Y50.395
G1 F1500 X100.646 Y48.056 E91.81765
G0 F10500 X101.343 Y47.869
G1 F1500 X103.062 Y49.588 E91.91610
G0 F10500 X103.253 Y48.895
G1 F1500 X102.041 Y47.683 E91.98550
G0 F10500 X102.738 Y47.496
G1 F1500 X103.715 Y48.031 E92.03090
G1 X103.783 Y47.216 E92.05749
G1 X104.324 Y47.314 E92.07976
G0 F10500 X97.160 Y48.989
G1 F1500 X108.194 Y60.023 E92.71163
G0 F10500 X108.089 Y60.801
G1 F1500 X96.463 Y49.176 E93.37738
G0 F10500 X95.767 Y49.363
G1 F1500 X108.001 Y61.598 E94.07801
G0 F10500 X107.936 Y62.417
G1 F1500 X95.069 Y49.550 E94.81485
G0 F10500 X94.372 Y49.737
G1 F1500 X107.888 Y63.253 E95.58886
G0 F10500 X107.864 Y64.113
G1 F1500 X93.675 Y49.923 E96.40144
G0 F10500 X92.978 Y50.110
G1 F1500 X107.864 Y64.997 E97.25393
G0 F10500 X107.892 Y65.908
G1 F1500 X92.280 Y50.297 E98.14794
G0 F10500 X92.331 Y51.231
G1 F1500 X107.945 Y66.845 E99.04210
G0 F10500 X108.034 Y67.818
G1 F1500 X92.654 Y52.438 E99.92285
G0 F10500 X92.978 Y53.646
G1 F1500 X108.155 Y68.823 E100.79198
G0 F10500 X108.318 Y69.870
G1 F1500 X93.301 Y54.853 E101.65195
G0 F10500 X93.625 Y56.060
G1 F1500 X108.527 Y70.963 E102.50536
G0 F10500 X108.794 Y72.113
G1 F1500 X93.948 Y57.267 E103.35553
G0 F10500 X94.271 Y58.474
G1 F1500 X109.121 Y73.324 E104.20593
G0 F10500 X109.532 Y74.619
G1 F1500 X94.595 Y59.682 E105.06132
G0 F10500 X94.918 Y60.889
G1 F1500 X104.353 Y70.324 E105.60163
G0 F10500 X103.256 Y70.111
G1 F1500 X95.242 Y62.097 E106.06056
G0 F10500 X95.565 Y63.304
G1 F1500 X102.427 Y70.166 E106.45352
G0 F10500 X101.720 Y70.342
G1 F1500 X95.889 Y64.512 E106.78741
G0 F10500 X96.212 Y65.719
G1 F1500 X101.110 Y70.617 E107.06790
G0 F10500 X100.578 Y70.969
G1 F1500 X96.536 Y66.926 E107.29940
G0 F10500 X96.859 Y68.133
G1 F1500 X100.113 Y71.388 E107.48577
G0 F10500 X99.351 Y74.213
G0 X100.114 Y76.421
G0 X101.133 Y77.711
G1 F1500 X114.716 Y91.293 E108.26359
G0 F10500 X115.009 Y90.703
G1 F1500 X102.466 Y78.160 E108.98188
G0 F10500 X103.388 Y78.198
G1 F1500 X115.390 Y90.200 E109.66919
G0 F10500 X115.838 Y89.764
G1 F1500 X104.137 Y78.063 E110.33926
G0 F10500 X104.789 Y77.831
G1 F1500 X116.350 Y89.393 E111.00134
G0 F10500 X116.946 Y89.105
G1 F1500 X105.352 Y77.510 E111.66531
G0 F10500 X105.839 Y77.114
G1 F1500 X117.623 Y88.898 E112.34014
G0 F10500 X118.418 Y88.809
G1 F1500 X106.265 Y76.656 E113.03610
G0 F10500 X106.618 Y76.125
G1 F1500 X115.640 Y85.146 E113.55272
G0 F10500 X118.414 Y87.920
G1 F1500 X119.407 Y88.913 E113.60959
G0 F10500 X116.316 Y89.804
G0 X115.128 Y91.162
G0 X114.498 Y91.959
G1 F1500 X99.123 Y76.585 E114.49003
G0 F10500 X99.512 Y76.090
G1 F1500 X98.936 Y75.072 E114.53072
G1 X98.754 Y74.006 E114.56484
G1 X98.153 Y72.963 E114.61359
G0 F10500 X99.171 Y73.097
G1 F1500 X97.830 Y71.756 E114.69038
G0 F10500 X97.506 Y70.548
G1 F1500 X99.406 Y72.448 E114.79919
G0 F10500 X99.722 Y71.880
G1 F1500 X97.183 Y69.341 E114.94459
G0 F10500 X99.447 Y77.793
G1 F1500 X114.390 Y92.735 E115.80029
G0 F10500 X114.486 Y93.716
G1 F1500 X99.770 Y79.000 E116.64302
G0 F10500 X100.094 Y80.207
G1 F1500 X115.232 Y95.345 E117.50991
G0 F10500 X115.932 Y96.045
G1 F1500 X117.088 Y97.201 E117.57611
G0 F10500 X117.589 Y96.819
G1 F1500 X117.785 Y97.015 E117.58734
G0 F10500 X116.391 Y97.388
G1 F1500 X100.417 Y81.414 E118.50211
G0 F10500 X100.741 Y82.622
G1 F1500 X115.694 Y97.575 E119.35841
G0 F10500 X114.997 Y97.762
G1 F1500 X101.064 Y83.829 E120.15630
G0 F10500 X101.388 Y85.037
G1 F1500 X114.300 Y97.949 E120.89572
G0 F10500 X113.603 Y98.136
G1 F1500 X101.711 Y86.244 E121.57673
G0 F10500 X102.035 Y87.452
G1 F1500 X112.906 Y98.323 E122.19927
G0 F10500 X112.210 Y98.510
G1 F1500 X102.358 Y88.659 E122.76343
G0 F10500 X102.681 Y89.866
G1 F1500 X111.512 Y98.697 E123.26915
G0 F10500 X110.816 Y98.884
G1 F1500 X103.005 Y91.073 E123.71645
G0 F10500 X103.328 Y92.280
G1 F1500 X110.119 Y99.071 E124.10535
G0 F10500 X109.421 Y99.257
G1 F1500 X103.652 Y93.488 E124.43572
G0 F10500 X103.975 Y94.695
G1 F1500 X108.725 Y99.445 E124.70773
G0 F10500 X108.028 Y99.632
G1 F1500 X104.299 Y95.903 E124.92128
G0 F10500 X104.622 Y97.110
G1 F1500 X107.331 Y99.819 E125.07641
G0 F10500 X106.634 Y100.006
G1 F1500 X104.946 Y98.318 E125.17307
G0 F10500 X105.269 Y99.525
G1 F1500 X105.937 Y100.192 E125.21130
G0 F10500 X112.872 Y81.495
G1 F1500 X106.893 Y75.516 E125.55369
G0 F10500 X107.076 Y74.815
G1 F1500 X111.590 Y79.329 E125.81219
G0 F10500 X110.710 Y77.565
G1 F1500 X107.118 Y73.973 E126.01789
G0 F10500 X106.909 Y72.880
G1 F1500 X110.047 Y76.018 E126.19760
G1 F420 E124.19760
G1 Z0.525
G0 F10500 X101.252 Y104.067
;TYPE:WALL-INNER
G1 Z0.425
G1 F420 E126.19760
G1 F1500 X97.523 Y117.986 E126.78110
G1 X97.398 Y118.428 E126.79970
G1 X97.242 Y118.831 E126.81720
G1 X97.105 Y119.113 E126.82989
G1 X96.888 Y119.467 E126.84671
G1 X96.622 Y119.815 E126.86444
G1 X96.337 Y120.116 E126.88123
G1 X96.022 Y120.388 E126.89808
G1 X95.664 Y120.636 E126.91572
G1 X95.119 Y120.918 E126.94056
G1 X94.679 Y121.076 E126.95950
G1 X94.097 Y121.202 E126.98361
G1 X93.878 Y121.226 E126.99253
G1 X93.461 Y121.240 E127.00942
G1 X92.940 Y121.198 E127.03059
G1 X92.532 Y121.117 E127.04743
G1 X92.113 Y120.984 E127.06523
G1 X91.724 Y120.816 E127.08239
G1 X91.354 Y120.606 E127.09962
G1 X91.007 Y120.359 E127.11687
G1 X90.694 Y120.084 E127.13374
G1 X90.400 Y119.766 E127.15128
G1 X89.698 Y118.836 E127.19846
G1 X89.296 Y118.326 E127.22476
G1 X88.887 Y117.831 E127.25076
G1 X88.458 Y117.332 E127.27740
G1 X88.024 Y116.849 E127.30370
G1 X87.581 Y116.375 E127.32997
G1 X87.126 Y115.909 E127.35634
G1 X86.669 Y115.461 E127.38226
G1 X86.189 Y115.009 E127.40895
G1 X85.707 Y114.574 E127.43525
G1 X85.215 Y114.149 E127.46157
G1 X84.723 Y113.741 E127.48745
G1 X84.207 Y113.330 E127.51417
G1 X83.690 Y112.937 E127.54046
G1 X83.165 Y112.555 E127.56675
G1 X82.640 Y112.189 E127.59267
G1 X82.091 Y111.823 E127.61939
G1 X81.543 Y111.475 E127.64567
G1 X80.996 Y111.143 E127.67158
G1 X80.434 Y110.818 E127.69787
G1 X79.858 Y110.500 E127.72452
G1 X79.281 Y110.197 E127.75091
G1 X78.707 Y109.912 E127.77686
G1 X78.120 Y109.636 E127.80312
G1 X77.519 Y109.367 E127.82979
G1 X76.919 Y109.115 E127.85614
G1 X76.325 Y108.880 E127.88200
G1 X75.707 Y108.649 E127.90872
G1 X75.093 Y108.436 E127.93504
G1 X74.475 Y108.235 E127.96135
G1 X73.863 Y108.050 E127.98724
G1 X73.228 Y107.872 E128.01395
G1 X72.598 Y107.711 E128.04028
G1 X71.976 Y107.565 E128.06615
G1 X71.340 Y107.429 E128.09248
G1 X70.693 Y107.306 E128.11915
G1 X70.062 Y107.199 E128.14507
G1 X69.408 Y107.102 E128.17184
G1 X68.777 Y107.025 E128.19758
G1 X67.804 Y106.926 E128.23718
G1 X67.147 Y106.878 E128.26386
G1 X66.508 Y106.846 E128.28977
G1 X65.849 Y106.824 E128.31647
G1 X65.208 Y106.819 E128.34242
G1 X64.551 Y106.825 E128.36903
G1 X63.909 Y106.845 E128.39504
G1 X63.251 Y106.881 E128.42172
G1 X62.613 Y106.928 E128.44763
G1 X61.967 Y106.989 E128.47390
G1 X61.321 Y107.064 E128.50024
G1 X60.677 Y107.153 E128.52656
G1 X60.036 Y107.255 E128.55285
G1 X59.396 Y107.371 E128.57918
G1 X58.760 Y107.501 E128.60547
G1 X58.127 Y107.643 E128.63174
G1 X57.495 Y107.798 E128.65809
G1 X56.868 Y107.967 E128.68439
G1 X56.244 Y108.148 E128.71069
G1 X55.624 Y108.344 E128.73702
G1 X55.010 Y108.552 E128.76328
G1 X54.399 Y108.772 E128.78957
G1 X53.792 Y109.006 E128.81591
G1 X53.192 Y109.253 E128.84219
G1 X52.619 Y109.501 E128.86747
G1 X52.202 Y109.656 E128.88549
G1 X51.790 Y109.762 E128.90271
G1 X51.267 Y109.832 E128.92408
G1 X50.949 Y109.841 E128.93696
G1 X50.534 Y109.816 E128.95380
G1 X50.112 Y109.746 E128.97112
G1 X49.707 Y109.634 E128.98813
G1 X49.313 Y109.480 E129.00526
G1 X48.938 Y109.285 E129.02238
G1 X48.582 Y109.051 E129.03963
G1 X48.339 Y108.857 E129.05222
G1 X48.029 Y108.559 E129.06963
G1 X47.758 Y108.239 E129.08661
G1 X47.523 Y107.894 E129.10352
G1 X47.311 Y107.501 E129.12160
G1 X47.157 Y107.122 E129.13816
G1 X47.016 Y106.621 E129.15924
G1 X46.940 Y106.091 E129.18092
G1 X46.928 Y105.784 E129.19336
G1 X46.981 Y105.116 E129.22050
G1 X50.861 Y90.564 E129.83034
G1 X101.252 Y104.067 E131.94283
G0 F10500 X95.562 Y113.918
G1 F1500 X94.901 Y113.591 E131.97269
G1 X94.291 Y113.415 E131.99840
G1 X93.891 Y113.357 E132.01477
G1 X93.514 Y113.340 E132.03005
G1 X92.915 Y113.388 E132.05438
G1 X92.308 Y113.538 E132.07970
G1 X91.726 Y113.796 E132.10548
G1 X91.205 Y114.124 E132.13041
G1 X90.823 Y114.456 E132.15090
G1 X90.370 Y114.999 E132.17954
G1 X90.008 Y115.649 E132.20966
G1 X89.787 Y116.337 E132.23893
G1 X89.717 Y116.747 E132.25577
G1 X89.693 Y117.231 E132.27539
G1 X89.735 Y117.751 E132.29652
G1 X89.875 Y118.354 E132.32158
G1 X90.157 Y119.011 E132.35053
G1 X90.564 Y119.614 E132.37999
G1 X90.931 Y120.004 E132.40168
G1 X91.420 Y120.388 E132.42686
G1 X92.051 Y120.722 E132.45577
G1 X92.741 Y120.936 E132.48502
G1 X93.146 Y120.997 E132.50160
G1 X93.546 Y121.018 E132.51782
G1 X94.150 Y120.969 E132.54236
G1 X94.756 Y120.819 E132.56764
G1 X95.338 Y120.561 E132.59342
G1 X95.859 Y120.233 E132.61835
G1 X96.241 Y119.901 E132.63884
G1 X96.694 Y119.358 E132.66748
G1 X97.056 Y118.708 E132.69761
G1 X97.277 Y118.020 E132.72687
G1 X97.347 Y117.610 E132.74371
G1 X97.371 Y117.126 E132.76333
G1 X97.329 Y116.606 E132.78446
G1 X97.189 Y116.003 E132.80952
G1 X96.907 Y115.346 E132.83848
G1 X96.500 Y114.743 E132.86793
G1 X96.127 Y114.348 E132.88993
G1 X95.562 Y113.918 E132.91868
G0 F10500 X78.178 Y103.775
G1 F1500 X78.488 Y103.115 E132.94821
G1 X78.660 Y102.437 E132.97654
G1 X78.704 Y102.019 E132.99356
G1 X78.709 Y101.758 E133.00413
G1 X78.668 Y101.246 E133.02493
G1 X78.502 Y100.581 E133.05268
G1 X78.342 Y100.184 E133.07001
G1 X77.990 Y99.586 E133.09811
G1 X77.579 Y99.102 E133.12382
G1 X77.271 Y98.830 E133.14046
G1 X76.879 Y98.553 E133.15990
G1 X76.433 Y98.317 E133.18033
G1 X75.770 Y98.092 E133.20868
G1 X75.153 Y97.998 E133.23395
G1 X74.842 Y97.986 E133.24656
G1 X74.159 Y98.052 E133.27434
G1 X73.528 Y98.227 E133.30086
G1 X72.890 Y98.535 E133.32955
G1 X72.358 Y98.919 E133.35611
G1 X71.863 Y99.437 E133.38513
G1 X71.459 Y100.062 E133.41526
G1 X71.184 Y100.749 E133.44523
G1 X71.057 Y101.379 E133.47125
G1 X71.032 Y101.878 E133.49148
G1 X71.074 Y102.397 E133.51257
G1 X71.214 Y103.000 E133.53763
G1 X71.486 Y103.637 E133.56568
G1 X71.708 Y104.002 E133.58298
G1 X72.155 Y104.542 E133.61137
G1 X72.724 Y105.009 E133.64117
G1 X73.276 Y105.319 E133.66681
G1 X73.961 Y105.556 E133.69616
G1 X74.478 Y105.643 E133.71739
G1 X74.884 Y105.664 E133.73385
G1 X75.495 Y105.615 E133.75867
G1 X76.177 Y105.436 E133.78723
G1 X76.768 Y105.166 E133.81354
G1 X77.266 Y104.825 E133.83798
G1 X77.572 Y104.555 E133.85450
G1 X77.894 Y104.191 E133.87418
G1 X78.178 Y103.775 E133.89458
G0 F10500 X76.139 Y105.329
G0 X73.990 Y105.446
G0 X54.829 Y105.727
G1 F1500 X54.787 Y105.207 E133.91570
G1 X54.652 Y104.624 E133.93993
G1 X54.523 Y104.280 E133.95481
G1 X54.400 Y104.015 E133.96664
G1 X54.040 Y103.448 E133.99384
G1 X53.762 Y103.123 E134.01116
G1 X53.220 Y102.653 E134.04021
G1 X52.688 Y102.336 E134.06528
G1 X52.193 Y102.132 E134.08696
G1 X51.526 Y101.978 E134.11468
G1 X51.135 Y101.943 E134.13058
G1 X50.950 Y101.942 E134.13807
G1 X50.278 Y102.006 E134.16540
G1 X49.647 Y102.181 E134.19192
G1 X49.038 Y102.475 E134.21930
G1 X48.870 Y102.580 E134.22733
G1 X48.639 Y102.744 E134.23880
G1 X48.131 Y103.215 E134.26685
G1 X47.691 Y103.814 E134.29695
G1 X47.372 Y104.489 E134.32718
G1 X47.201 Y105.168 E134.35553
G1 X47.157 Y105.587 E134.37259
G1 X47.152 Y105.847 E134.38312
G1 X47.193 Y106.351 E134.40360
G1 X47.328 Y106.934 E134.42783
G1 X47.467 Y107.306 E134.44391
G1 X47.797 Y107.913 E134.47189
G1 X48.196 Y108.413 E134.49779
G1 X48.591 Y108.779 E134.51960
G1 X49.172 Y109.162 E134.54777
G1 X49.658 Y109.381 E134.56936
G1 X50.255 Y109.550 E134.59448
G1 X50.983 Y109.620 E134.62410
G1 X51.614 Y109.569 E134.64973
G1 X52.298 Y109.390 E134.67836
G1 X52.887 Y109.120 E134.70460
G1 X53.405 Y108.766 E134.73001
G1 X53.899 Y108.283 E134.75798
G1 X54.176 Y107.924 E134.77634
G1 X54.514 Y107.306 E134.80487
G1 X54.735 Y106.621 E134.83401
G1 X54.805 Y106.211 E134.85086
G1 X54.829 Y105.727 E134.87048
G0 F10500 X54.203 Y105.736
;TYPE:WALL-OUTER
G1 F1500 X54.168 Y105.303 E134.88807
G1 X54.052 Y104.806 E134.90874
G1 X53.946 Y104.522 E134.92101
G1 X53.850 Y104.315 E134.93025
G1 X53.536 Y103.821 E134.95395
G1 X53.317 Y103.565 E134.96760
G1 X52.853 Y103.161 E134.99251
G1 X52.408 Y102.896 E135.01348
G1 X52.003 Y102.730 E135.03120
G1 X51.427 Y102.597 E135.05514
G1 X51.104 Y102.568 E135.06827
G1 X50.977 Y102.567 E135.07342
G1 X50.392 Y102.623 E135.09721
G1 X49.869 Y102.768 E135.11919
G1 X49.340 Y103.023 E135.14297
G1 X49.034 Y103.230 E135.15793
G1 X48.599 Y103.633 E135.18194
G1 X48.230 Y104.135 E135.20717
G1 X47.963 Y104.700 E135.23248
G1 X47.818 Y105.277 E135.25657
G1 X47.781 Y105.625 E135.27074
G1 X47.778 Y105.828 E135.27896
G1 X47.812 Y106.255 E135.29630
G1 X47.928 Y106.752 E135.31697
G1 X48.037 Y107.046 E135.32967
G1 X48.320 Y107.566 E135.35364
G1 X48.656 Y107.987 E135.37545
G1 X48.978 Y108.285 E135.39322
G1 X49.474 Y108.612 E135.41727
G1 X49.873 Y108.792 E135.43500
G1 X50.371 Y108.933 E135.45596
G1 X50.988 Y108.992 E135.48106
G1 X51.508 Y108.951 E135.50218
G1 X52.086 Y108.799 E135.52638
G1 X52.578 Y108.574 E135.54829
G1 X53.008 Y108.280 E135.56938
G1 X53.431 Y107.867 E135.59332
G1 X53.651 Y107.581 E135.60793
G1 X53.938 Y107.058 E135.63209
G1 X54.127 Y106.472 E135.65702
G1 X54.183 Y106.143 E135.67053
G1 X54.203 Y105.736 E135.68703
G0 F10500 X54.615 Y105.755
G0 X55.071 Y108.756
G0 X55.216 Y109.142
G1 F1500 X54.617 Y109.358 E135.71282
G1 X54.024 Y109.587 E135.73856
G1 X53.435 Y109.828 E135.76433
G1 X52.860 Y110.078 E135.78972
G1 X52.394 Y110.251 E135.80985
G1 X51.678 Y110.417 E135.83961
G1 X51.314 Y110.456 E135.85443
G1 X50.941 Y110.467 E135.86954
G1 X50.467 Y110.438 E135.88877
G1 X49.980 Y110.357 E135.90876
G1 X49.512 Y110.228 E135.92842
G1 X49.052 Y110.048 E135.94842
G1 X48.621 Y109.824 E135.96809
G1 X48.214 Y109.557 E135.98780
G1 X47.922 Y109.324 E136.00293
G1 X47.578 Y108.992 E136.02229
G1 X47.262 Y108.619 E136.04208
G1 X46.985 Y108.214 E136.06195
G1 X46.751 Y107.780 E136.08192
G1 X46.489 Y107.089 E136.11184
G1 X46.358 Y106.498 E136.13636
G1 X46.317 Y106.150 E136.15055
G1 X46.303 Y105.774 E136.16578
G1 X46.330 Y105.269 E136.18626
G1 X46.379 Y104.928 E136.20021
G1 X50.419 Y89.799 E136.83430
G1 X102.017 Y103.624 E138.99737
G1 X98.124 Y118.157 E139.60661
G1 X97.991 Y118.626 E139.62635
G1 X97.815 Y119.084 E139.64622
G1 X97.656 Y119.409 E139.66087
G1 X97.399 Y119.828 E139.68077
G1 X97.109 Y120.208 E139.70013
G1 X96.763 Y120.574 E139.72052
G1 X96.400 Y120.887 E139.73993
G1 X95.993 Y121.168 E139.75996
G1 X95.577 Y121.397 E139.77919
G1 X95.349 Y121.500 E139.78932
G1 X94.875 Y121.670 E139.80971
G1 X94.410 Y121.783 E139.82909
G1 X93.939 Y121.848 E139.84834
G1 X93.438 Y121.866 E139.86864
G1 X92.953 Y121.831 E139.88833
G1 X92.357 Y121.717 E139.91290
G1 X91.893 Y121.570 E139.93261
G1 X91.450 Y121.379 E139.95215
G1 X91.013 Y121.132 E139.97247
G1 X90.620 Y120.851 E139.99204
G1 X90.252 Y120.527 E140.01189
G1 X89.927 Y120.175 E140.03129
G1 X89.203 Y119.218 E140.07988
G1 X88.809 Y118.718 E140.10566
G1 X88.410 Y118.234 E140.13106
G1 X87.988 Y117.745 E140.15722
G1 X87.563 Y117.271 E140.18300
G1 X87.129 Y116.807 E140.20872
G1 X86.684 Y116.351 E140.23452
G1 X86.236 Y115.912 E140.25992
G1 X85.766 Y115.469 E140.28608
G1 X85.294 Y115.042 E140.31185
G1 X84.812 Y114.626 E140.33763
G1 X84.329 Y114.226 E140.36303
G1 X83.824 Y113.824 E140.38916
G1 X83.317 Y113.439 E140.41494
G1 X82.802 Y113.064 E140.44074
G1 X82.288 Y112.705 E140.46613
G1 X81.750 Y112.347 E140.49229
G1 X81.213 Y112.006 E140.51805
G1 X80.677 Y111.681 E140.54343
G1 X80.127 Y111.362 E140.56918
G1 X79.562 Y111.050 E140.59532
G1 X78.997 Y110.754 E140.62114
G1 X78.435 Y110.475 E140.64655
G1 X77.859 Y110.204 E140.67233
G1 X77.270 Y109.941 E140.69845
G1 X76.683 Y109.694 E140.72424
G1 X76.101 Y109.464 E140.74958
G1 X75.495 Y109.237 E140.77578
G1 X74.894 Y109.028 E140.80155
G1 X74.288 Y108.831 E140.82735
G1 X73.688 Y108.650 E140.85273
G1 X73.066 Y108.476 E140.87888
G1 X72.449 Y108.318 E140.90467
G1 X71.839 Y108.175 E140.93004
G1 X71.217 Y108.042 E140.95580
G1 X70.582 Y107.921 E140.98198
G1 X69.964 Y107.817 E141.00735
G1 X69.324 Y107.722 E141.03355
G1 X68.703 Y107.645 E141.05889
G1 X67.752 Y107.549 E141.09760
G1 X67.108 Y107.502 E141.12374
G1 X66.482 Y107.470 E141.14912
G1 X65.836 Y107.449 E141.17530
G1 X65.209 Y107.444 E141.20069
G1 X64.564 Y107.450 E141.22681
G1 X63.936 Y107.469 E141.25225
G1 X63.291 Y107.505 E141.27841
G1 X62.666 Y107.551 E141.30378
G1 X62.032 Y107.611 E141.32957
G1 X61.400 Y107.684 E141.35533
G1 X60.769 Y107.771 E141.38113
G1 X60.141 Y107.871 E141.40688
G1 X59.514 Y107.985 E141.43268
G1 X58.891 Y108.112 E141.45843
G1 X58.270 Y108.251 E141.48420
G1 X57.651 Y108.403 E141.51001
G1 X57.037 Y108.569 E141.53576
G1 X56.425 Y108.746 E141.56156
G1 X55.819 Y108.938 E141.58730
G1 X55.216 Y109.142 E141.61308
G0 F10500 X55.071 Y108.756
G0 X71.430 Y102.965
G0 X71.810 Y102.805
G1 F1500 X72.043 Y103.350 E141.63708
G1 X72.218 Y103.638 E141.65072
G1 X72.598 Y104.097 E141.67485
G1 X73.078 Y104.491 E141.70000
G1 X73.533 Y104.747 E141.72114
G1 X74.117 Y104.948 E141.74615
G1 X74.546 Y105.021 E141.76377
G1 X74.875 Y105.038 E141.77711
G1 X75.389 Y104.997 E141.79799
G1 X75.966 Y104.845 E141.82215
G1 X76.459 Y104.620 E141.84410
G1 X76.881 Y104.331 E141.86481
G1 X77.130 Y104.111 E141.87826
G1 X77.401 Y103.806 E141.89478
G1 X77.634 Y103.464 E141.91154
G1 X77.897 Y102.904 E141.93659
G1 X78.043 Y102.327 E141.96070
G1 X78.080 Y101.980 E141.97483
G1 X78.083 Y101.777 E141.98305
G1 X78.049 Y101.347 E142.00051
G1 X77.906 Y100.774 E142.02443
G1 X77.780 Y100.461 E142.03809
G1 X77.479 Y99.949 E142.06214
G1 X77.131 Y99.541 E142.08386
G1 X76.883 Y99.321 E142.09728
G1 X76.551 Y99.087 E142.11373
G1 X76.185 Y98.893 E142.13050
G1 X75.621 Y98.702 E142.15461
G1 X75.094 Y98.621 E142.17620
G1 X74.861 Y98.612 E142.18565
G1 X74.273 Y98.669 E142.20957
G1 X73.750 Y98.814 E142.23154
G1 X73.212 Y99.074 E142.25574
G1 X72.770 Y99.393 E142.27781
G1 X72.355 Y99.827 E142.30213
G1 X72.016 Y100.350 E142.32737
G1 X71.786 Y100.928 E142.35256
G1 X71.679 Y101.457 E142.37441
G1 X71.658 Y101.869 E142.39112
G1 X71.693 Y102.301 E142.40867
G1 X71.810 Y102.805 E142.42962
G0 F10500 X71.430 Y102.965
G0 X72.235 Y104.461
G0 X73.990 Y105.446
G0 X90.571 Y115.089
G0 X90.888 Y115.354
G1 F1500 X90.584 Y115.899 E142.45489
G1 X90.395 Y116.486 E142.47986
G1 X90.339 Y116.815 E142.49337
G1 X90.319 Y117.222 E142.50987
G1 X90.354 Y117.655 E142.52746
G1 X90.471 Y118.159 E142.54842
G1 X90.708 Y118.710 E142.57270
G1 X91.054 Y119.223 E142.59776
G1 X91.354 Y119.541 E142.61546
G1 X91.762 Y119.862 E142.63648
G1 X92.292 Y120.142 E142.66076
G1 X92.881 Y120.325 E142.68573
G1 X93.209 Y120.375 E142.69917
G1 X93.537 Y120.392 E142.71247
G1 X94.048 Y120.350 E142.73323
G1 X94.552 Y120.225 E142.75426
G1 X95.077 Y119.993 E142.77750
G1 X95.480 Y119.734 E142.79690
G1 X95.793 Y119.462 E142.81369
G1 X96.176 Y119.003 E142.83790
G1 X96.480 Y118.458 E142.86316
G1 X96.669 Y117.871 E142.88814
G1 X96.725 Y117.542 E142.90165
G1 X96.745 Y117.135 E142.91815
G1 X96.710 Y116.702 E142.93574
G1 X96.593 Y116.198 E142.95669
G1 X96.356 Y115.647 E142.98098
G1 X96.010 Y115.134 E143.00604
G1 X95.708 Y114.814 E143.02385
G1 X95.231 Y114.452 E143.04810
G1 X94.674 Y114.176 E143.07327
G1 X94.159 Y114.027 E143.09498
G1 X93.832 Y113.980 E143.10836
G1 X93.525 Y113.966 E143.12081
G1 X93.016 Y114.007 E143.14148
G1 X92.512 Y114.132 E143.16251
G1 X91.987 Y114.364 E143.18575
G1 X91.584 Y114.623 E143.20515
G1 X91.271 Y114.895 E143.22194
G1 X90.888 Y115.354 E143.24615
G0 F10500 X90.361 Y114.668
;TYPE:SKIN
G1 F1500 X78.732 Y103.040 E143.91207
G0 F10500 X78.471 Y103.663
G1 F1500 X90.007 Y115.199 E144.57269
G0 F10500 X89.728 Y115.803
G1 F1500 X78.140 Y104.216 E145.23626
G0 F10500 X77.737 Y104.697
G1 F1500 X89.538 Y116.497 E145.91203
G0 F10500 X89.480 Y117.323
G1 F1500 X77.254 Y105.097 E146.61217
G0 F10500 X76.706 Y105.433
G1 F1500 X84.775 Y113.502 E147.07425
G0 F10500 X81.711 Y111.322
G1 F1500 X76.076 Y105.687 E147.39695
G0 F10500 X75.351 Y105.846
G1 F1500 X79.644 Y110.139 E147.64279
G0 F10500 X77.933 Y109.311
G1 F1500 X74.483 Y105.861 E147.84036
G0 F10500 X73.293 Y105.555
G1 F1500 X76.417 Y108.679 E148.01926
G0 F10500 X75.041 Y108.188
G1 F1500 X60.126 Y93.273 E148.87338
G0 F10500 X61.333 Y93.596
G1 F1500 X71.155 Y103.417 E149.43582
G0 F10500 X70.840 Y102.218
G1 F1500 X62.541 Y93.920 E149.91105
G0 F10500 X63.748 Y94.243
G1 F1500 X70.842 Y101.337 E150.31729
G0 F10500 X71.002 Y100.613
G1 F1500 X64.956 Y94.567 E150.66353
G0 F10500 X66.163 Y94.890
G1 F1500 X71.255 Y99.982 E150.95513
G0 F10500 X71.598 Y99.441
G1 F1500 X67.371 Y95.214 E151.19719
G0 F10500 X68.578 Y95.537
G1 F1500 X72.008 Y98.967 E151.39361
G0 F10500 X72.482 Y98.557
G1 F1500 X69.785 Y95.861 E151.54803
G0 F10500 X70.992 Y96.184
G1 F1500 X73.031 Y98.222 E151.66477
G0 F10500 X73.655 Y97.963
G1 F1500 X72.200 Y96.508 E151.74809
G0 F10500 X73.407 Y96.831
G1 F1500 X74.385 Y97.809 E151.80410
G0 F10500 X74.615 Y97.155
G1 F1500 X75.536 Y97.634 E151.84042
G1 X76.426 Y98.082 E151.88076
G0 F10500 X77.030 Y97.802
G1 F1500 X92.493 Y113.265 E152.76627
G0 F10500 X91.846 Y113.501
G1 F1500 X78.611 Y100.267 E153.52416
G0 F10500 X78.902 Y101.442
G1 F1500 X91.278 Y113.818 E154.23289
G0 F10500 X90.779 Y114.202
G1 F1500 X78.893 Y102.316 E154.91355
G0 F10500 X77.196 Y104.735
G0 X73.763 Y107.794
G1 F1500 X58.918 Y92.949 E155.76367
G0 F10500 X57.711 Y92.626
G1 F1500 X72.564 Y107.478 E156.61422
G0 F10500 X71.424 Y107.222
G1 F1500 X56.504 Y92.302 E157.46863
G0 F10500 X55.297 Y91.979
G1 F1500 X70.341 Y107.023 E158.33014
G0 F10500 X69.301 Y106.867
G1 F1500 X54.089 Y91.655 E159.20127
G0 F10500 X52.882 Y91.332
G1 F1500 X68.306 Y106.756 E160.08455
G0 F10500 X67.338 Y106.672
G1 F1500 X51.674 Y91.008 E160.98157
G0 F10500 X50.930 Y91.148
G1 F1500 X66.404 Y106.621 E161.86767
G0 F10500 X65.500 Y106.601
G1 F1500 X50.744 Y91.846 E162.71267
G0 F10500 X50.558 Y92.544
G1 F1500 X64.619 Y106.604 E163.51786
G0 F10500 X63.763 Y106.632
G1 F1500 X50.372 Y93.241 E164.28471
G0 F10500 X50.186 Y93.939
G1 F1500 X62.931 Y106.684 E165.01457
G0 F10500 X62.117 Y106.754
G1 F1500 X50.000 Y94.637 E165.70846
G0 F10500 X49.814 Y95.334
G1 F1500 X61.321 Y106.841 E166.36742
G0 F10500 X60.546 Y106.950
G1 F1500 X49.628 Y96.032 E166.99266
G0 F10500 X49.442 Y96.730
G1 F1500 X59.786 Y107.075 E167.58505
G0 F10500 X59.045 Y107.217
G1 F1500 X49.256 Y97.428 E168.14562
G0 F10500 X49.070 Y98.126
G1 F1500 X53.869 Y102.925 E168.42045
G0 F10500 X53.947 Y103.003
G1 F1500 X58.318 Y107.374 E168.67076
G0 F10500 X57.604 Y107.544
G1 F1500 X54.934 Y104.874 E168.82366
G0 F10500 X55.041 Y105.865
G1 F1500 X56.905 Y107.729 E168.93040
G0 F10500 X56.217 Y107.925
G1 F1500 X54.949 Y106.657 E169.00301
G0 F10500 X54.736 Y107.328
G1 F1500 X55.216 Y108.249 E169.04938
G1 X54.248 Y108.166 E169.07531
G1 X54.238 Y108.598 E169.09281
G0 F10500 X54.675 Y105.225
G0 X53.681 Y103.203
G0 X51.898 Y101.838
G1 F1500 X48.883 Y98.823 E169.26547
G0 F10500 X48.697 Y99.521
G1 F1500 X50.901 Y101.725 E169.39168
G0 F10500 X50.115 Y101.823
G1 F1500 X48.511 Y100.219 E169.48354
G0 F10500 X48.325 Y100.917
G1 F1500 X49.443 Y102.034 E169.54753
G0 F10500 X48.854 Y102.330
G1 F1500 X48.046 Y101.964 E169.58845
G1 X48.128 Y102.930 E169.61112
G1 X47.767 Y103.011 E169.62611
G0 F10500 X51.128 Y102.056
G0 X75.142 Y98.110
G0 X78.237 Y98.125
G1 F1500 X93.251 Y113.139 E170.48590
G0 F10500 X94.170 Y113.174
G1 F1500 X79.444 Y98.449 E171.32917
G0 F10500 X80.651 Y98.772
G1 F1500 X95.544 Y113.664 E172.18201
G0 F10500 X97.059 Y115.179
G1 F1500 X97.838 Y115.959 E172.22665
G0 F10500 X98.025 Y115.261
G1 F1500 X81.859 Y99.096 E173.15239
G0 F10500 X83.066 Y99.419
G1 F1500 X98.212 Y114.564 E174.01971
G0 F10500 X98.399 Y113.868
G1 F1500 X84.274 Y99.743 E174.82860
G0 F10500 X85.481 Y100.066
G1 F1500 X98.586 Y113.171 E175.57907
G0 F10500 X98.772 Y112.473
G1 F1500 X86.689 Y100.390 E176.27102
G0 F10500 X87.896 Y100.713
G1 F1500 X98.959 Y111.776 E176.90455
G0 F10500 X99.146 Y111.079
G1 F1500 X89.103 Y101.037 E177.47965
G0 F10500 X90.310 Y101.360
G1 F1500 X99.332 Y110.382 E177.99631
G0 F10500 X99.520 Y109.685
G1 F1500 X91.518 Y101.684 E178.45452
G0 F10500 X92.725 Y102.007
G1 F1500 X99.707 Y108.988 E178.85432
G0 F10500 X99.893 Y108.291
G1 F1500 X93.933 Y102.331 E179.19563
G0 F10500 X95.140 Y102.654
G1 F1500 X100.080 Y107.594 E179.47853
G0 F10500 X100.267 Y106.896
G1 F1500 X96.348 Y102.978 E179.70292
G0 F10500 X97.555 Y103.301
G1 F1500 X100.453 Y106.199 E179.86888
G0 F10500 X100.640 Y105.502
G1 F1500 X98.763 Y103.625 E179.97637
G0 F10500 X99.970 Y103.948
G1 F1500 X100.827 Y104.805 E180.02545
;LAYER:1
M106 S38
G1 F420 E178.02545
G1 Z0.525
G0 F10500 X67.737 Y67.124 Z0.775
;TYPE:WALL-INNER
G1 Z0.775
G1 F420 E180.02545
G1 F1560 X68.036 Y66.840 E180.03645
G1 X68.332 Y66.472 E180.04905
G1 X68.588 Y66.032 E180.06263
G1 X68.710 Y65.746 E180.07092
G1 X68.830 Y65.352 E180.08191
G1 X68.910 Y64.802 E180.09674
G1 X68.917 Y64.581 E180.10264
G1 X68.860 Y63.961 E180.11925
G1 X68.654 Y63.298 E180.13777
G1 X68.319 Y62.693 E180.15622
G1 X68.042 Y62.353 E180.16792
G1 X67.574 Y61.931 E180.18473
G1 X67.019 Y61.602 E180.20194
G1 X66.424 Y61.391 E180.21878
G1 X66.011 Y61.315 E180.22999
G1 X65.586 Y61.291 E180.24134
G1 X64.901 Y61.367 E180.25973
G1 X64.283 Y61.570 E180.27708
G1 X63.691 Y61.908 E180.29527
G1 X63.314 Y62.225 E180.30841
G1 X62.937 Y62.661 E180.32379
G1 X62.627 Y63.193 E180.34021
G1 X62.522 Y63.441 E180.34740
G1 X62.402 Y63.835 E180.35839
G1 X62.322 Y64.385 E180.37321
G1 X62.315 Y64.606 E180.37911
G1 X62.372 Y65.226 E180.39572
G1 X62.578 Y65.888 E180.41422
G1 X62.913 Y66.492 E180.43264
G1 X63.189 Y66.834 E180.44437
G1 X63.642 Y67.240 E180.46060
G1 X64.215 Y67.585 E180.47844
G1 X64.814 Y67.797 E180.49539
G1 X65.326 Y67.883 E180.50924
G1 X65.647 Y67.894 E180.51781
G1 X66.225 Y67.841 E180.53330
G1 X66.880 Y67.644 E180.55154
G1 X67.400 Y67.373 E180.56719
G1 X67.737 Y67.124 E180.57836
G1 F420 E178.57836
G1 Z0.875
G0 F10500 X46.232 Y72.457
G1 Z0.775
G1 F420 E180.57836
G1 F1560 X46.089 Y71.939 E180.59270
G1 X45.850 Y71.435 E180.60758
G1 X45.674 Y71.158 E180.61634
G1 X45.341 Y70.758 E180.63022
G1 X44.894 Y70.382 E180.64580
G1 X44.296 Y70.045 E180.66412
G1 X43.846 Y69.891 E180.67681
G1 X43.391 Y69.801 E180.68918
G1 X43.012 Y69.776 E180.69931
G1 X42.385 Y69.830 E180.71610
G1 X41.767 Y70.009 E180.73327
G1 X41.207 Y70.298 E180.75008
G1 X40.854 Y70.558 E180.76177
G1 X40.404 Y71.025 E180.77907
G1 X40.066 Y71.541 E180.79553
G1 X39.897 Y71.916 E180.80650
G1 X39.771 Y72.347 E180.81848
G1 X39.693 Y72.876 E180.83275
G1 X39.688 Y73.196 E180.84129
G1 X39.746 Y73.707 E180.85501
G1 X39.888 Y74.218 E180.86916
G1 X40.127 Y74.722 E180.88404
G1 X40.307 Y75.005 E180.89298
G1 X40.712 Y75.472 E180.90948
G1 X41.088 Y75.778 E180.92241
G1 X41.681 Y76.112 E180.94057
G1 X42.131 Y76.266 E180.95325
G1 X42.593 Y76.358 E180.96582
G1 X43.070 Y76.380 E180.97856
G1 X43.598 Y76.325 E180.99272
G1 X44.210 Y76.148 E181.00972
G1 X44.770 Y75.859 E181.02653
G1 X45.123 Y75.599 E181.03823
G1 X45.580 Y75.124 E181.05581
G1 X45.805 Y74.805 E181.06622
G1 X46.076 Y74.254 E181.08261
G1 X46.206 Y73.810 E181.09495
G1 X46.283 Y73.288 E181.10902
G1 X46.290 Y73.065 E181.11498
G1 X46.232 Y72.457 E181.13127
G0 F10500 X45.357 Y68.423
G1 F1560 X45.988 Y68.290 E181.14847
G1 X46.616 Y68.144 E181.16568
G1 X47.242 Y67.985 E181.18291
G1 X47.843 Y67.818 E181.19955
G1 X48.482 Y67.626 E181.21735
G1 X49.098 Y67.427 E181.23462
G1 X49.707 Y67.215 E181.25182
G1 X50.293 Y67.000 E181.26847
G1 X50.914 Y66.754 E181.28629
G1 X51.509 Y66.505 E181.30350
G1 X52.098 Y66.242 E181.32071
G1 X52.664 Y65.978 E181.33737
G1 X53.262 Y65.681 E181.35518
G1 X53.835 Y65.382 E181.37242
G1 X54.381 Y65.083 E181.38903
G1 X54.941 Y64.761 E181.40626
G1 X55.513 Y64.416 E181.42409
G1 X56.058 Y64.069 E181.44132
G1 X56.578 Y63.725 E181.45796
G1 X57.108 Y63.358 E181.47515
G1 X57.649 Y62.965 E181.49299
G1 X58.163 Y62.575 E181.51021
G1 X58.653 Y62.188 E181.52686
G1 X59.167 Y61.762 E181.54467
G1 X59.656 Y61.341 E181.56189
G1 X60.137 Y60.908 E181.57915
G1 X60.591 Y60.481 E181.59578
G1 X61.068 Y60.015 E181.61357
G1 X61.520 Y59.553 E181.63081
G1 X61.947 Y59.099 E181.64744
G1 X62.379 Y58.619 E181.66467
G1 X62.816 Y58.114 E181.68248
G1 X63.213 Y57.633 E181.69912
G1 X63.629 Y57.110 E181.71695
G1 X64.005 Y56.612 E181.73360
G1 X64.397 Y56.074 E181.75136
G1 X64.754 Y55.560 E181.76805
G1 X65.111 Y55.022 E181.78528
G1 X65.456 Y54.477 E181.80248
G1 X65.791 Y53.925 E181.81971
G1 X66.114 Y53.367 E181.83691
G1 X66.426 Y52.800 E181.85418
G1 X66.725 Y52.227 E181.87142
G1 X67.011 Y51.650 E181.88860
G1 X67.296 Y51.046 E181.90642
G1 X67.549 Y50.475 E181.92308
G1 X67.800 Y49.880 E181.94031
G1 X68.037 Y49.279 E181.95754
G1 X68.261 Y48.674 E181.97475
G1 X68.474 Y48.064 E181.99199
G1 X68.672 Y47.450 E182.00920
G1 X68.859 Y46.832 E182.02642
G1 X69.032 Y46.209 E182.04367
G1 X69.191 Y45.585 E182.06085
G1 X69.339 Y44.955 E182.07812
G1 X69.472 Y44.324 E182.09532
G1 X69.593 Y43.689 E182.11257
G1 X69.700 Y43.053 E182.12977
G1 X69.794 Y42.413 E182.14703
G1 X69.940 Y41.233 E182.17875
G1 X70.038 Y40.796 E182.19070
G1 X70.177 Y40.381 E182.20237
G1 X70.360 Y39.979 E182.21416
G1 X70.591 Y39.587 E182.22630
G1 X70.845 Y39.242 E182.23772
G1 X71.147 Y38.911 E182.24968
G1 X71.478 Y38.617 E182.26149
G1 X71.837 Y38.359 E182.27328
G1 X72.219 Y38.142 E182.28500
G1 X72.632 Y37.960 E182.29704
G1 X73.048 Y37.827 E182.30870
G1 X73.480 Y37.737 E182.32047
G1 X73.927 Y37.691 E182.33246
G1 X74.143 Y37.686 E182.33822
G1 X74.597 Y37.711 E182.35035
G1 X75.025 Y37.780 E182.36192
G1 X75.458 Y37.898 E182.37389
G1 X75.861 Y38.053 E182.38541
G1 X76.270 Y38.263 E182.39767
G1 X76.627 Y38.495 E182.40903
G1 X76.978 Y38.779 E182.42108
G1 X77.547 Y39.339 E182.44237
G1 X87.637 Y49.430 E182.82307
G1 X50.484 Y86.584 E184.22481
G1 X40.002 Y76.103 E184.62026
G1 X39.689 Y75.755 E184.63275
G1 X39.427 Y75.396 E184.64460
G1 X39.207 Y75.016 E184.65632
G1 X39.025 Y74.610 E184.66819
G1 X38.887 Y74.187 E184.68006
G1 X38.766 Y73.552 E184.69730
G1 X38.740 Y73.093 E184.70957
G1 X38.761 Y72.660 E184.72113
G1 X38.828 Y72.216 E184.73311
G1 X38.940 Y71.788 E184.74491
G1 X39.096 Y71.376 E184.75667
G1 X39.298 Y70.973 E184.76869
G1 X39.601 Y70.513 E184.78339
G1 X39.878 Y70.184 E184.79486
G1 X40.203 Y69.870 E184.80692
G1 X40.552 Y69.597 E184.81874
G1 X40.928 Y69.362 E184.83057
G1 X41.538 Y69.084 E184.84845
G1 X41.843 Y68.986 E184.85700
G1 X42.282 Y68.888 E184.86900
G1 X43.445 Y68.744 E184.90026
G1 X44.084 Y68.651 E184.91749
G1 X44.701 Y68.548 E184.93418
G1 X45.357 Y68.423 E184.95199
G0 F10500 X52.077 Y66.197
G0 X57.619 Y62.925
G0 X62.341 Y58.586
G0 X66.070 Y53.342
G0 X68.624 Y47.434
G0 X71.706 Y44.175
G1 F1560 X72.174 Y44.597 E184.96880
G1 X72.729 Y44.926 E184.98602
G1 X73.324 Y45.137 E185.00286
G1 X73.737 Y45.213 E185.01406
G1 X74.162 Y45.237 E185.02542
G1 X74.847 Y45.161 E185.04380
G1 X75.465 Y44.958 E185.06116
G1 X76.050 Y44.624 E185.07913
G1 X76.355 Y44.378 E185.08958
G1 X76.774 Y43.918 E185.10618
G1 X77.055 Y43.473 E185.12022
G1 X77.224 Y43.094 E185.13129
G1 X77.346 Y42.693 E185.14247
G1 X77.426 Y42.143 E185.15730
G1 X77.433 Y41.922 E185.16320
G1 X77.376 Y41.302 E185.17981
G1 X77.170 Y40.640 E185.19831
G1 X76.835 Y40.036 E185.21673
G1 X76.559 Y39.694 E185.22846
G1 X76.106 Y39.288 E185.24469
G1 X75.533 Y38.943 E185.26253
G1 X74.934 Y38.731 E185.27948
G1 X74.422 Y38.645 E185.29333
G1 X74.101 Y38.634 E185.30190
G1 X73.523 Y38.687 E185.31738
G1 X72.868 Y38.884 E185.33563
G1 X72.348 Y39.155 E185.35128
G1 X72.011 Y39.404 E185.36245
G1 X71.714 Y39.686 E185.37338
G1 X71.460 Y39.998 E185.38411
G1 X71.259 Y40.306 E185.39392
G1 X71.043 Y40.767 E185.40751
G1 X70.915 Y41.203 E185.41963
G1 X70.838 Y41.725 E185.43370
G1 X70.831 Y41.947 E185.43963
G1 X70.888 Y42.567 E185.45624
G1 X71.094 Y43.230 E185.47476
G1 X71.429 Y43.835 E185.49321
G1 X71.706 Y44.175 E185.50491
G0 F10500 X72.069 Y43.830
;TYPE:WALL-OUTER
G1 F1440 X72.472 Y44.192 E185.51936
G1 X72.942 Y44.471 E185.53394
G1 X73.453 Y44.652 E185.54841
G1 X73.797 Y44.716 E185.55774
G1 X74.149 Y44.736 E185.56715
G1 X74.740 Y44.670 E185.58301
G1 X75.261 Y44.499 E185.59764
G1 X75.767 Y44.209 E185.61320
G1 X76.012 Y44.013 E185.62157
G1 X76.375 Y43.614 E185.63596
G1 X76.613 Y43.236 E185.64788
G1 X76.755 Y42.919 E185.65714
G1 X76.857 Y42.584 E185.66649
G1 X76.927 Y42.099 E185.67956
G1 X76.932 Y41.937 E185.68388
G1 X76.883 Y41.400 E185.69827
G1 X76.708 Y40.837 E185.71400
G1 X76.419 Y40.317 E185.72987
G1 X76.195 Y40.039 E185.73939
G1 X75.797 Y39.683 E185.75364
G1 X75.321 Y39.398 E185.76844
G1 X74.809 Y39.217 E185.78293
G1 X74.371 Y39.144 E185.79477
G1 X74.115 Y39.135 E185.80161
G1 X73.619 Y39.180 E185.81489
G1 X73.057 Y39.349 E185.83055
G1 X72.614 Y39.580 E185.84388
G1 X72.333 Y39.788 E185.85320
G1 X72.081 Y40.027 E185.86247
G1 X71.864 Y40.293 E185.87163
G1 X71.697 Y40.549 E185.87978
G1 X71.510 Y40.948 E185.89154
G1 X71.407 Y41.295 E185.90119
G1 X71.337 Y41.770 E185.91400
G1 X71.332 Y41.932 E185.91833
G1 X71.381 Y42.469 E185.93271
G1 X71.556 Y43.033 E185.94847
G1 X71.845 Y43.554 E185.96436
G1 X72.069 Y43.830 E185.97384
G0 F10500 X71.834 Y44.089
G0 X69.446 Y43.652
G0 X69.101 Y43.601
G1 F1440 X69.206 Y42.975 E185.99078
G1 X69.299 Y42.346 E186.00774
G1 X69.448 Y41.146 E186.04000
G1 X69.555 Y40.662 E186.05322
G1 X69.712 Y40.194 E186.06639
G1 X69.912 Y39.756 E186.07924
G1 X70.176 Y39.307 E186.09313
G1 X70.456 Y38.927 E186.10573
G1 X70.798 Y38.552 E186.11927
G1 X71.165 Y38.226 E186.13236
G1 X71.567 Y37.937 E186.14557
G1 X71.993 Y37.694 E186.15865
G1 X72.453 Y37.493 E186.17205
G1 X72.916 Y37.344 E186.18502
G1 X73.404 Y37.243 E186.19832
G1 X73.902 Y37.192 E186.21167
G1 X74.146 Y37.185 E186.21818
G1 X74.648 Y37.213 E186.23160
G1 X75.140 Y37.293 E186.24489
G1 X75.610 Y37.420 E186.25788
G1 X76.067 Y37.597 E186.27096
G1 X76.522 Y37.830 E186.28460
G1 X76.925 Y38.093 E186.29743
G1 X77.312 Y38.406 E186.31071
G1 X77.896 Y38.981 E186.33258
G1 X88.343 Y49.430 E186.72676
G1 X50.484 Y87.290 E188.15514
G1 X39.630 Y76.437 E188.56462
G1 X39.298 Y76.068 E188.57786
G1 X39.006 Y75.667 E188.59110
G1 X38.761 Y75.244 E188.60414
G1 X38.561 Y74.797 E188.61720
G1 X38.403 Y74.313 E188.63078
G1 X38.301 Y73.842 E188.64364
G1 X38.268 Y73.596 E188.65026
G1 X38.240 Y73.097 E188.66360
G1 X38.264 Y72.600 E188.67687
G1 X38.337 Y72.117 E188.68990
G1 X38.463 Y71.636 E188.70317
G1 X38.636 Y71.178 E188.71623
G1 X38.863 Y70.725 E188.72975
G1 X39.203 Y70.210 E188.74621
G1 X39.514 Y69.841 E188.75908
G1 X39.875 Y69.492 E188.77248
G1 X40.264 Y69.187 E188.78567
G1 X40.681 Y68.927 E188.79878
G1 X41.358 Y68.617 E188.81864
G1 X42.194 Y68.395 E188.84172
G1 X43.378 Y68.249 E188.87354
G1 X44.007 Y68.157 E188.89050
G1 X44.613 Y68.056 E188.90689
G1 X45.258 Y67.933 E188.92441
G1 X45.879 Y67.802 E188.94134
G1 X46.498 Y67.658 E188.95829
G1 X47.113 Y67.502 E188.97522
G1 X47.704 Y67.337 E188.99159
G1 X48.333 Y67.149 E189.00910
G1 X48.939 Y66.953 E189.02610
G1 X49.538 Y66.744 E189.04302
G1 X50.114 Y66.533 E189.05939
G1 X50.725 Y66.291 E189.07692
G1 X51.311 Y66.046 E189.09386
G1 X51.891 Y65.787 E189.11081
G1 X52.447 Y65.527 E189.12718
G1 X53.035 Y65.236 E189.14469
G1 X53.599 Y64.941 E189.16167
G1 X54.136 Y64.647 E189.17800
G1 X54.687 Y64.330 E189.19496
G1 X55.250 Y63.991 E189.21249
G1 X55.786 Y63.650 E189.22944
G1 X56.297 Y63.311 E189.24580
G1 X56.819 Y62.950 E189.26273
G1 X57.351 Y62.564 E189.28026
G1 X57.857 Y62.180 E189.29721
G1 X58.338 Y61.799 E189.31358
G1 X58.844 Y61.380 E189.33111
G1 X59.325 Y60.966 E189.34804
G1 X59.798 Y60.540 E189.36502
G1 X60.245 Y60.120 E189.38138
G1 X60.715 Y59.661 E189.39891
G1 X61.159 Y59.207 E189.41585
G1 X61.579 Y58.760 E189.43221
G1 X62.004 Y58.288 E189.44916
G1 X62.434 Y57.791 E189.46669
G1 X62.824 Y57.318 E189.48304
G1 X63.234 Y56.803 E189.50061
G1 X63.604 Y56.314 E189.51696
G1 X63.990 Y55.784 E189.53446
G1 X64.341 Y55.279 E189.55086
G1 X64.692 Y54.750 E189.56780
G1 X65.031 Y54.214 E189.58472
G1 X65.361 Y53.670 E189.60169
G1 X65.679 Y53.121 E189.61862
G1 X65.985 Y52.564 E189.63557
G1 X66.279 Y52.000 E189.65254
G1 X66.561 Y51.432 E189.66946
G1 X66.841 Y50.838 E189.68698
G1 X67.090 Y50.277 E189.70335
G1 X67.337 Y49.691 E189.72032
G1 X67.570 Y49.100 E189.73727
G1 X67.790 Y48.505 E189.75419
G1 X68.000 Y47.905 E189.77115
G1 X68.195 Y47.301 E189.78808
G1 X68.379 Y46.693 E189.80503
G1 X68.549 Y46.080 E189.82200
G1 X68.706 Y45.466 E189.83891
G1 X68.851 Y44.846 E189.85589
G1 X68.982 Y44.225 E189.87282
G1 X69.101 Y43.601 E189.88977
G0 F10500 X69.446 Y43.652
G0 X65.971 Y61.464
G0 X65.951 Y61.812
G1 F1440 X65.599 Y61.792 E189.89918
G1 X65.008 Y61.858 E189.91504
G1 X64.487 Y62.029 E189.92967
G1 X63.978 Y62.320 E189.94531
G1 X63.666 Y62.582 E189.95618
G1 X63.346 Y62.953 E189.96925
G1 X63.075 Y63.417 E189.98359
G1 X62.993 Y63.612 E189.98923
G1 X62.891 Y63.944 E189.99850
G1 X62.821 Y64.429 E190.01157
G1 X62.816 Y64.591 E190.01589
G1 X62.865 Y65.128 E190.03028
G1 X63.040 Y65.691 E190.04601
G1 X63.329 Y66.211 E190.06188
G1 X63.553 Y66.489 E190.07140
G1 X63.951 Y66.845 E190.08565
G1 X64.427 Y67.130 E190.10045
G1 X64.939 Y67.311 E190.11494
G1 X65.377 Y67.384 E190.12678
G1 X65.633 Y67.393 E190.13362
G1 X66.129 Y67.348 E190.14690
G1 X66.691 Y67.179 E190.16256
G1 X67.134 Y66.948 E190.17589
G1 X67.415 Y66.740 E190.18521
G1 X67.667 Y66.501 E190.19448
G1 X67.919 Y66.188 E190.20520
G1 X68.140 Y65.807 E190.21695
G1 X68.239 Y65.575 E190.22368
G1 X68.341 Y65.242 E190.23297
G1 X68.411 Y64.758 E190.24602
G1 X68.416 Y64.596 E190.25034
G1 X68.367 Y64.059 E190.26473
G1 X68.192 Y63.495 E190.28048
G1 X67.903 Y62.974 E190.29638
G1 X67.679 Y62.698 E190.30586
G1 X67.276 Y62.336 E190.32031
G1 X66.806 Y62.057 E190.33489
G1 X66.295 Y61.876 E190.34935
G1 X65.951 Y61.812 E190.35869
G0 F10500 X65.971 Y61.464
G0 X64.304 Y61.618
G0 X62.979 Y62.691
G0 X45.707 Y71.491
G0 X45.411 Y71.677
G1 F1440 X45.269 Y71.453 E190.36576
G1 X44.985 Y71.112 E190.37760
G1 X44.608 Y70.795 E190.39074
G1 X44.091 Y70.503 E190.40658
G1 X43.716 Y70.375 E190.41715
G1 X43.326 Y70.298 E190.42776
G1 X43.017 Y70.277 E190.43602
G1 X42.477 Y70.324 E190.45048
G1 X41.953 Y70.476 E190.46504
G1 X41.472 Y70.724 E190.47948
G1 X41.185 Y70.935 E190.48898
G1 X40.786 Y71.349 E190.50432
G1 X40.508 Y71.777 E190.51793
G1 X40.366 Y72.093 E190.52718
G1 X40.263 Y72.439 E190.53681
G1 X40.192 Y72.916 E190.54967
G1 X40.189 Y73.171 E190.55648
G1 X40.239 Y73.612 E190.56832
G1 X40.358 Y74.043 E190.58024
G1 X40.566 Y74.480 E190.59316
G1 X40.709 Y74.706 E190.60029
G1 X41.061 Y75.111 E190.61461
G1 X41.371 Y75.363 E190.62526
G1 X41.886 Y75.654 E190.64104
G1 X42.261 Y75.782 E190.65162
G1 X42.654 Y75.860 E190.66230
G1 X43.056 Y75.879 E190.67304
G1 X43.502 Y75.832 E190.68501
G1 X44.024 Y75.681 E190.69950
G1 X44.505 Y75.433 E190.71394
G1 X44.792 Y75.222 E190.72344
G1 X45.193 Y74.805 E190.73888
G1 X45.374 Y74.549 E190.74724
G1 X45.610 Y74.068 E190.76153
G1 X45.714 Y73.718 E190.77127
G1 X45.784 Y73.243 E190.78408
G1 X45.789 Y73.081 E190.78841
G1 X45.739 Y72.548 E190.80269
G1 X45.619 Y72.114 E190.81470
G1 X45.411 Y71.677 E190.82761
G0 F10500 X45.877 Y71.149
;TYPE:SKIN
G1 F1440 X49.584 Y67.441 E190.96749
G0 F10500 X48.523 Y67.795
G1 F1440 X45.565 Y70.753 E191.07909
G0 F10500 X45.201 Y70.410
G1 F1440 X47.524 Y68.087 E191.16673
G0 F10500 X46.572 Y68.331
G1 F1440 X44.785 Y70.119 E191.23417
G0 F10500 X44.327 Y69.870
G1 F1440 X45.661 Y68.536 E191.28450
G0 F10500 X44.781 Y68.708
G1 F1440 X43.789 Y69.701 E191.32195
G0 F10500 X43.173 Y69.610
G1 F1440 X43.934 Y68.848 E191.35068
G0 F10500 X43.115 Y68.960
G1 F1440 X42.426 Y69.650 E191.37669
G0 F10500 X42.309 Y69.060
G1 F1440 X41.333 Y70.036 E191.41352
G0 F10500 X41.260 Y69.401
G1 F1440 X39.295 Y71.366 E191.48765
G0 F10500 X39.911 Y71.458
G1 F1440 X38.978 Y72.390 E191.52283
G0 F10500 X39.568 Y72.507
G1 F1440 X39.219 Y73.209 E191.54730
G1 X39.059 Y74.076 E191.56725
G1 X39.699 Y74.144 E191.58548
G1 X39.459 Y75.091 E191.60263
G1 X40.171 Y75.086 E191.61897
G1 X40.063 Y75.901 E191.63511
G1 X40.862 Y75.809 E191.65125
G1 X40.763 Y76.615 E191.66914
G1 X41.514 Y76.218 E191.69180
G0 F10500 X42.026 Y76.414
G1 F1440 X41.294 Y77.146 E191.71942
G0 F10500 X41.647 Y77.499
G1 F1440 X42.614 Y76.532 E191.75590
G0 F10500 X43.327 Y76.527
G1 F1440 X42.001 Y77.853 E191.80593
G0 F10500 X42.354 Y78.206
G1 F1440 X44.242 Y76.318 E191.87716
G0 F10500 X42.708 Y78.560
G1 F1440 X60.028 Y61.240 E192.53062
G0 F10500 X62.571 Y62.939
G1 F1440 X44.829 Y80.681 E193.19999
G0 F10500 X44.476 Y80.328
G1 F1440 X81.380 Y43.424 E194.59232
G0 F10500 X81.733 Y43.777
G1 F1440 X63.959 Y61.551 E195.26290
G0 F10500 X65.042 Y61.176
G1 F1440 X82.087 Y44.131 E195.90598
G0 F10500 X82.440 Y44.484
G1 F1440 X65.797 Y61.127 E196.53389
G0 F10500 X66.419 Y61.213
G1 F1440 X82.794 Y44.838 E197.15169
G0 F10500 X83.147 Y45.191
G1 F1440 X66.947 Y61.392 E197.76291
G0 F10500 X67.412 Y61.634
G1 F1440 X83.502 Y45.544 E198.36996
G0 F10500 X83.855 Y45.898
G1 F1440 X67.827 Y61.926 E198.97467
G0 F10500 X68.196 Y62.264
G1 F1440 X84.209 Y46.251 E199.57881
G0 F10500 X84.562 Y46.605
G1 F1440 X68.503 Y62.665 E200.18471
G0 F10500 X68.754 Y63.120
G1 F1440 X84.916 Y46.958 E200.79448
G0 F10500 X85.270 Y47.312
G1 F1440 X68.942 Y63.639 E201.41049
G0 F10500 X69.059 Y64.230
G1 F1440 X85.624 Y47.665 E202.03546
G0 F10500 X85.977 Y48.018
G1 F1440 X69.067 Y64.929 E202.67346
G0 F10500 X68.856 Y65.847
G1 F1440 X86.331 Y48.372 E203.33276
G0 F10500 X86.684 Y48.726
G1 F1440 X49.779 Y85.631 E204.72513
G0 F10500 X50.133 Y85.984
G1 F1440 X87.038 Y49.079 E206.11749
G0 F10500 X81.025 Y43.071
G1 F1440 X44.122 Y79.974 E207.50978
G0 F10500 X43.769 Y79.620
G1 F1440 X80.672 Y42.717 E208.90207
G0 F10500 X80.318 Y42.364
G1 F1440 X43.415 Y79.267 E210.29436
G0 F10500 X43.062 Y78.913
G1 F1440 X79.965 Y42.010 E211.68664
G0 F10500 X79.611 Y41.657
G1 F1440 X62.286 Y58.981 E212.34027
G0 F10500 X64.882 Y55.679
G1 F1440 X75.396 Y45.165 E212.73694
G0 F10500 X74.476 Y45.377
G1 F1440 X66.078 Y53.776 E213.05380
G0 F10500 X66.919 Y52.228
G1 F1440 X73.759 Y45.388 E213.31187
G0 F10500 X73.172 Y45.268
G1 F1440 X67.559 Y50.881 E213.52364
G0 F10500 X68.073 Y49.659
G1 F1440 X72.650 Y45.083 E213.69630
G0 F10500 X72.206 Y44.819
G1 F1440 X68.495 Y48.530 E213.83631
G0 F10500 X68.848 Y47.470
G1 F1440 X71.812 Y44.506 E213.94814
G0 F10500 X71.459 Y44.152
G1 F1440 X69.141 Y46.470 E214.03559
G0 F10500 X69.386 Y45.518
G1 F1440 X71.171 Y43.733 E214.10294
G0 F10500 X70.923 Y43.274
G1 F1440 X69.591 Y44.606 E214.15319
G0 F10500 X69.763 Y43.727
G1 F1440 X70.755 Y42.735 E214.19062
G0 F10500 X70.669 Y42.113
G1 F1440 X69.901 Y42.881 E214.21959
G0 F10500 X70.013 Y42.062
G1 F1440 X70.712 Y41.363 E214.24596
G0 F10500 X70.113 Y41.256
G1 F1440 X71.067 Y40.301 E214.28197
G0 F10500 X70.441 Y40.220
G1 F1440 X72.416 Y38.245 E214.35649
G0 F10500 X72.480 Y38.888
G1 F1440 X73.446 Y37.922 E214.39293
G0 F10500 X73.569 Y38.506
G1 F1440 X74.264 Y38.165 E214.41714
G1 X75.137 Y37.999 E214.43738
G1 X75.199 Y38.643 E214.45565
G1 X76.143 Y38.406 E214.47278
G1 X76.135 Y39.122 E214.48940
G1 X76.955 Y39.009 E214.50561
G1 X76.865 Y39.806 E214.52157
G1 X77.666 Y39.713 E214.53934
G1 X77.270 Y40.462 E214.56195
G0 F10500 X77.458 Y40.981
G1 F1440 X78.196 Y40.243 E214.58979
G0 F10500 X78.550 Y40.597
G1 F1440 X77.575 Y41.572 E214.62657
G0 F10500 X77.583 Y42.270
G1 F1440 X78.903 Y40.950 E214.67638
G0 F10500 X79.258 Y41.303
G1 F1440 X77.374 Y43.187 E214.74746
G0 F10500 X62.197 Y64.021
G1 F1440 X45.183 Y81.035 E215.38937
G0 F10500 X45.536 Y81.388
G1 F1440 X62.154 Y64.770 E216.01633
G0 F10500 X62.240 Y65.392
G1 F1440 X45.890 Y81.742 E216.63319
G0 F10500 X46.244 Y82.095
G1 F1440 X62.408 Y65.931 E217.24303
G0 F10500 X62.656 Y66.390
G1 F1440 X46.597 Y82.449 E217.84891
G0 F10500 X46.951 Y82.802
G1 F1440 X62.944 Y66.809 E218.45230
G0 F10500 X63.296 Y67.164
G1 F1440 X47.304 Y83.156 E219.05565
G0 F10500 X47.658 Y83.510
G1 F1440 X63.693 Y67.474 E219.66065
G0 F10500 X64.135 Y67.740
G1 F1440 X48.011 Y83.863 E220.26896
G0 F10500 X48.365 Y84.217
G1 F1440 X64.657 Y67.925 E220.88363
G0 F10500 X65.244 Y68.044
G1 F1440 X48.718 Y84.570 E221.50713
G0 F10500 X49.072 Y84.924
G1 F1440 X65.956 Y68.039 E222.14415
G0 F10500 X66.876 Y67.827
G1 F1440 X49.426 Y85.277 E222.80251
G0 F10500 X46.235 Y74.326
G1 F1440 X56.731 Y63.830 E223.19851
G0 F10500 X54.827 Y65.026
G1 F1440 X46.441 Y73.413 E223.51491
G0 F10500 X46.432 Y72.715
G1 F1440 X53.280 Y65.866 E223.77330
G0 F10500 X51.935 Y66.504
G1 F1440 X46.320 Y72.119 E223.98514
G0 F10500 X46.125 Y71.607
G1 F1440 X50.711 Y67.021 E224.15816
G1 F420 E222.15816
G1 Z0.875
G0 F10500 X50.728 Y90.335
;TYPE:WALL-INNER
G1 Z0.775
G1 F420 E224.15816
G1 F1560 X101.480 Y103.934 E225.55989
G1 X97.786 Y117.725 E225.94077
G1 X97.643 Y118.260 E225.95554
G1 X97.502 Y118.694 E225.96772
G1 X97.320 Y119.103 E225.97966
G1 X97.096 Y119.492 E225.99164
G1 X96.842 Y119.843 E226.00319
G1 X96.547 Y120.171 E226.01496
G1 X96.215 Y120.473 E226.02694
G1 X95.861 Y120.732 E226.03864
G1 X95.478 Y120.955 E226.05046
G1 X95.074 Y121.137 E226.06228
G1 X94.648 Y121.279 E226.07426
G1 X94.005 Y121.402 E226.09173
G1 X93.451 Y121.428 E226.10652
G1 X93.006 Y121.396 E226.11843
G1 X92.580 Y121.320 E226.12997
G1 X92.144 Y121.195 E226.14207
G1 X91.739 Y121.031 E226.15373
G1 X91.352 Y120.825 E226.16542
G1 X90.982 Y120.577 E226.17731
G1 X90.641 Y120.292 E226.18916
G1 X90.333 Y119.974 E226.20097
G1 X89.942 Y119.469 E226.21801
G1 X89.550 Y118.951 E226.23534
G1 X89.150 Y118.443 E226.25259
G1 X88.753 Y117.962 E226.26923
G1 X88.317 Y117.456 E226.28705
G1 X87.886 Y116.975 E226.30428
G1 X87.445 Y116.504 E226.32149
G1 X86.994 Y116.041 E226.33873
G1 X86.549 Y115.604 E226.35537
G1 X86.062 Y115.147 E226.37319
G1 X85.584 Y114.714 E226.39040
G1 X85.095 Y114.291 E226.40765
G1 X84.615 Y113.894 E226.42426
G1 X84.093 Y113.478 E226.44207
G1 X83.579 Y113.087 E226.45930
G1 X83.056 Y112.707 E226.47655
G1 X82.544 Y112.350 E226.49320
G1 X81.989 Y111.980 E226.51099
G1 X81.444 Y111.634 E226.52822
G1 X80.911 Y111.310 E226.54486
G1 X80.353 Y110.987 E226.56206
G1 X79.770 Y110.665 E226.57982
G1 X79.196 Y110.364 E226.59711
G1 X78.637 Y110.087 E226.61376
G1 X78.054 Y109.812 E226.63095
G1 X77.444 Y109.539 E226.64878
G1 X76.848 Y109.289 E226.66603
G1 X76.269 Y109.059 E226.68265
G1 X75.643 Y108.825 E226.70048
G1 X75.033 Y108.613 E226.71770
G1 X74.420 Y108.413 E226.73491
G1 X73.823 Y108.233 E226.75154
G1 X73.179 Y108.053 E226.76938
G1 X72.554 Y107.893 E226.78659
G1 X71.947 Y107.750 E226.80323
G1 X71.316 Y107.616 E226.82044
G1 X70.660 Y107.490 E226.83826
G1 X70.044 Y107.386 E226.85492
G1 X69.383 Y107.288 E226.87275
G1 X68.764 Y107.211 E226.88939
G1 X68.102 Y107.140 E226.90715
G1 X67.479 Y107.089 E226.92383
G1 X66.835 Y107.048 E226.94105
G1 X66.189 Y107.020 E226.95830
G1 X65.546 Y107.008 E226.97545
G1 X65.199 Y107.005 E226.98471
G1 X64.554 Y107.012 E227.00192
G1 X63.929 Y107.032 E227.01860
G1 X63.263 Y107.067 E227.03639
G1 X62.642 Y107.114 E227.05301
G1 X61.998 Y107.173 E227.07026
G1 X61.356 Y107.249 E227.08751
G1 X60.717 Y107.337 E227.10471
G1 X60.080 Y107.437 E227.12192
G1 X59.444 Y107.552 E227.13916
G1 X58.811 Y107.680 E227.15639
G1 X58.182 Y107.822 E227.17359
G1 X57.554 Y107.976 E227.19084
G1 X56.931 Y108.144 E227.20805
G1 X56.311 Y108.324 E227.22528
G1 X55.694 Y108.518 E227.24253
G1 X55.083 Y108.725 E227.25974
G1 X54.475 Y108.943 E227.27697
G1 X53.873 Y109.176 E227.29420
G1 X53.276 Y109.420 E227.31140
G1 X52.699 Y109.670 E227.32818
G1 X52.265 Y109.833 E227.34054
G1 X51.842 Y109.942 E227.35220
G1 X51.394 Y110.009 E227.36428
G1 X50.963 Y110.028 E227.37579
G1 X50.511 Y110.001 E227.38787
G1 X50.077 Y109.929 E227.39961
G1 X49.654 Y109.813 E227.41131
G1 X49.239 Y109.651 E227.42320
G1 X48.849 Y109.450 E227.43490
G1 X48.473 Y109.203 E227.44690
G1 X48.139 Y108.929 E227.45843
G1 X47.824 Y108.612 E227.47035
G1 X47.544 Y108.264 E227.48227
G1 X47.305 Y107.893 E227.49404
G1 X47.101 Y107.490 E227.50609
G1 X46.942 Y107.071 E227.51804
G1 X46.857 Y106.769 E227.52641
G1 X46.775 Y106.316 E227.53870
G1 X46.753 Y106.102 E227.54444
G1 X46.741 Y105.777 E227.55311
G1 X46.765 Y105.334 E227.56495
G1 X46.836 Y104.884 E227.57710
G1 X47.032 Y104.126 E227.59799
G1 X50.728 Y90.335 E227.97889
G0 F10500 X50.954 Y102.477
G1 F1560 X50.327 Y102.542 E227.99570
G1 X49.680 Y102.748 E228.01382
G1 X49.247 Y102.974 E228.02685
G1 X48.842 Y103.272 E228.04026
G1 X48.715 Y103.388 E228.04485
G1 X48.319 Y103.837 E228.06082
G1 X48.085 Y104.208 E228.07252
G1 X47.827 Y104.831 E228.09051
G1 X47.709 Y105.404 E228.10612
G1 X47.688 Y105.834 E228.11761
G1 X47.746 Y106.394 E228.13263
G1 X47.819 Y106.699 E228.14099
G1 X47.960 Y107.094 E228.15218
G1 X48.289 Y107.681 E228.17013
G1 X48.672 Y108.131 E228.18590
G1 X49.040 Y108.444 E228.19879
G1 X49.479 Y108.715 E228.21255
G1 X49.874 Y108.888 E228.22405
G1 X50.524 Y109.049 E228.24192
G1 X51.017 Y109.082 E228.25510
G1 X51.652 Y109.016 E228.27213
G1 X52.310 Y108.808 E228.29054
G1 X52.866 Y108.497 E228.30754
G1 X53.250 Y108.188 E228.32069
G1 X53.670 Y107.712 E228.33762
G1 X53.996 Y107.151 E228.35493
G1 X54.211 Y106.505 E228.37310
G1 X54.281 Y106.036 E228.38575
G1 X54.291 Y105.719 E228.39421
G1 X54.232 Y105.140 E228.40973
G1 X54.028 Y104.479 E228.42819
G1 X53.696 Y103.886 E228.44632
G1 X53.415 Y103.536 E228.45829
G1 X52.953 Y103.123 E228.47483
G1 X52.584 Y102.886 E228.48653
G1 X51.958 Y102.621 E228.50466
G1 X51.288 Y102.491 E228.52287
G1 X50.954 Y102.477 E228.53179
G0 F10500 X71.570 Y101.888
G1 F1560 X71.629 Y102.463 E228.54721
G1 X71.829 Y103.116 E228.56543
G1 X72.081 Y103.593 E228.57982
G1 X72.439 Y104.061 E228.59554
G1 X72.917 Y104.490 E228.61267
G1 X73.465 Y104.814 E228.62966
G1 X74.115 Y105.041 E228.64802
G1 X74.532 Y105.108 E228.65929
G1 X74.903 Y105.127 E228.66920
G1 X75.533 Y105.062 E228.68610
G1 X76.191 Y104.854 E228.70451
G1 X76.747 Y104.543 E228.72150
G1 X77.120 Y104.243 E228.73427
G1 X77.402 Y103.946 E228.74520
G1 X77.766 Y103.415 E228.76237
G1 X77.986 Y102.921 E228.77680
G1 X78.144 Y102.267 E228.79475
G1 X78.173 Y101.776 E228.80787
G1 X78.112 Y101.186 E228.82370
G1 X77.909 Y100.526 E228.84212
G1 X77.580 Y99.937 E228.86012
G1 X77.291 Y99.581 E228.87235
G1 X77.005 Y99.305 E228.88295
G1 X76.574 Y98.994 E228.89713
G1 X75.951 Y98.704 E228.91546
G1 X75.279 Y98.548 E228.93387
G1 X74.841 Y98.523 E228.94557
G1 X74.208 Y98.588 E228.96255
G1 X73.561 Y98.794 E228.98066
G1 X73.128 Y99.020 E228.99369
G1 X72.723 Y99.318 E229.00711
G1 X72.596 Y99.434 E229.01170
G1 X72.191 Y99.893 E229.02803
G1 X71.865 Y100.454 E229.04534
G1 X71.650 Y101.099 E229.06347
G1 X71.579 Y101.568 E229.07613
G1 X71.570 Y101.888 E229.08467
G0 F10500 X72.477 Y104.026
G0 X74.128 Y104.991
G0 X90.861 Y115.236
G1 F1560 X90.627 Y115.607 E229.09637
G1 X90.369 Y116.230 E229.11436
G1 X90.251 Y116.804 E229.12999
G1 X90.230 Y117.233 E229.14145
G1 X90.288 Y117.793 E229.15647
G1 X90.361 Y118.099 E229.16486
G1 X90.502 Y118.493 E229.17603
G1 X90.826 Y119.071 E229.19371
G1 X91.107 Y119.421 E229.20568
G1 X91.568 Y119.833 E229.22217
G1 X91.937 Y120.071 E229.23389
G1 X92.561 Y120.336 E229.25197
