;This Gcode has been generated specifically for the LulzBot Mini
;Basic settings: Layer height: 0.35 Walls: 1 Fill: 60
;Filament Diameter: 2.89
;Nozzle Size: 0.5
G21                          ; metric values
G90                          ; absolute positioning
M82                          ; set extruder to absolute mode
M107                         ; start with the fan off
G92 E0                       ; set extruder position to 0
M140 S110; get bed heating up
G28                          ; home all
M907 X675                    ; reduce extruder torque for safety
M109 S180                    ; set to cleaning temp and wait
G1 Z150 E-30 F55             ; suck up XXmm of filament
M109 S180                    ; heat up rest of way
G1 X45 Y174 F11520           ; move behind scraper
G1 Z0  F1200                 ; CRITICAL: set Z to height of top of scraper
G1 X45 Y174 Z-.5 F4000       ; wiping ; plunge into wipe pad
G1 X55 Y172 Z-.5 F4000       ; wiping
G1 X45 Y174 Z0 F4000         ; wiping
G1 X55 Y172 F4000            ; wiping
G1 X45 Y174 F4000            ; wiping
G1 X55 Y172 F4000            ; wiping
G1 X45 Y174 F4000            ; wiping
G1 X55 Y172 F4000            ; wiping
G1 X60 Y174 F4000            ; wiping
G1 X80 Y172 F4000            ; wiping
G1 X60 Y174 F4000            ; wiping
G1 X80 Y172 F4000            ; wiping
G1 X60 Y174 F4000            ; wiping
G1 X90 Y172 F4000            ; wiping
G1 X80 Y174 F4000            ; wiping
G1 X100 Y172 F4000           ; wiping
G1 X80 Y174 F4000            ; wiping
G1 X100 Y172 F4000           ; wiping
G1 X80 Y174 F4000            ; wiping
G1 X100 Y172 F4000           ; wiping
G1 X110 Y174 F4000           ; wiping
G1 X100 Y172 F4000           ; wiping
G1 X110 Y174 F4000           ; wiping
G1 X100 Y172 F4000           ; wiping
G1 X110 Y174 F4000           ; wiping
G1 X115 Y172 Z-0.5 F1000     ; wipe slower and bury noz in cleanish area
G1 Z10                       ; raise z
G28 X0 Y0                    ; home x and y
M109 S180                    ; set to probing temp
M204 S300                    ; Set probing acceleration
G29                          ; Probe
M204 S2000                   ; Restore standard acceleration
G1 X5 Y15 Z10 F5000          ; get out the way
G4 S1                        ; pause
M400                         ; clear buffer
M109 S245    ; set extruder temp and wait
G1 Z2 E0 F45                 ; extrude filament back into nozzle
M140 S110; get bed temping up during first layer

;Layer count: 64
;LAYER:0
M107
G0 F10500 X51.538 Y77.953 Z0.425
;TYPE:SKIRT
G1 F1500 X98.289 Y90.481 E1.95990
G1 X85.761 Y43.730 E3.91979
G1 X51.538 Y77.953 E5.87961
G0 F10500 X44.877 Y79.702
G1 F1500 X32.413 Y67.238 E6.59338
G1 X31.905 Y66.713 E6.62296
G1 X31.317 Y65.965 E6.66149
G1 X30.806 Y65.133 E6.70103
G1 X30.395 Y64.242 E6.74076
G1 X30.104 Y63.347 E6.77887
G1 X29.985 Y62.816 E6.80090
G1 X29.897 Y62.299 E6.82214
G1 X29.825 Y61.361 E6.86023
G1 X29.863 Y60.390 E6.89958
G1 X30.018 Y59.423 E6.93924
G1 X30.283 Y58.484 E6.97875
G1 X30.659 Y57.576 E7.01854
G1 X31.140 Y56.721 E7.05827
G1 X31.714 Y55.930 E7.09784
G1 X32.382 Y55.209 E7.13764
G1 X33.128 Y54.574 E7.17731
G1 X33.941 Y54.032 E7.21688
G1 X34.815 Y53.587 E7.25659
G1 X35.689 Y53.266 E7.29430
G1 X36.212 Y53.124 E7.31624
G1 X36.736 Y53.017 E7.33790
G1 X37.825 Y52.881 E7.38234
G1 X38.518 Y52.783 E7.41068
G1 X39.175 Y52.675 E7.43764
G1 X39.754 Y52.564 E7.46151
G1 X40.428 Y52.420 E7.48942
G1 X41.072 Y52.264 E7.51625
G1 X41.675 Y52.102 E7.54154
G1 X42.270 Y51.928 E7.56664
G1 X42.930 Y51.717 E7.59470
G1 X43.557 Y51.499 E7.62158
G1 X44.138 Y51.282 E7.64669
G1 X44.761 Y51.030 E7.67390
G1 X45.371 Y50.767 E7.70080
G1 X45.904 Y50.522 E7.72456
G1 X46.529 Y50.215 E7.75275
G1 X47.093 Y49.921 E7.77851
G1 X47.686 Y49.594 E7.80593
G1 X48.232 Y49.273 E7.83158
G1 X48.760 Y48.948 E7.85668
G1 X49.338 Y48.571 E7.88463
G1 X49.887 Y48.193 E7.91162
G1 X50.378 Y47.837 E7.93618
G1 X50.912 Y47.431 E7.96334
G1 X51.395 Y47.044 E7.98840
G1 X51.934 Y46.590 E8.01694
G1 X52.411 Y46.167 E8.04275
G1 X52.879 Y45.732 E8.06863
G1 X53.348 Y45.275 E8.09514
G1 X53.790 Y44.822 E8.12077
G1 X54.235 Y44.344 E8.14722
G1 X54.661 Y43.863 E8.17324
G1 X55.098 Y43.345 E8.20068
G1 X55.511 Y42.829 E8.22744
G1 X55.903 Y42.315 E8.25362
G1 X56.277 Y41.799 E8.27942
G1 X56.662 Y41.239 E8.30694
G1 X57.001 Y40.718 E8.33211
G1 X57.340 Y40.170 E8.35820
G1 X57.678 Y39.593 E8.38528
G1 X57.973 Y39.058 E8.41002
G1 X58.295 Y38.442 E8.43817
G1 X58.578 Y37.864 E8.46423
G1 X58.850 Y37.275 E8.49050
G1 X59.099 Y36.698 E8.51595
G1 X59.355 Y36.065 E8.54360
G1 X59.570 Y35.491 E8.56842
G1 X59.796 Y34.842 E8.59624
G1 X59.989 Y34.239 E8.62188
G1 X60.184 Y33.574 E8.64994
G1 X60.339 Y32.992 E8.67433
G1 X60.486 Y32.384 E8.69966
G1 X60.636 Y31.692 E8.72833
G1 X60.751 Y31.086 E8.75331
G1 X60.860 Y30.429 E8.78028
G1 X60.948 Y29.796 E8.80616
G1 X61.039 Y29.006 E8.83836
G1 X61.192 Y28.145 E8.87377
G1 X61.473 Y27.210 E8.91330
G1 X61.861 Y26.315 E8.95280
G1 X62.355 Y25.464 E8.99265
G1 X62.918 Y24.719 E9.03046
G1 X63.317 Y24.277 E9.05457
G1 X63.993 Y23.650 E9.09191
G1 X64.783 Y23.074 E9.13150
G1 X65.634 Y22.593 E9.17108
G1 X66.541 Y22.215 E9.21087
G1 X67.437 Y21.960 E9.24859
G1 X68.025 Y21.848 E9.27283
G1 X68.893 Y21.762 E9.30815
G1 X69.499 Y21.754 E9.33269
G1 X70.424 Y21.828 E9.37027
G1 X71.384 Y22.019 E9.40991
G1 X72.267 Y22.306 E9.44750
G1 X72.773 Y22.521 E9.46976
G1 X73.258 Y22.763 E9.49171
G1 X74.041 Y23.244 E9.52892
G1 X74.789 Y23.834 E9.56750
G1 X75.311 Y24.339 E9.59691
G1 X87.570 Y36.599 E10.29897
G1 X104.480 Y32.068 E11.00786
G1 X105.139 Y31.903 E11.03537
G1 X105.647 Y31.813 E11.05626
G1 X106.134 Y31.758 E11.07611
G1 X106.679 Y31.728 E11.09821
G1 X107.602 Y31.760 E11.13561
G1 X108.567 Y31.905 E11.17512
G1 X109.513 Y32.165 E11.21485
G1 X110.421 Y32.535 E11.25455
G1 X111.278 Y33.008 E11.29419
G1 X112.075 Y33.580 E11.33392
G1 X112.799 Y34.242 E11.37364
G1 X113.439 Y34.982 E11.41326
G1 X113.989 Y35.795 E11.45301
G1 X114.439 Y36.665 E11.49267
G1 X114.765 Y37.536 E11.53033
G1 X114.922 Y38.101 E11.55407
G1 X115.082 Y38.967 E11.58973
G1 X115.134 Y39.507 E11.61170
G1 X115.150 Y40.007 E11.63196
G1 X115.138 Y40.544 E11.65371
G1 X115.033 Y41.460 E11.69104
G1 X114.811 Y42.412 E11.73063
G1 X114.508 Y43.244 E11.76648
G1 X114.204 Y43.949 E11.79757
G1 X113.941 Y44.597 E11.82589
G1 X113.734 Y45.146 E11.84965
G1 X113.507 Y45.797 E11.87757
G1 X113.320 Y46.375 E11.90217
G1 X113.114 Y47.076 E11.93175
G1 X112.953 Y47.675 E11.95687
G1 X112.809 Y48.271 E11.98170
G1 X112.667 Y48.922 E12.00868
G1 X112.539 Y49.590 E12.03622
G1 X112.438 Y50.204 E12.06142
G1 X112.345 Y50.851 E12.08788
G1 X112.269 Y51.509 E12.11471
G1 X112.212 Y52.134 E12.14012
G1 X112.165 Y52.804 E12.16732
G1 X112.138 Y53.448 E12.19342
G1 X112.126 Y54.065 E12.21841
G1 X112.130 Y54.739 E12.24570
G1 X112.149 Y55.405 E12.27268
G1 X112.184 Y56.033 E12.29815
G1 X112.238 Y56.721 E12.32609
G1 X112.300 Y57.329 E12.35084
G1 X112.388 Y58.008 E12.37857
G1 X112.477 Y58.596 E12.40265
G1 X112.604 Y59.307 E12.43189
G1 X112.729 Y59.922 E12.45731
G1 X112.865 Y60.513 E12.48186
G1 X113.035 Y61.183 E12.50985
G1 X113.214 Y61.818 E12.53657
G1 X113.384 Y62.371 E12.56000
G1 X113.619 Y63.076 E12.59009
G1 X113.816 Y63.620 E12.61352
G1 X114.071 Y64.275 E12.64198
G1 X114.317 Y64.863 E12.66779
G1 X114.579 Y65.451 E12.69385
G1 X114.864 Y66.048 E12.72064
G1 X115.152 Y66.618 E12.74650
G1 X115.476 Y67.219 E12.77415
G1 X115.782 Y67.755 E12.79914
G1 X116.111 Y68.302 E12.82499
G1 X116.469 Y68.866 E12.85204
G1 X116.830 Y69.403 E12.87824
G1 X117.216 Y69.950 E12.90535
G1 X117.595 Y70.460 E12.93108
G1 X118.002 Y70.980 E12.95782
G1 X118.400 Y71.463 E12.98316
G1 X118.860 Y71.997 E13.01170
G1 X119.246 Y72.421 E13.03492
G1 X119.728 Y72.927 E13.06322
G1 X120.175 Y73.373 E13.08879
G1 X120.647 Y73.823 E13.11520
G1 X121.136 Y74.266 E13.14192
G1 X121.633 Y74.695 E13.16850
G1 X122.149 Y75.118 E13.19552
G1 X122.626 Y75.490 E13.22001
G1 X123.277 Y75.974 E13.25286
G1 X123.944 Y76.534 E13.28813
G1 X124.615 Y77.245 E13.32772
G1 X125.199 Y78.034 E13.36747
G1 X125.687 Y78.884 E13.40715
G1 X126.071 Y79.790 E13.44700
G1 X126.328 Y80.678 E13.48443
G1 X126.446 Y81.262 E13.50856
G1 X126.539 Y82.135 E13.54411
G1 X126.550 Y82.731 E13.56825
G1 X126.485 Y83.651 E13.60560
G1 X126.312 Y84.563 E13.64318
G1 X126.150 Y85.137 E13.66733
G1 X125.819 Y86.004 E13.70491
G1 X125.364 Y86.870 E13.74453
G1 X124.806 Y87.685 E13.78452
G1 X124.187 Y88.392 E13.82257
G1 X123.756 Y88.802 E13.84666
G1 X123.038 Y89.375 E13.88386
G1 X122.206 Y89.893 E13.92355
G1 X121.360 Y90.289 E13.96137
G1 X120.826 Y90.483 E13.98438
G1 X120.184 Y90.666 E14.01141
G1 X103.551 Y95.123 E14.70870
G1 X98.899 Y112.490 E15.43674
G1 X98.698 Y113.189 E15.46619
G1 X98.345 Y114.076 E15.50485
G1 X97.876 Y114.938 E15.54458
G1 X97.312 Y115.734 E15.58409
G1 X96.656 Y116.464 E15.62383
G1 X95.955 Y117.078 E15.66156
G1 X95.481 Y117.424 E15.68533
G1 X94.684 Y117.905 E15.72302
G1 X93.792 Y118.309 E15.76267
G1 X92.858 Y118.605 E15.80235
G1 X91.940 Y118.781 E15.84020
G1 X91.406 Y118.834 E15.86193
G1 X90.860 Y118.857 E15.88406
G1 X89.938 Y118.813 E15.92143
G1 X88.975 Y118.654 E15.96096
G1 X88.034 Y118.381 E16.00063
G1 X87.129 Y117.999 E16.04041
G1 X86.315 Y117.535 E16.07835
G1 X85.830 Y117.196 E16.10231
G1 X85.123 Y116.608 E16.13955
G1 X84.457 Y115.904 E16.17879
G1 X83.771 Y114.997 E16.22484
G1 X83.338 Y114.443 E16.25331
G1 X82.907 Y113.918 E16.28082
G1 X82.514 Y113.462 E16.30519
G1 X82.064 Y112.964 E16.33237
G1 X81.603 Y112.480 E16.35944
G1 X81.141 Y112.017 E16.38592
G1 X80.689 Y111.587 E16.41119
G1 X80.229 Y111.168 E16.43638
G1 X79.693 Y110.705 E16.46506
G1 X79.216 Y110.312 E16.49009
G1 X78.710 Y109.916 E16.51611
G1 X78.155 Y109.503 E16.54412
G1 X77.658 Y109.151 E16.56878
G1 X77.114 Y108.786 E16.59531
G1 X76.534 Y108.417 E16.62315
G1 X75.981 Y108.083 E16.64931
G1 X75.436 Y107.773 E16.67470
G1 X74.874 Y107.471 E16.70053
G1 X74.291 Y107.176 E16.72699
G1 X73.692 Y106.890 E16.75387
G1 X73.108 Y106.629 E16.77977
G1 X72.500 Y106.374 E16.80647
G1 X71.904 Y106.142 E16.83237
G1 X71.257 Y105.908 E16.86023
G1 X70.682 Y105.715 E16.88479
G1 X70.011 Y105.509 E16.91321
G1 X69.422 Y105.343 E16.93799
G1 X68.771 Y105.177 E16.96519
G1 X68.194 Y105.045 E16.98916
G1 X67.497 Y104.903 E17.01796
G1 X66.879 Y104.793 E17.04338
G1 X66.204 Y104.689 E17.07104
G1 X65.582 Y104.609 E17.09643
G1 X64.940 Y104.542 E17.12257
G1 X64.281 Y104.491 E17.14934
G1 X63.658 Y104.456 E17.17460
G1 X62.965 Y104.436 E17.20268
G1 X62.316 Y104.431 E17.22896
G1 X61.700 Y104.443 E17.25391
G1 X61.053 Y104.470 E17.28013
G1 X60.367 Y104.517 E17.30797
G1 X59.758 Y104.573 E17.33274
G1 X59.088 Y104.651 E17.36005
G1 X58.431 Y104.743 E17.38691
G1 X57.789 Y104.850 E17.41327
G1 X57.199 Y104.964 E17.43760
G1 X56.527 Y105.109 E17.46544
G1 X55.902 Y105.261 E17.49148
G1 X55.246 Y105.436 E17.51898
G1 X54.677 Y105.604 E17.54300
G1 X54.010 Y105.819 E17.57138
G1 X53.406 Y106.030 E17.59729
G1 X52.826 Y106.247 E17.62236
G1 X52.210 Y106.496 E17.64927
G1 X51.474 Y106.815 E17.68175
G1 X50.654 Y107.111 E17.71705
G1 X49.753 Y107.325 E17.75455
G1 X49.208 Y107.403 E17.77684
G1 X48.720 Y107.445 E17.79668
G1 X48.222 Y107.456 E17.81685
G1 X47.737 Y107.438 E17.83650
G1 X47.205 Y107.389 E17.85813
G1 X46.342 Y107.231 E17.89366
G1 X45.770 Y107.072 E17.91770
G1 X44.908 Y106.750 E17.95496
G1 X44.035 Y106.300 E17.99473
G1 X43.224 Y105.752 E18.03437
G1 X42.484 Y105.114 E18.07393
G1 X41.823 Y104.394 E18.11351
G1 X41.248 Y103.597 E18.15331
G1 X40.767 Y102.727 E18.19356
G1 X40.417 Y101.867 E18.23116
G1 X40.243 Y101.305 E18.25498
G1 X40.060 Y100.440 E18.29078
G1 X39.989 Y99.857 E18.31457
G1 X39.960 Y98.979 E18.35014
G1 X39.992 Y98.380 E18.37443
G1 X40.123 Y97.493 E18.41074
G1 X40.297 Y96.792 E18.43998
G1 X44.835 Y79.857 E19.14993
G1 X44.877 Y79.702 E19.15643
G1 F420 E17.15643
G1 Z0.525
G0 F10500 X47.333 Y76.148
;TYPE:WALL-INNER
G1 Z0.425
G1 F420 E19.15643
G1 F1500 X35.437 Y64.252 E19.83767
G1 X35.111 Y63.916 E19.85663
G1 X34.810 Y63.533 E19.87636
G1 X34.559 Y63.125 E19.89575
G1 X34.357 Y62.687 E19.91528
G1 X34.206 Y62.221 E19.93512
G1 X34.118 Y61.774 E19.95357
G1 X34.080 Y61.281 E19.97359
G1 X34.099 Y60.811 E19.99264
G1 X34.174 Y60.342 E20.01187
G1 X34.305 Y59.877 E20.03143
G1 X34.487 Y59.436 E20.05075
G1 X34.722 Y59.019 E20.07013
G1 X35.001 Y58.635 E20.08935
G1 X35.331 Y58.279 E20.10901
G1 X35.696 Y57.968 E20.12843
G1 X36.089 Y57.706 E20.14755
G1 X36.521 Y57.486 E20.16718
G1 X36.969 Y57.322 E20.18650
G1 X37.428 Y57.212 E20.20562
G1 X38.387 Y57.093 E20.24475
G1 X39.151 Y56.985 E20.27599
G1 X39.895 Y56.863 E20.30652
G1 X40.615 Y56.725 E20.33621
G1 X41.373 Y56.563 E20.36759
G1 X42.106 Y56.385 E20.39814
G1 X42.834 Y56.190 E20.42866
G1 X43.538 Y55.984 E20.45836
G1 X44.275 Y55.748 E20.48970
G1 X44.988 Y55.500 E20.52026
G1 X45.675 Y55.243 E20.54997
G1 X46.393 Y54.954 E20.58131
G1 X47.086 Y54.655 E20.61187
G1 X47.751 Y54.348 E20.64153
G1 X48.447 Y54.007 E20.67291
G1 X49.097 Y53.668 E20.70260
G1 X49.776 Y53.294 E20.73399
G1 X50.427 Y52.912 E20.76455
G1 X51.050 Y52.527 E20.79421
G1 X51.700 Y52.104 E20.82561
G1 X52.321 Y51.676 E20.85615
G1 X52.914 Y51.246 E20.88581
G1 X53.531 Y50.777 E20.91719
G1 X54.103 Y50.318 E20.94689
G1 X54.697 Y49.819 E20.97831
G1 X55.261 Y49.319 E21.00883
G1 X55.813 Y48.806 E21.03934
G1 X56.353 Y48.280 E21.06987
G1 X56.879 Y47.739 E21.10042
G1 X57.379 Y47.203 E21.13010
G1 X57.892 Y46.623 E21.16146
G1 X58.379 Y46.046 E21.19203
G1 X58.850 Y45.457 E21.22257
G1 X59.307 Y44.858 E21.25308
G1 X59.749 Y44.248 E21.28358
G1 X60.178 Y43.626 E21.31418
G1 X60.589 Y42.995 E21.34467
G1 X60.986 Y42.353 E21.37524
G1 X61.367 Y41.702 E21.40578
G1 X61.731 Y41.042 E21.43630
G1 X62.080 Y40.374 E21.46682
G1 X62.412 Y39.696 E21.49739
G1 X62.728 Y39.012 E21.52790
G1 X63.027 Y38.320 E21.55843
G1 X63.309 Y37.621 E21.58895
G1 X63.574 Y36.914 E21.61952
G1 X63.822 Y36.202 E21.65005
G1 X64.052 Y35.484 E21.68058
G1 X64.264 Y34.760 E21.71113
G1 X64.459 Y34.032 E21.74165
G1 X64.635 Y33.299 E21.77217
G1 X64.795 Y32.562 E21.80271
G1 X64.936 Y31.821 E21.83326
G1 X65.059 Y31.078 E21.86375
G1 X65.164 Y30.331 E21.89430
G1 X65.246 Y29.621 E21.92324
G1 X65.333 Y29.127 E21.94355
G1 X65.469 Y28.678 E21.96255
G1 X65.664 Y28.226 E21.98248
G1 X65.897 Y27.826 E22.00123
G1 X66.197 Y27.428 E22.02141
G1 X66.349 Y27.259 E22.03061
G1 X66.699 Y26.935 E22.04993
G1 X67.085 Y26.654 E22.06926
G1 X67.503 Y26.418 E22.08870
G1 X67.950 Y26.231 E22.10832
G1 X68.636 Y26.057 E22.13698
G1 X69.123 Y26.009 E22.15679
G1 X69.359 Y26.006 E22.16635
G1 X69.838 Y26.044 E22.18581
G1 X70.309 Y26.137 E22.20525
G1 X70.998 Y26.384 E22.23489
G1 X71.197 Y26.483 E22.24389
G1 X71.602 Y26.731 E22.26312
G1 X71.989 Y27.037 E22.28309
G1 X84.221 Y39.260 E22.98332
G1 X47.333 Y76.148 E25.09575
G0 F10500 X39.956 Y64.596
G1 F1500 X40.439 Y64.283 E25.11906
G1 X40.856 Y63.922 E25.14139
G1 X41.068 Y63.695 E25.15397
G1 X41.418 Y63.216 E25.17799
G1 X41.755 Y62.506 E25.20982
G1 X41.839 Y62.226 E25.22165
G1 X41.956 Y61.634 E25.24609
G1 X41.979 Y61.284 E25.26029
G1 X41.925 Y60.576 E25.28905
G1 X41.837 Y60.172 E25.30579
G1 X41.548 Y59.438 E25.33773
G1 X41.224 Y58.922 E25.36240
G1 X40.836 Y58.476 E25.38634
G1 X40.426 Y58.125 E25.40820
G1 X39.926 Y57.811 E25.43210
G1 X39.395 Y57.583 E25.45550
G1 X39.078 Y57.489 E25.46889
G1 X38.587 Y57.400 E25.48910
G1 X38.259 Y57.373 E25.50243
G1 X37.678 Y57.399 E25.52598
G1 X37.101 Y57.516 E25.54982
G1 X36.592 Y57.697 E25.57169
G1 X36.086 Y57.969 E25.59495
G1 X35.817 Y58.156 E25.60822
G1 X35.437 Y58.486 E25.62860
G1 X35.225 Y58.715 E25.64124
G1 X35.029 Y58.963 E25.65404
G1 X34.728 Y59.451 E25.67725
G1 X34.524 Y59.928 E25.69826
G1 X34.425 Y60.244 E25.71167
G1 X34.326 Y60.795 E25.73434
G1 X34.303 Y61.138 E25.74826
G1 X34.357 Y61.846 E25.77701
G1 X34.441 Y62.236 E25.79317
G1 X34.638 Y62.782 E25.81667
G1 X34.892 Y63.257 E25.83848
G1 X35.244 Y63.732 E25.86242
G1 X35.667 Y64.146 E25.88639
G1 X36.085 Y64.452 E25.90737
G1 X36.372 Y64.618 E25.92079
G1 X36.916 Y64.852 E25.94477
G1 X37.676 Y65.021 E25.97630
G1 X38.023 Y65.049 E25.99040
G1 X38.617 Y65.022 E26.01447
G1 X39.394 Y64.841 E26.04678
G1 X39.956 Y64.596 E26.07161
G0 F10500 X57.361 Y54.498
G1 F1500 X57.693 Y55.026 E26.09686
G1 X58.236 Y55.613 E26.12924
G1 X58.709 Y55.965 E26.15312
G1 X58.999 Y56.133 E26.16669
G1 X59.516 Y56.355 E26.18947
G1 X59.832 Y56.447 E26.20280
G1 X60.323 Y56.537 E26.22301
G1 X60.651 Y56.563 E26.23634
G1 X61.244 Y56.537 E26.26037
G1 X62.023 Y56.356 E26.29276
G1 X62.565 Y56.118 E26.31673
G1 X62.854 Y55.948 E26.33030
G1 X63.310 Y55.603 E26.35346
G1 X63.688 Y55.219 E26.37528
G1 X64.045 Y54.729 E26.39983
G1 X64.380 Y54.024 E26.43143
G1 X64.467 Y53.742 E26.44338
G1 X64.583 Y53.147 E26.46793
G1 X64.606 Y52.798 E26.48209
G1 X64.552 Y52.092 E26.51077
G1 X64.468 Y51.700 E26.52700
G1 X64.275 Y51.165 E26.55003
G1 X64.007 Y50.667 E26.57293
G1 X63.665 Y50.205 E26.59621
G1 X63.243 Y49.791 E26.62014
G1 X62.796 Y49.464 E26.64257
G1 X62.077 Y49.115 E26.67493
G1 X61.439 Y48.945 E26.70167
G1 X60.898 Y48.888 E26.72370
G1 X60.293 Y48.914 E26.74822
G1 X59.533 Y49.091 E26.77982
G1 X59.207 Y49.218 E26.79399
G1 X58.697 Y49.492 E26.81743
G1 X58.227 Y49.848 E26.84130
G1 X57.849 Y50.232 E26.86312
G1 X57.492 Y50.721 E26.88764
G1 X57.141 Y51.457 E26.92066
G1 X56.961 Y52.234 E26.95295
G1 X56.929 Y52.649 E26.96981
G1 X56.984 Y53.359 E26.99865
G1 X57.071 Y53.765 E27.01546
G1 X57.361 Y54.498 E27.04738
G0 F10500 X57.073 Y52.252
G0 X57.935 Y50.305
G0 X59.566 Y49.199
G0 X67.499 Y33.467
G1 F1500 X68.060 Y33.708 E27.07210
G1 X68.820 Y33.877 E27.10363
G1 X69.167 Y33.905 E27.11773
G1 X69.747 Y33.879 E27.14124
G1 X70.326 Y33.762 E27.16516
G1 X70.833 Y33.581 E27.18696
G1 X71.355 Y33.301 E27.21094
G1 X71.826 Y32.945 E27.23485
G1 X72.204 Y32.561 E27.25667
G1 X72.561 Y32.072 E27.28119
G1 X72.899 Y31.364 E27.31295
G1 X72.983 Y31.082 E27.32487
G1 X73.100 Y30.488 E27.34938
G1 X73.121 Y30.153 E27.36298
G1 X73.099 Y29.635 E27.38397
G1 X72.989 Y29.053 E27.40795
G1 X72.787 Y28.496 E27.43195
G1 X72.542 Y28.037 E27.45302
G1 X72.347 Y27.752 E27.46700
G1 X71.816 Y27.180 E27.49860
G1 X71.343 Y26.828 E27.52248
G1 X71.053 Y26.660 E27.53605
G1 X70.537 Y26.439 E27.55878
G1 X70.221 Y26.346 E27.57212
G1 X69.732 Y26.256 E27.59225
G1 X69.402 Y26.229 E27.60566
G1 X68.808 Y26.256 E27.62974
G1 X68.031 Y26.437 E27.66204
G1 X67.469 Y26.682 E27.68687
G1 X66.973 Y27.003 E27.71079
G1 X66.581 Y27.343 E27.73180
G1 X66.357 Y27.585 E27.74516
G1 X66.008 Y28.062 E27.76909
G1 X65.657 Y28.800 E27.80218
G1 X65.477 Y29.578 E27.83452
G1 X65.446 Y29.990 E27.85125
G1 X65.499 Y30.701 E27.88012
G1 X65.587 Y31.107 E27.89694
G1 X65.877 Y31.840 E27.92886
G1 X66.201 Y32.356 E27.95353
G1 X66.589 Y32.802 E27.97747
G1 X66.999 Y33.153 E27.99933
G1 X67.499 Y33.467 E28.02323
G0 F10500 X67.791 Y32.912
;TYPE:WALL-OUTER
G1 F1500 X68.253 Y33.110 E28.04359
G1 X68.913 Y33.257 E28.07097
G1 X69.178 Y33.279 E28.08174
G1 X69.671 Y33.257 E28.10172
G1 X70.158 Y33.158 E28.12184
G1 X70.579 Y33.008 E28.13994
G1 X71.017 Y32.774 E28.16005
G1 X71.412 Y32.474 E28.18013
G1 X71.726 Y32.156 E28.19823
G1 X72.022 Y31.750 E28.21858
G1 X72.314 Y31.138 E28.24603
G1 X72.376 Y30.931 E28.25478
G1 X72.479 Y30.408 E28.27637
G1 X72.495 Y30.147 E28.28696
G1 X72.477 Y29.707 E28.30479
G1 X72.384 Y29.218 E28.32495
G1 X72.215 Y28.751 E28.34506
G1 X72.007 Y28.362 E28.36292
G1 X71.857 Y28.144 E28.37363
G1 X71.397 Y27.647 E28.40106
G1 X70.999 Y27.351 E28.42114
G1 X70.772 Y27.220 E28.43175
G1 X70.326 Y27.028 E28.45142
G1 X70.076 Y26.955 E28.46196
G1 X69.650 Y26.876 E28.47951
G1 X69.391 Y26.855 E28.49003
G1 X68.893 Y26.878 E28.51022
G1 X68.228 Y27.033 E28.53787
G1 X67.766 Y27.234 E28.55827
G1 X67.349 Y27.504 E28.57838
G1 X67.017 Y27.792 E28.59618
G1 X66.840 Y27.983 E28.60673
G1 X66.547 Y28.383 E28.62680
G1 X66.251 Y29.007 E28.65477
G1 X66.097 Y29.672 E28.68241
G1 X66.073 Y29.990 E28.69532
G1 X66.119 Y30.611 E28.72054
G1 X66.187 Y30.925 E28.73355
G1 X66.437 Y31.557 E28.76107
G1 X66.705 Y31.982 E28.78142
G1 X67.031 Y32.357 E28.80154
G1 X67.371 Y32.648 E28.81966
G1 X67.791 Y32.912 E28.83975
G0 F10500 X67.628 Y33.291
G0 X64.584 Y32.531
G0 X64.183 Y32.438
G1 F1500 X64.320 Y31.712 E28.86966
G1 X64.441 Y30.983 E28.89959
G1 X64.544 Y30.251 E28.92952
G1 X64.628 Y29.521 E28.95928
G1 X64.722 Y28.991 E28.98107
G1 X64.884 Y28.453 E29.00382
G1 X65.100 Y27.955 E29.02580
G1 X65.381 Y27.471 E29.04847
G1 X65.713 Y27.031 E29.07079
G1 X65.901 Y26.823 E29.08214
G1 X66.301 Y26.452 E29.10423
G1 X66.748 Y26.126 E29.12663
G1 X67.229 Y25.855 E29.14899
G1 X67.740 Y25.641 E29.17142
G1 X68.276 Y25.489 E29.19398
G1 X69.089 Y25.384 E29.22718
G1 X69.379 Y25.380 E29.23892
G1 X69.925 Y25.424 E29.26110
G1 X70.466 Y25.531 E29.28344
G1 X71.000 Y25.705 E29.30618
G1 X71.498 Y25.935 E29.32839
G1 X71.965 Y26.222 E29.35059
G1 X72.401 Y26.565 E29.37305
G1 X72.767 Y26.921 E29.39372
G1 X85.105 Y39.260 E30.10030
G1 X47.333 Y77.032 E32.26336
G1 X34.995 Y64.694 E32.96991
G1 X34.638 Y64.327 E32.99065
G1 X34.296 Y63.891 E33.01308
G1 X34.006 Y63.419 E33.03552
G1 X33.776 Y62.920 E33.05777
G1 X33.601 Y62.383 E33.08064
G1 X33.498 Y61.851 E33.10258
G1 X33.455 Y61.296 E33.12512
G1 X33.476 Y60.746 E33.14741
G1 X33.563 Y60.204 E33.16964
G1 X33.714 Y59.671 E33.19207
G1 X33.922 Y59.166 E33.21418
G1 X34.198 Y58.676 E33.23696
G1 X34.516 Y58.238 E33.25887
G1 X34.894 Y57.830 E33.28140
G1 X35.315 Y57.472 E33.30377
G1 X35.779 Y57.162 E33.32637
G1 X36.263 Y56.916 E33.34836
G1 X36.795 Y56.721 E33.37130
G1 X37.326 Y56.596 E33.39339
G1 X38.305 Y56.473 E33.43334
G1 X39.056 Y56.367 E33.46406
G1 X39.786 Y56.247 E33.49401
G1 X40.491 Y56.113 E33.52307
G1 X41.233 Y55.953 E33.55381
G1 X41.952 Y55.779 E33.58376
G1 X42.665 Y55.588 E33.61365
G1 X43.354 Y55.386 E33.64273
G1 X44.078 Y55.155 E33.67350
G1 X44.776 Y54.913 E33.70342
G1 X45.448 Y54.661 E33.73248
G1 X46.152 Y54.377 E33.76322
G1 X46.831 Y54.084 E33.79316
G1 X47.483 Y53.784 E33.82222
G1 X48.165 Y53.449 E33.85299
G1 X48.801 Y53.117 E33.88204
G1 X49.467 Y52.750 E33.91284
G1 X50.105 Y52.376 E33.94278
G1 X50.715 Y51.999 E33.97182
G1 X51.352 Y51.584 E34.00261
G1 X51.960 Y51.166 E34.03248
G1 X52.541 Y50.744 E34.06156
G1 X53.146 Y50.284 E34.09234
G1 X53.707 Y49.835 E34.12143
G1 X54.288 Y49.346 E34.15218
G1 X54.841 Y48.856 E34.18210
G1 X55.382 Y48.353 E34.21202
G1 X55.911 Y47.838 E34.24191
G1 X56.427 Y47.308 E34.27186
G1 X56.916 Y46.783 E34.30092
G1 X57.419 Y46.214 E34.33167
G1 X57.896 Y45.649 E34.36161
G1 X58.358 Y45.072 E34.39154
G1 X58.805 Y44.485 E34.42142
G1 X59.239 Y43.887 E34.45134
G1 X59.658 Y43.278 E34.48127
G1 X60.061 Y42.659 E34.51118
G1 X60.450 Y42.031 E34.54110
G1 X60.823 Y41.393 E34.57102
G1 X61.181 Y40.747 E34.60093
G1 X61.522 Y40.092 E34.63083
G1 X61.848 Y39.428 E34.66078
G1 X62.157 Y38.757 E34.69070
G1 X62.450 Y38.079 E34.72061
G1 X62.727 Y37.394 E34.75053
G1 X62.986 Y36.702 E34.78045
G1 X63.229 Y36.004 E34.81037
G1 X63.454 Y35.301 E34.84026
G1 X63.662 Y34.591 E34.87022
G1 X63.853 Y33.878 E34.90011
G1 X64.026 Y33.160 E34.93002
G1 X64.183 Y32.438 E34.95994
G0 F10500 X64.584 Y32.531
G0 X61.431 Y49.164
G0 X61.325 Y49.561
G1 F1500 X60.879 Y49.514 E34.97810
G1 X60.378 Y49.536 E34.99840
G1 X59.718 Y49.689 E35.02584
G1 X59.470 Y49.786 E35.03662
G1 X59.036 Y50.020 E35.05659
G1 X58.641 Y50.319 E35.07665
G1 X58.327 Y50.637 E35.09474
G1 X58.031 Y51.043 E35.11509
G1 X57.735 Y51.665 E35.14298
G1 X57.581 Y52.330 E35.17062
G1 X57.556 Y52.649 E35.18358
G1 X57.604 Y53.269 E35.20876
G1 X57.671 Y53.583 E35.22176
G1 X57.921 Y54.215 E35.24928
G1 X58.191 Y54.645 E35.26984
G1 X58.656 Y55.146 E35.29752
G1 X59.053 Y55.442 E35.31758
G1 X59.280 Y55.573 E35.32819
G1 X59.727 Y55.765 E35.34789
G1 X59.977 Y55.838 E35.35843
G1 X60.404 Y55.917 E35.37602
G1 X60.662 Y55.937 E35.38650
G1 X61.159 Y55.915 E35.40664
G1 X61.825 Y55.760 E35.43433
G1 X62.280 Y55.560 E35.45446
G1 X62.506 Y55.428 E35.46505
G1 X62.896 Y55.132 E35.48488
G1 X63.211 Y54.813 E35.50303
G1 X63.505 Y54.408 E35.52330
G1 X63.796 Y53.797 E35.55070
G1 X63.860 Y53.590 E35.55948
G1 X63.962 Y53.066 E35.58109
G1 X63.980 Y52.801 E35.59185
G1 X63.932 Y52.182 E35.61699
G1 X63.866 Y51.873 E35.62978
G1 X63.700 Y51.412 E35.64963
G1 X63.484 Y51.011 E35.66807
G1 X63.192 Y50.617 E35.68793
G1 X62.837 Y50.269 E35.70806
G1 X62.473 Y50.002 E35.72634
G1 X61.858 Y49.703 E35.75403
G1 X61.325 Y49.561 E35.77636
G0 F10500 X61.431 Y49.164
G0 X59.566 Y49.199
G0 X57.935 Y50.305
G0 X41.372 Y59.571
G0 X40.988 Y59.722
G1 F1500 X40.720 Y59.296 E35.79674
G1 X40.394 Y58.921 E35.81686
G1 X40.054 Y58.630 E35.83499
G1 X39.634 Y58.366 E35.85507
G1 X39.182 Y58.172 E35.87499
G1 X38.933 Y58.098 E35.88551
G1 X38.506 Y58.020 E35.90309
G1 X38.248 Y57.999 E35.91357
G1 X37.754 Y58.021 E35.93359
G1 X37.268 Y58.120 E35.95368
G1 X36.846 Y58.270 E35.97181
G1 X36.413 Y58.503 E35.99172
G1 X36.201 Y58.650 E36.00217
G1 X35.873 Y58.935 E36.01976
G1 X35.542 Y59.322 E36.04039
G1 X35.284 Y59.740 E36.06028
G1 X35.111 Y60.145 E36.07811
G1 X35.033 Y60.394 E36.08868
G1 X34.947 Y60.872 E36.10834
G1 X34.929 Y61.135 E36.11902
G1 X34.977 Y61.755 E36.14420
G1 X35.043 Y62.063 E36.15695
G1 X35.210 Y62.527 E36.17692
G1 X35.422 Y62.921 E36.19504
G1 X35.717 Y63.321 E36.21516
G1 X36.072 Y63.668 E36.23527
G1 X36.427 Y63.928 E36.25308
G1 X36.653 Y64.058 E36.26364
G1 X37.109 Y64.254 E36.28374
G1 X37.769 Y64.401 E36.31112
G1 X38.034 Y64.423 E36.32189
G1 X38.532 Y64.400 E36.34208
G1 X39.197 Y64.245 E36.36973
G1 X39.659 Y64.044 E36.39013
G1 X40.072 Y63.777 E36.41004
G1 X40.412 Y63.481 E36.42830
G1 X40.585 Y63.296 E36.43855
G1 X40.878 Y62.894 E36.45870
G1 X41.170 Y62.281 E36.48619
G1 X41.232 Y62.074 E36.49494
G1 X41.335 Y61.553 E36.51645
G1 X41.353 Y61.287 E36.52724
G1 X41.305 Y60.667 E36.55242
G1 X41.237 Y60.354 E36.56539
G1 X40.988 Y59.722 E36.59290
G0 F10500 X41.372 Y59.571
G0 X40.599 Y56.951
;TYPE:SKIN
G1 F1500 X53.409 Y69.761 E37.32648
G0 F10500 X52.967 Y70.203
G1 F1500 X39.853 Y57.090 E38.07744
G0 F10500 X41.327 Y56.796
G1 F1500 X53.851 Y69.319 E38.79461
G0 F10500 X54.293 Y68.877
G1 F1500 X42.041 Y56.625 E39.49624
G0 F10500 X42.740 Y56.441
G1 F1500 X54.735 Y68.435 E40.18312
G0 F10500 X55.176 Y67.993
G1 F1500 X43.426 Y56.243 E40.85600
G0 F10500 X44.100 Y56.033
G1 F1500 X55.618 Y67.552 E41.51562
G0 F10500 X56.060 Y67.110
G1 F1500 X44.760 Y55.809 E42.16275
G0 F10500 X45.409 Y55.575
G1 F1500 X56.502 Y66.668 E42.79801
G0 F10500 X56.944 Y66.226
G1 F1500 X46.047 Y55.328 E43.42207
G0 F10500 X46.673 Y55.071
G1 F1500 X57.386 Y65.784 E44.03556
G0 F10500 X57.828 Y65.342
G1 F1500 X47.288 Y54.802 E44.63914
G0 F10500 X47.893 Y54.522
G1 F1500 X58.270 Y64.900 E45.23342
G0 F10500 X58.712 Y64.458
G1 F1500 X48.485 Y54.231 E45.81909
G0 F10500 X49.068 Y53.930
G1 F1500 X59.154 Y64.016 E46.39667
G0 F10500 X59.596 Y63.574
G1 F1500 X49.640 Y53.618 E46.96681
G0 F10500 X50.202 Y53.296
G1 F1500 X60.038 Y63.132 E47.53009
G0 F10500 X60.480 Y62.690
G1 F1500 X50.755 Y52.965 E48.08700
G0 F10500 X51.299 Y52.625
G1 F1500 X60.922 Y62.248 E48.63807
G0 F10500 X61.364 Y61.806
G1 F1500 X51.833 Y52.276 E49.18385
G0 F10500 X52.357 Y51.916
G1 F1500 X61.806 Y61.364 E49.72493
G0 F10500 X62.248 Y60.922
G1 F1500 X52.872 Y51.547 E50.26183
G0 F10500 X53.377 Y51.168
G1 F1500 X62.689 Y60.480 E50.79509
G0 F10500 X63.131 Y60.039
G1 F1500 X59.742 Y56.649 E50.98919
G0 F10500 X58.313 Y55.528
G0 X56.842 Y53.750
G1 F1500 X53.874 Y50.781 E51.15919
G0 F10500 X54.362 Y50.385
G1 F1500 X56.716 Y52.739 E51.29399
G0 F10500 X56.803 Y51.942
G1 F1500 X54.842 Y49.981 E51.40629
G0 F10500 X55.311 Y49.566
G1 F1500 X56.995 Y51.251 E51.50276
G0 F10500 X57.281 Y50.652
G1 F1500 X55.772 Y49.143 E51.58917
G0 F10500 X56.223 Y48.711
G1 F1500 X57.648 Y50.135 E51.67075
G0 F10500 X58.080 Y49.684
G1 F1500 X56.666 Y48.269 E51.75175
G0 F10500 X57.100 Y47.820
G1 F1500 X58.583 Y49.303 E51.83668
G0 F10500 X59.163 Y48.999
G1 F1500 X57.528 Y47.364 E51.93031
G0 F10500 X57.942 Y46.894
G1 F1500 X59.842 Y48.794 E52.03911
G0 F10500 X60.612 Y48.680
G1 F1500 X58.349 Y46.418 E52.16868
G0 F10500 X58.748 Y45.932
G1 F1500 X61.568 Y48.752 E52.33017
G0 F10500 X63.156 Y49.457
G1 F1500 X59.138 Y45.438 E52.56029
G0 F10500 X59.519 Y44.935
G1 F1500 X68.877 Y54.293 E53.09619
G0 F10500 X68.435 Y54.735
G1 F1500 X64.027 Y50.328 E53.34859
G0 F10500 X64.738 Y51.922
G1 F1500 X67.993 Y55.177 E53.53499
G0 F10500 X67.551 Y55.619
G1 F1500 X64.819 Y52.887 E53.69144
G0 F10500 X64.705 Y53.658
G1 F1500 X67.109 Y56.061 E53.82908
G0 F10500 X66.667 Y56.503
G1 F1500 X64.481 Y54.317 E53.95426
G0 F10500 X64.185 Y54.905
G1 F1500 X66.225 Y56.945 E54.07109
G0 F10500 X65.783 Y57.387
G1 F1500 X63.806 Y55.410 E54.18430
G0 F10500 X63.355 Y55.843
G1 F1500 X65.341 Y57.829 E54.29803
G0 F10500 X64.899 Y58.271
G1 F1500 X62.839 Y56.211 E54.41600
G0 F10500 X62.243 Y56.498
G1 F1500 X64.457 Y58.713 E54.54282
G0 F10500 X64.015 Y59.155
G1 F1500 X61.550 Y56.689 E54.68401
G0 F10500 X60.755 Y56.778
G1 F1500 X63.573 Y59.597 E54.84541
G0 F10500 X69.319 Y53.851
G1 F1500 X59.890 Y44.423 E55.38535
G0 F10500 X60.251 Y43.900
G1 F1500 X69.761 Y53.409 E55.92992
G0 F10500 X70.202 Y52.967
G1 F1500 X60.604 Y43.368 E56.47959
G0 F10500 X60.947 Y42.828
G1 F1500 X70.644 Y52.526 E57.03493
G0 F10500 X71.086 Y52.084
G1 F1500 X61.281 Y42.278 E57.59645
G0 F10500 X61.605 Y41.719
G1 F1500 X71.528 Y51.642 E58.16471
G0 F10500 X71.970 Y51.200
G1 F1500 X61.920 Y41.150 E58.74023
G0 F10500 X62.223 Y40.569
G1 F1500 X72.412 Y50.758 E59.32372
G0 F10500 X72.854 Y50.316
G1 F1500 X62.516 Y39.978 E59.91573
G0 F10500 X62.799 Y39.377
G1 F1500 X73.296 Y49.874 E60.51686
G0 F10500 X73.738 Y49.432
G1 F1500 X63.071 Y38.765 E61.12772
G0 F10500 X63.333 Y38.143
G1 F1500 X74.180 Y48.990 E61.74888
G0 F10500 X74.622 Y48.548
G1 F1500 X63.583 Y37.509 E62.38104
G0 F10500 X63.822 Y36.864
G1 F1500 X75.064 Y48.106 E63.02483
G0 F10500 X75.506 Y47.664
G1 F1500 X64.049 Y36.207 E63.68093
G0 F10500 X64.263 Y35.537
G1 F1500 X75.948 Y47.222 E64.35008
G0 F10500 X76.390 Y46.780
G1 F1500 X64.463 Y34.854 E65.03307
G0 F10500 X64.650 Y34.157
G1 F1500 X76.832 Y46.338 E65.73066
G0 F10500 X77.274 Y45.896
G1 F1500 X64.823 Y33.446 E66.44365
G0 F10500 X64.983 Y32.722
G1 F1500 X77.715 Y45.454 E67.17276
G0 F10500 X78.157 Y45.013
G1 F1500 X65.128 Y31.983 E67.91891
G0 F10500 X65.490 Y31.462
G1 F1500 X65.262 Y31.233 E67.93200
G0 F10500 X67.912 Y33.883
G1 F1500 X78.599 Y44.571 E68.54403
G0 F10500 X79.041 Y44.129
G1 F1500 X69.026 Y34.113 E69.11758
G0 F10500 X69.873 Y34.076
G1 F1500 X79.483 Y43.687 E69.66794
G0 F10500 X79.925 Y43.245
G1 F1500 X70.583 Y33.902 E70.20295
G0 F10500 X71.197 Y33.633
G1 F1500 X80.367 Y42.803 E70.72808
G0 F10500 X80.809 Y42.361
G1 F1500 X71.735 Y33.287 E71.24771
G0 F10500 X72.204 Y32.871
G1 F1500 X81.251 Y41.919 E71.76583
G0 F10500 X81.693 Y41.477
G1 F1500 X72.602 Y32.386 E72.28644
G0 F10500 X72.921 Y31.821
G1 F1500 X82.135 Y41.035 E72.81409
G0 F10500 X82.577 Y40.593
G1 F1500 X73.177 Y31.193 E73.35239
G0 F10500 X73.319 Y30.452
G1 F1500 X83.019 Y40.151 E73.90784
G0 F10500 X83.461 Y39.709
G1 F1500 X73.307 Y29.555 E74.48932
G0 F10500 X73.192 Y28.557
G1 F1500 X83.903 Y39.267 E75.10267
G0 F10500 X52.525 Y70.645
G1 F1500 X42.063 Y60.183 E75.70179
G0 F10500 X42.191 Y61.195
G1 F1500 X52.083 Y71.087 E76.26827
G0 F10500 X51.641 Y71.529
G1 F1500 X42.107 Y61.995 E76.81425
G0 F10500 X41.911 Y62.683
G1 F1500 X51.199 Y71.971 E77.34613
G0 F10500 X50.757 Y72.413
G1 F1500 X41.627 Y63.283 E77.86897
G0 F10500 X41.261 Y63.800
G1 F1500 X50.315 Y72.855 E78.38749
G0 F10500 X49.873 Y73.297
G1 F1500 X40.819 Y64.243 E78.90598
G0 F10500 X40.315 Y64.623
G1 F1500 X49.431 Y73.739 E79.42802
G0 F10500 X48.989 Y74.181
G1 F1500 X39.737 Y64.929 E79.95784
G0 F10500 X39.065 Y65.140
G1 F1500 X48.547 Y74.623 E80.50087
G0 F10500 X48.105 Y75.065
G1 F1500 X38.296 Y65.255 E81.06262
G0 F10500 X37.322 Y65.165
G1 F1500 X47.663 Y75.506 E81.65481
G1 F420 E79.65481
G1 Z0.525
G0 F10500 X99.164 Y64.875
;TYPE:WALL-INNER
G1 Z0.425
G1 F420 E81.65481
G1 F1500 X99.360 Y65.433 E81.67876
G1 X99.607 Y65.896 E81.70001
G1 X99.820 Y66.208 E81.71531
G1 X100.116 Y66.549 E81.73359
G1 X100.391 Y66.811 E81.74897
G1 X100.875 Y67.161 E81.77316
G1 X101.529 Y67.474 E81.80252
G1 X101.909 Y67.597 E81.81869
G1 X102.467 Y67.697 E81.84165
G1 X102.795 Y67.717 E81.85496
G1 X103.316 Y67.694 E81.87607
G1 X103.897 Y67.581 E81.90004
G1 X104.453 Y67.378 E81.92401
G1 X104.911 Y67.132 E81.94506
G1 X105.183 Y66.945 E81.95843
G1 X105.614 Y66.566 E81.98167
G1 X105.962 Y66.158 E82.00338
G1 X106.285 Y65.644 E82.02796
G1 X106.575 Y64.898 E82.06037
G1 X106.686 Y64.318 E82.08429
G1 X106.710 Y63.983 E82.09789
G1 X106.682 Y63.412 E82.12104
G1 X106.580 Y62.885 E82.14277
G1 X106.384 Y62.327 E82.16672
G1 X106.130 Y61.851 E82.18857
G1 X105.784 Y61.377 E82.21233
G1 X105.362 Y60.955 E82.23650
G1 X104.869 Y60.599 E82.26112
G1 X104.215 Y60.286 E82.29048
G1 X103.835 Y60.163 E82.30665
G1 X103.263 Y60.061 E82.33018
G1 X102.726 Y60.043 E82.35194
G1 X102.154 Y60.108 E82.37525
G1 X101.828 Y60.186 E82.38882
G1 X101.276 Y60.387 E82.41261
G1 X100.631 Y60.762 E82.44282
G1 X100.133 Y61.190 E82.46941
G1 X99.782 Y61.603 E82.49136
G1 X99.459 Y62.116 E82.51591
G1 X99.169 Y62.862 E82.54832
G1 X99.058 Y63.442 E82.57223
G1 X99.034 Y63.777 E82.58583
G1 X99.062 Y64.348 E82.60898
G1 X99.164 Y64.875 E82.63072
G0 F10500 X100.464 Y66.724
G0 X115.485 Y79.903
G1 F1500 X115.056 Y80.443 E82.65864
G1 X114.985 Y80.541 E82.66354
G1 X114.824 Y80.827 E82.67683
G1 X114.605 Y81.340 E82.69942
G1 X114.513 Y81.655 E82.71271
G1 X114.422 Y82.150 E82.73309
G1 X114.400 Y82.482 E82.74656
G1 X114.427 Y83.068 E82.77032
G1 X114.589 Y83.774 E82.79965
G1 X114.729 Y84.145 E82.81571
G1 X114.971 Y84.600 E82.83657
G1 X115.330 Y85.089 E82.86114
G1 X115.744 Y85.502 E82.88482
G1 X115.999 Y85.702 E82.89794
G1 X116.486 Y85.999 E82.92104
G1 X116.980 Y86.212 E82.94282
G1 X117.551 Y86.362 E82.96673
G1 X118.061 Y86.417 E82.98750
G1 X118.178 Y86.419 E82.99224
G1 X118.694 Y86.398 E83.01315
G1 X119.458 Y86.223 E83.04489
G1 X119.844 Y86.070 E83.06170
G1 X120.477 Y85.702 E83.09135
G1 X120.988 Y85.264 E83.11860
G1 X121.417 Y84.724 E83.14653
G1 X121.488 Y84.626 E83.15143
G1 X121.649 Y84.340 E83.16472
G1 X121.868 Y83.827 E83.18731
G1 X121.960 Y83.512 E83.20060
G1 X122.051 Y83.017 E83.22098
G1 X122.073 Y82.685 E83.23445
G1 X122.046 Y82.099 E83.25820
G1 X121.884 Y81.391 E83.28761
G1 X121.742 Y81.018 E83.30378
G1 X121.473 Y80.520 E83.32670
G1 X121.132 Y80.065 E83.34972
G1 X120.738 Y79.672 E83.37225
G1 X120.475 Y79.465 E83.38581
G1 X119.987 Y79.167 E83.40896
G1 X119.492 Y78.954 E83.43078
G1 X118.922 Y78.805 E83.45464
G1 X118.412 Y78.750 E83.47541
G1 X118.295 Y78.748 E83.48015
G1 X117.779 Y78.769 E83.50106
G1 X117.015 Y78.944 E83.53280
G1 X116.629 Y79.097 E83.54961
G1 X115.996 Y79.465 E83.57926
G1 X115.485 Y79.903 E83.60651
G0 F10500 X108.854 Y61.522
G0 X107.993 Y54.828
G0 X107.295 Y43.856
G1 F1500 X108.059 Y43.681 E83.63825
G1 X108.445 Y43.528 E83.65507
G1 X109.078 Y43.160 E83.68471
G1 X109.578 Y42.732 E83.71137
G1 X109.928 Y42.317 E83.73335
G1 X110.250 Y41.805 E83.75784
G1 X110.540 Y41.060 E83.79021
G1 X110.651 Y40.479 E83.81417
G1 X110.675 Y40.144 E83.82777
G1 X110.647 Y39.573 E83.85092
G1 X110.545 Y39.046 E83.87265
G1 X110.349 Y38.489 E83.89656
G1 X110.102 Y38.026 E83.91781
G1 X109.733 Y37.523 E83.94307
G1 X109.339 Y37.130 E83.96561
G1 X109.075 Y36.923 E83.97919
G1 X108.588 Y36.626 E84.00229
G1 X108.094 Y36.413 E84.02407
G1 X107.523 Y36.263 E84.04798
G1 X107.013 Y36.208 E84.06875
G1 X106.896 Y36.206 E84.07349
G1 X106.379 Y36.227 E84.09444
G1 X105.616 Y36.402 E84.12614
G1 X105.245 Y36.549 E84.14230
G1 X104.782 Y36.798 E84.16359
G1 X104.307 Y37.153 E84.18760
G1 X103.896 Y37.575 E84.21145
G1 X103.570 Y38.021 E84.23382
G1 X103.218 Y38.754 E84.26675
G1 X103.035 Y39.527 E84.29892
G1 X102.999 Y39.931 E84.31534
G1 X103.027 Y40.510 E84.33881
G1 X103.129 Y41.037 E84.36055
G1 X103.325 Y41.594 E84.38446
G1 X103.572 Y42.058 E84.40575
G1 X103.930 Y42.545 E84.43022
G1 X104.129 Y42.761 E84.44211
G1 X104.362 Y42.976 E84.45495
G1 X104.827 Y43.313 E84.47821
G1 X105.305 Y43.562 E84.50003
G1 X105.863 Y43.756 E84.52395
G1 X106.433 Y43.859 E84.54741
G1 X106.761 Y43.878 E84.56071
G1 X107.295 Y43.856 E84.58235
G0 F10500 X109.485 Y44.426
G1 F1500 X109.246 Y45.165 E84.61380
G1 X109.034 Y45.888 E84.64431
G1 X108.838 Y46.616 E84.67484
G1 X108.666 Y47.329 E84.70454
G1 X108.501 Y48.085 E84.73588
G1 X108.358 Y48.828 E84.76651
G1 X108.240 Y49.549 E84.79610
G1 X108.130 Y50.317 E84.82751
G1 X108.043 Y51.066 E84.85805
G1 X107.976 Y51.795 E84.88769
G1 X107.922 Y52.569 E84.91911
G1 X107.891 Y53.302 E84.94882
G1 X107.877 Y54.077 E84.98021
G1 X107.881 Y54.830 E85.01070
G1 X107.903 Y55.563 E85.04039
G1 X107.945 Y56.338 E85.07182
G1 X108.005 Y57.089 E85.10233
G1 X108.079 Y57.817 E85.13196
G1 X108.178 Y58.586 E85.16336
G1 X108.288 Y59.311 E85.19305
G1 X108.425 Y60.075 E85.22448
G1 X108.575 Y60.815 E85.25505
G1 X108.744 Y61.548 E85.28551
G1 X108.930 Y62.279 E85.31606
G1 X109.134 Y63.006 E85.34663
G1 X109.350 Y63.706 E85.37630
G1 X109.595 Y64.441 E85.40767
G1 X109.852 Y65.150 E85.43821
G1 X110.125 Y65.853 E85.46875
G1 X110.416 Y66.549 E85.49929
G1 X110.723 Y67.237 E85.52980
G1 X111.048 Y67.918 E85.56036
G1 X111.388 Y68.591 E85.59089
G1 X111.746 Y69.255 E85.62144
G1 X112.119 Y69.910 E85.65196
G1 X112.508 Y70.556 E85.68249
G1 X112.913 Y71.193 E85.71306
G1 X113.333 Y71.819 E85.74358
G1 X113.768 Y72.434 E85.77409
G1 X114.218 Y73.039 E85.80462
G1 X114.683 Y73.634 E85.83520
G1 X115.161 Y74.215 E85.86566
G1 X115.655 Y74.786 E85.89624
G1 X116.162 Y75.344 E85.92677
G1 X116.682 Y75.890 E85.95730
G1 X117.216 Y76.423 E85.98785
G1 X117.761 Y76.943 E86.01835
G1 X118.320 Y77.449 E86.04889
G1 X118.892 Y77.942 E86.07946
G1 X119.475 Y78.421 E86.11002
G1 X120.069 Y78.884 E86.14051
G1 X120.644 Y79.311 E86.16952
G1 X121.025 Y79.631 E86.18966
G1 X121.348 Y79.973 E86.20871
G1 X121.637 Y80.364 E86.22840
G1 X121.873 Y80.775 E86.24759
G1 X122.061 Y81.219 E86.26712
G1 X122.200 Y81.697 E86.28727
G1 X122.241 Y81.901 E86.29570
G1 X122.294 Y82.401 E86.31606
G1 X122.298 Y82.620 E86.32493
G1 X122.264 Y83.102 E86.34450
G1 X122.171 Y83.594 E86.36477
G1 X122.111 Y83.806 E86.37369
G1 X121.941 Y84.250 E86.39294
G1 X121.718 Y84.674 E86.41234
G1 X121.443 Y85.076 E86.43207
G1 X121.117 Y85.448 E86.45210
G1 X120.965 Y85.592 E86.46057
G1 X120.583 Y85.898 E86.48039
G1 X120.171 Y86.155 E86.50006
G1 X119.733 Y86.360 E86.51964
G1 X119.058 Y86.569 E86.54825
G1 X102.807 Y90.924 E87.22953
G1 X89.304 Y40.534 E89.34198
G1 X105.540 Y36.183 E90.02263
G1 X106.026 Y36.061 E90.04292
G1 X106.481 Y35.995 E90.06153
G1 X106.736 Y35.981 E90.07187
G1 X107.210 Y35.997 E90.09108
G1 X107.676 Y36.068 E90.11017
G1 X108.147 Y36.197 E90.12994
G1 X108.588 Y36.377 E90.14923
G1 X109.002 Y36.605 E90.16837
G1 X109.397 Y36.888 E90.18804
G1 X109.747 Y37.209 E90.20727
G1 X110.063 Y37.573 E90.22679
G1 X110.326 Y37.963 E90.24584
G1 X110.551 Y38.398 E90.26567
G1 X110.719 Y38.847 E90.28509
G1 X110.780 Y39.066 E90.29429
G1 X110.869 Y39.548 E90.31414
G1 X110.892 Y39.791 E90.32402
G1 X110.900 Y40.013 E90.33302
G1 X110.894 Y40.254 E90.34278
G1 X110.839 Y40.737 E90.36246
G1 X110.732 Y41.194 E90.38147
G1 X110.556 Y41.680 E90.40240
G1 X110.283 Y42.311 E90.43024
G1 X109.991 Y43.029 E90.46163
G1 X109.726 Y43.735 E90.49216
G1 X109.485 Y44.426 E90.52180
G0 F10500 X110.077 Y44.625
;TYPE:WALL-OUTER
G1 F1500 X109.844 Y45.349 E90.55260
G1 X109.636 Y46.057 E90.58248
G1 X109.444 Y46.771 E90.61242
G1 X109.275 Y47.469 E90.64150
G1 X109.113 Y48.210 E90.67221
G1 X108.974 Y48.937 E90.70218
G1 X108.858 Y49.645 E90.73123
G1 X108.750 Y50.397 E90.76200
G1 X108.665 Y51.131 E90.79192
G1 X108.599 Y51.845 E90.82095
G1 X108.546 Y52.604 E90.85176
G1 X108.516 Y53.322 E90.88086
G1 X108.502 Y54.081 E90.91160
G1 X108.506 Y54.819 E90.94149
G1 X108.527 Y55.537 E90.97057
G1 X108.569 Y56.296 E91.00135
G1 X108.627 Y57.032 E91.03125
G1 X108.700 Y57.746 E91.06031
G1 X108.797 Y58.499 E91.09106
G1 X108.905 Y59.209 E91.12014
G1 X109.039 Y59.957 E91.15091
G1 X109.186 Y60.682 E91.18086
G1 X109.352 Y61.401 E91.21074
G1 X109.534 Y62.118 E91.24070
G1 X109.734 Y62.829 E91.27061
G1 X109.945 Y63.515 E91.29967
G1 X110.185 Y64.235 E91.33040
G1 X110.437 Y64.931 E91.36038
G1 X110.705 Y65.619 E91.39027
G1 X110.990 Y66.301 E91.42020
G1 X111.291 Y66.975 E91.45010
G1 X111.609 Y67.643 E91.48005
G1 X111.942 Y68.301 E91.50992
G1 X112.293 Y68.952 E91.53986
G1 X112.659 Y69.594 E91.56979
G1 X113.040 Y70.227 E91.59971
G1 X113.436 Y70.851 E91.62963
G1 X113.848 Y71.464 E91.65954
G1 X114.274 Y72.067 E91.68944
G1 X114.715 Y72.660 E91.71936
G1 X115.171 Y73.242 E91.74930
G1 X115.639 Y73.812 E91.77917
G1 X116.122 Y74.372 E91.80911
G1 X116.620 Y74.919 E91.83907
G1 X117.129 Y75.453 E91.86894
G1 X117.652 Y75.975 E91.89886
G1 X118.187 Y76.485 E91.92879
G1 X118.734 Y76.981 E91.95869
G1 X119.294 Y77.464 E91.98864
G1 X119.865 Y77.933 E92.01856
G1 X120.447 Y78.386 E92.04842
G1 X121.022 Y78.813 E92.07742
G1 X121.454 Y79.176 E92.10027
G1 X121.829 Y79.573 E92.12239
G1 X122.161 Y80.022 E92.14500
G1 X122.436 Y80.502 E92.16740
G1 X122.649 Y81.003 E92.18944
G1 X122.806 Y81.544 E92.21225
G1 X122.861 Y81.817 E92.22353
G1 X122.918 Y82.358 E92.24556
G1 X122.924 Y82.641 E92.25702
G1 X122.886 Y83.178 E92.27882
G1 X122.779 Y83.739 E92.30195
G1 X122.513 Y84.506 E92.33482
G1 X122.253 Y84.999 E92.35739
G1 X121.942 Y85.454 E92.37971
G1 X121.566 Y85.883 E92.40281
G1 X121.375 Y86.064 E92.41346
G1 X120.941 Y86.411 E92.43596
G1 X120.468 Y86.706 E92.45853
G1 X119.973 Y86.938 E92.48067
G1 X119.215 Y87.174 E92.51282
G1 X102.364 Y91.690 E93.21925
G1 X88.538 Y40.091 E95.38237
G1 X105.388 Y35.576 E96.08876
G1 X105.904 Y35.447 E96.11029
G1 X106.431 Y35.372 E96.13185
G1 X106.722 Y35.356 E96.14365
G1 X107.273 Y35.375 E96.16597
G1 X107.808 Y35.455 E96.18788
G1 X108.346 Y35.603 E96.21047
G1 X108.858 Y35.812 E96.23287
G1 X109.336 Y36.076 E96.25498
G1 X109.791 Y36.402 E96.27764
G1 X110.198 Y36.774 E96.29997
G1 X110.559 Y37.191 E96.32231
G1 X110.868 Y37.647 E96.34461
G1 X111.119 Y38.135 E96.36683
G1 X111.314 Y38.655 E96.38932
G1 X111.388 Y38.920 E96.40046
G1 X111.489 Y39.467 E96.42299
G1 X111.516 Y39.749 E96.43446
G1 X111.525 Y40.032 E96.44592
G1 X111.518 Y40.296 E96.45662
G1 X111.456 Y40.838 E96.47871
G1 X111.329 Y41.383 E96.50137
G1 X111.143 Y41.897 E96.52350
G1 X110.859 Y42.552 E96.55241
G1 X110.573 Y43.256 E96.58318
G1 X110.314 Y43.948 E96.61310
G1 X110.077 Y44.625 E96.64215
G0 F10500 X109.690 Y44.482
G0 X108.982 Y42.963
G0 X108.714 Y42.648
G1 F1500 X109.133 Y42.290 E96.66446
G1 X109.422 Y41.948 E96.68259
G1 X109.689 Y41.523 E96.70292
G1 X109.937 Y40.887 E96.73056
G1 X110.030 Y40.398 E96.75072
G1 X110.049 Y40.137 E96.76131
G1 X110.025 Y39.648 E96.78114
G1 X109.940 Y39.209 E96.79924
G1 X109.775 Y38.741 E96.81934
G1 X109.567 Y38.351 E96.83724
G1 X109.267 Y37.941 E96.85781
G1 X108.924 Y37.599 E96.87742
G1 X108.718 Y37.437 E96.88803
G1 X108.300 Y37.182 E96.90786
G1 X107.890 Y37.005 E96.92595
G1 X107.410 Y36.879 E96.94604
G1 X106.973 Y36.832 E96.96384
G1 X106.903 Y36.831 E96.96667
G1 X106.462 Y36.849 E96.98455
G1 X105.802 Y37.000 E97.01196
G1 X105.509 Y37.117 E97.02474
G1 X105.119 Y37.326 E97.04265
G1 X104.720 Y37.624 E97.06282
G1 X104.375 Y37.979 E97.08287
G1 X104.108 Y38.344 E97.10118
G1 X103.810 Y38.964 E97.12903
G1 X103.653 Y39.627 E97.15662
G1 X103.625 Y39.943 E97.16947
G1 X103.649 Y40.435 E97.18941
G1 X103.734 Y40.874 E97.20752
G1 X103.899 Y41.342 E97.22762
G1 X104.107 Y41.732 E97.24551
G1 X104.403 Y42.137 E97.26583
G1 X104.759 Y42.492 E97.28618
G1 X105.157 Y42.780 E97.30608
G1 X105.553 Y42.986 E97.32415
G1 X106.022 Y43.150 E97.34427
G1 X106.507 Y43.237 E97.36423
G1 X106.766 Y43.252 E97.37473
G1 X107.212 Y43.234 E97.39281
G1 X107.873 Y43.083 E97.42026
G1 X108.171 Y42.964 E97.43325
G1 X108.714 Y42.648 E97.45869
G0 F10500 X108.982 Y42.963
G0 X103.756 Y60.365
G0 X103.683 Y60.771
G1 F1500 X103.198 Y60.684 E97.47865
G1 X102.751 Y60.669 E97.49676
G1 X102.262 Y60.725 E97.51669
G1 X102.008 Y60.786 E97.52727
G1 X101.542 Y60.955 E97.54734
G1 X100.994 Y61.274 E97.57302
G1 X100.577 Y61.632 E97.59527
G1 X100.287 Y61.974 E97.61343
G1 X100.020 Y62.398 E97.63372
G1 X99.772 Y63.035 E97.66140
G1 X99.679 Y63.523 E97.68151
G1 X99.660 Y63.784 E97.69211
G1 X99.684 Y64.273 E97.71194
G1 X99.769 Y64.712 E97.73004
G1 X99.933 Y65.181 E97.75016
G1 X100.142 Y65.571 E97.76808
G1 X100.316 Y65.825 E97.78055
G1 X100.569 Y66.117 E97.79619
G1 X100.792 Y66.329 E97.80865
G1 X101.196 Y66.621 E97.82883
G1 X101.761 Y66.892 E97.85421
G1 X102.061 Y66.989 E97.86698
G1 X102.542 Y67.075 E97.88676
G1 X102.800 Y67.091 E97.89723
G1 X103.242 Y67.072 E97.91514
G1 X103.730 Y66.977 E97.93528
G1 X104.197 Y66.806 E97.95541
G1 X104.585 Y66.598 E97.97324
G1 X104.799 Y66.451 E97.98375
G1 X105.168 Y66.127 E98.00364
G1 X105.457 Y65.787 E98.02171
G1 X105.724 Y65.362 E98.04203
G1 X105.972 Y64.725 E98.06971
G1 X106.065 Y64.237 E98.08983
G1 X106.084 Y63.976 E98.10043
G1 X106.060 Y63.487 E98.12025
G1 X105.975 Y63.048 E98.13836
G1 X105.811 Y62.579 E98.15848
G1 X105.600 Y62.185 E98.17657
G1 X105.308 Y61.785 E98.19663
G1 X104.955 Y61.433 E98.21681
G1 X104.548 Y61.139 E98.23715
G1 X103.983 Y60.868 E98.26252
G1 X103.683 Y60.771 E98.27529
G0 F10500 X103.756 Y60.365
G0 X105.288 Y61.042
G0 X106.471 Y62.915
G0 X116.153 Y79.619
G0 X116.360 Y79.977
G1 F1500 X115.937 Y80.339 E98.29783
G1 X115.555 Y80.820 E98.32270
G1 X115.385 Y81.105 E98.33614
G1 X115.195 Y81.551 E98.35577
G1 X115.122 Y81.800 E98.36628
G1 X115.043 Y82.228 E98.38390
G1 X115.026 Y82.488 E98.39445
G1 X115.049 Y82.982 E98.41448
G1 X115.189 Y83.593 E98.43986
G1 X115.299 Y83.887 E98.45257
G1 X115.506 Y84.274 E98.47034
G1 X115.678 Y84.524 E98.48263
G1 X115.937 Y84.824 E98.49868
G1 X116.153 Y85.028 E98.51071
G1 X116.356 Y85.188 E98.52118
G1 X116.774 Y85.443 E98.54101
G1 X117.184 Y85.620 E98.55909
G1 X117.664 Y85.746 E98.57918
G1 X118.101 Y85.793 E98.59698
G1 X118.171 Y85.794 E98.59982
G1 X118.611 Y85.776 E98.61765
G1 X119.272 Y85.625 E98.64510
G1 X119.570 Y85.506 E98.65810
G1 X120.113 Y85.190 E98.68354
G1 X120.536 Y84.828 E98.70608
G1 X120.918 Y84.347 E98.73096
G1 X121.088 Y84.062 E98.74439
G1 X121.278 Y83.616 E98.76402
G1 X121.351 Y83.367 E98.77453
G1 X121.430 Y82.939 E98.79216
G1 X121.447 Y82.679 E98.80271
G1 X121.424 Y82.185 E98.82273
G1 X121.284 Y81.573 E98.84815
G1 X121.172 Y81.279 E98.86089
G1 X120.941 Y80.849 E98.88066
G1 X120.666 Y80.483 E98.89920
G1 X120.323 Y80.141 E98.91881
G1 X120.117 Y79.979 E98.92942
G1 X119.699 Y79.723 E98.94927
G1 X119.289 Y79.547 E98.96734
G1 X118.809 Y79.421 E98.98743
G1 X118.372 Y79.374 E99.00523
G1 X118.302 Y79.373 E99.00807
G1 X117.862 Y79.391 E99.02590
G1 X117.201 Y79.542 E99.05335
G1 X116.903 Y79.661 E99.06635
G1 X116.360 Y79.977 E99.09179
G0 F10500 X115.929 Y79.248
;TYPE:SKIN
G1 F1500 X104.335 Y67.654 E99.75573
G0 F10500 X104.933 Y67.368
G1 F1500 X116.488 Y78.924 E100.41747
G0 F10500 X117.138 Y78.690
G1 F1500 X105.450 Y67.001 E101.08683
G0 F10500 X105.899 Y66.567
G1 F1500 X117.877 Y78.545 E101.77276
G0 F10500 X118.784 Y78.568
G1 F1500 X106.278 Y66.062 E102.48893
G0 F10500 X106.581 Y65.481
G1 F1500 X113.414 Y72.315 E102.88026
G0 F10500 X111.830 Y69.846
G1 F1500 X106.810 Y64.826 E103.16774
G0 F10500 X106.923 Y64.056
G1 F1500 X110.822 Y67.954 E103.39099
G0 F10500 X110.090 Y66.339
G1 F1500 X106.842 Y63.090 E103.57702
G0 F10500 X106.169 Y61.534
G1 F1500 X109.523 Y64.887 E103.76906
G0 F10500 X109.074 Y63.555
G1 F1500 X90.802 Y45.283 E104.81543
G0 F10500 X91.125 Y46.490
G1 F1500 X105.212 Y60.577 E105.62214
G0 F10500 X108.192 Y60.022
G1 F1500 X89.831 Y41.660 E106.67363
G0 F10500 X89.706 Y40.651
G1 F1500 X108.012 Y58.957 E107.72195
G0 F10500 X107.872 Y57.933
G1 F1500 X90.403 Y40.464 E108.72233
G0 F10500 X91.100 Y40.278
G1 F1500 X107.774 Y56.951 E109.67716
G0 F10500 X107.707 Y56.000
G1 F1500 X91.798 Y40.091 E110.58821
G0 F10500 X90.155 Y42.868
G1 F1500 X108.424 Y61.137 E111.63440
G0 F10500 X108.712 Y62.308
G1 F1500 X90.478 Y44.075 E112.67857
G0 F10500 X91.449 Y47.697
G1 F1500 X103.661 Y59.910 E113.37793
G0 F10500 X102.692 Y59.824
G1 F1500 X91.772 Y48.904 E114.00328
G0 F10500 X92.096 Y50.112
G1 F1500 X101.921 Y59.937 E114.56592
G0 F10500 X107.669 Y55.078
G1 F1500 X92.495 Y39.904 E115.43487
G0 F10500 X93.191 Y39.717
G1 F1500 X107.657 Y54.183 E116.26329
G0 F10500 X107.671 Y53.313
G1 F1500 X93.888 Y39.530 E117.05259
G0 F10500 X94.586 Y39.344
G1 F1500 X107.709 Y52.467 E117.80409
G0 F10500 X107.770 Y51.644
G1 F1500 X95.283 Y39.157 E118.51917
G0 F10500 X95.980 Y38.970
G1 F1500 X107.848 Y50.838 E119.19881
G0 F10500 X107.946 Y50.053
G1 F1500 X96.677 Y38.784 E119.84414
G0 F10500 X97.374 Y38.596
G1 F1500 X108.061 Y49.283 E120.45615
G0 F10500 X108.191 Y48.530
G1 F1500 X98.071 Y38.410 E121.03568
G0 F10500 X98.768 Y38.223
G1 F1500 X108.340 Y47.794 E121.58380
G0 F10500 X108.502 Y47.073
G1 F1500 X105.165 Y43.735 E121.77493
G0 F10500 X106.384 Y44.071
G1 F1500 X108.678 Y46.365 E121.90630
G0 F10500 X108.868 Y45.672
G1 F1500 X107.273 Y44.076 E121.99767
G0 F10500 X108.000 Y43.919
G1 F1500 X109.071 Y44.991 E122.05903
G0 F10500 X109.289 Y44.324
G1 F1500 X108.914 Y43.507 E122.09648
G1 X109.517 Y43.668 E122.12175
G0 F10500 X105.893 Y43.646
G0 X104.015 Y42.471
G0 X103.137 Y41.708
G1 F1500 X99.465 Y38.036 E122.33203
G0 F10500 X100.163 Y37.850
G1 F1500 X102.806 Y40.493 E122.48339
G0 F10500 X102.806 Y39.610
G1 F1500 X100.860 Y37.663 E122.59485
G0 F10500 X101.556 Y37.475
G1 F1500 X102.961 Y38.880 E122.67531
G0 F10500 X103.216 Y38.251
G1 F1500 X102.254 Y37.289 E122.73040
G0 F10500 X102.951 Y37.102
G1 F1500 X103.741 Y37.451 E122.76403
G1 X103.648 Y36.915 E122.78606
G0 F10500 X92.419 Y51.319
G1 F1500 X101.258 Y60.158 E123.29224
G0 F10500 X100.689 Y60.473
G1 F1500 X92.743 Y52.527 E123.74727
G0 F10500 X93.066 Y53.734
G1 F1500 X100.186 Y60.854 E124.15501
G0 F10500 X99.147 Y63.778
G0 X99.703 Y65.837
G0 X100.933 Y67.062
G0 X101.831 Y67.802
G1 F1500 X114.675 Y80.646 E124.89054
G0 F10500 X115.032 Y80.120
G1 F1500 X102.846 Y67.933 E125.58841
G0 F10500 X103.649 Y67.852
G1 F1500 X115.445 Y79.648 E126.26392
G0 F10500 X114.402 Y81.257
G1 F1500 X95.331 Y62.186 E127.35605
G0 F10500 X95.654 Y63.393
G1 F1500 X114.231 Y81.970 E128.41988
G0 F10500 X114.196 Y82.819
G1 F1500 X95.978 Y64.601 E129.46316
G0 F10500 X96.301 Y65.808
G1 F1500 X114.407 Y83.914 E130.50002
G0 F10500 X116.915 Y86.421
G1 F1500 X117.304 Y86.811 E130.52232
G0 F10500 X116.607 Y86.998
G1 F1500 X96.625 Y67.016 E131.66662
G0 F10500 X96.948 Y68.223
G1 F1500 X115.910 Y87.184 E132.75247
G0 F10500 X115.213 Y87.371
G1 F1500 X97.272 Y69.430 E133.77988
G0 F10500 X97.595 Y70.637
G1 F1500 X114.515 Y87.558 E134.74886
G0 F10500 X113.819 Y87.745
G1 F1500 X97.919 Y71.845 E135.65939
G0 F10500 X98.242 Y73.052
G1 F1500 X113.122 Y87.932 E136.51151
G0 F10500 X112.425 Y88.118
G1 F1500 X98.566 Y74.260 E137.30513
G0 F10500 X98.889 Y75.467
G1 F1500 X111.727 Y88.305 E138.04032
G0 F10500 X111.030 Y88.492
G1 F1500 X99.213 Y76.675 E138.71703
G0 F10500 X99.536 Y77.882
G1 F1500 X110.334 Y88.679 E139.33536
G0 F10500 X109.636 Y88.866
G1 F1500 X99.860 Y79.089 E139.89523
G0 F10500 X98.948 Y64.919
G1 F1500 X95.007 Y60.978 E140.12091
G0 F10500 X94.684 Y59.771
G1 F1500 X98.821 Y63.908 E140.35782
G0 F10500 X98.898 Y63.102
G1 F1500 X94.360 Y58.563 E140.61773
G0 F10500 X94.037 Y57.356
G1 F1500 X99.104 Y62.424 E140.90792
G0 F10500 X99.385 Y61.821
G1 F1500 X93.713 Y56.149 E141.23274
G0 F10500 X93.390 Y54.942
G1 F1500 X99.750 Y61.301 E141.59692
G0 F10500 X99.175 Y64.334
G0 X100.183 Y80.296
G1 F1500 X108.939 Y89.053 E142.09837
G0 F10500 X108.242 Y89.239
G1 F1500 X100.507 Y81.504 E142.54133
G0 F10500 X100.831 Y82.712
G1 F1500 X107.545 Y89.426 E142.92581
G0 F10500 X106.848 Y89.613
G1 F1500 X101.154 Y83.919 E143.25189
G0 F10500 X101.478 Y85.127
G1 F1500 X106.151 Y89.800 E143.51949
G0 F10500 X105.454 Y89.987
G1 F1500 X101.801 Y86.334 E143.72868
G0 F10500 X102.125 Y87.541
G1 F1500 X104.757 Y90.173 E143.87941
G0 F10500 X104.059 Y90.360
G1 F1500 X102.448 Y88.748 E143.97169
G0 F10500 X102.772 Y89.956
G1 F1500 X103.362 Y90.547 E144.00551
G1 F420 E142.00551
G1 Z0.525
G0 F10500 X99.156 Y95.113
;TYPE:WALL-INNER
G1 Z0.425
G1 F420 E144.00551
G1 F1500 X94.806 Y111.347 E144.68607
G1 X94.672 Y111.815 E144.70578
G1 X94.493 Y112.265 E144.72539
G1 X94.261 Y112.690 E144.74500
G1 X93.989 Y113.074 E144.76405
G1 X93.663 Y113.438 E144.78384
G1 X93.295 Y113.760 E144.80364
G1 X93.126 Y113.883 E144.81210
G1 X92.708 Y114.135 E144.83187
G1 X92.265 Y114.336 E144.85157
G1 X91.812 Y114.480 E144.87082
G1 X91.328 Y114.572 E144.89076
G1 X91.110 Y114.594 E144.89964
G1 X90.874 Y114.604 E144.90920
G1 X90.384 Y114.580 E144.92907
G1 X89.920 Y114.504 E144.94811
G1 X89.452 Y114.368 E144.96784
G1 X89.021 Y114.187 E144.98677
G1 X88.581 Y113.935 E145.00730
G1 X88.039 Y113.507 E145.03527
G1 X87.700 Y113.149 E145.05523
G1 X87.125 Y112.388 E145.09386
G1 X86.650 Y111.780 E145.12510
G1 X86.172 Y111.198 E145.15560
G1 X85.694 Y110.643 E145.18526
G1 X85.174 Y110.068 E145.21665
G1 X84.653 Y109.521 E145.24724
G1 X84.121 Y108.988 E145.27773
G1 X83.589 Y108.482 E145.30746
G1 X83.017 Y107.961 E145.33879
G1 X82.446 Y107.468 E145.36934
G1 X81.879 Y107.001 E145.39908
G1 X81.269 Y106.524 E145.43044
G1 X80.665 Y106.074 E145.46094
G1 X80.067 Y105.651 E145.49060
G1 X79.424 Y105.219 E145.52197
G1 X78.806 Y104.826 E145.55163
G1 X78.142 Y104.425 E145.58304
G1 X77.485 Y104.051 E145.61365
G1 X76.840 Y103.704 E145.64331
G1 X76.150 Y103.354 E145.67464
G1 X75.468 Y103.029 E145.70523
G1 X74.799 Y102.731 E145.73488
G1 X74.085 Y102.431 E145.76624
G1 X73.401 Y102.165 E145.79596
G1 X72.673 Y101.901 E145.82732
G1 X71.957 Y101.662 E145.85789
G1 X71.237 Y101.440 E145.88840
G1 X70.511 Y101.236 E145.91893
G1 X69.780 Y101.049 E145.94949
G1 X69.065 Y100.886 E145.97918
G1 X68.306 Y100.731 E146.01055
G1 X67.564 Y100.599 E146.04107
G1 X66.819 Y100.484 E146.07159
G1 X66.071 Y100.388 E146.10213
G1 X65.320 Y100.310 E146.13270
G1 X64.568 Y100.251 E146.16325
G1 X63.816 Y100.210 E146.19374
G1 X63.062 Y100.187 E146.22429
G1 X62.308 Y100.182 E146.25482
G1 X61.554 Y100.196 E146.28536
G1 X60.801 Y100.228 E146.31588
G1 X60.049 Y100.279 E146.34640
G1 X59.298 Y100.348 E146.37694
G1 X58.548 Y100.436 E146.40752
G1 X57.802 Y100.541 E146.43802
G1 X57.058 Y100.665 E146.46857
G1 X56.317 Y100.807 E146.49912
G1 X55.580 Y100.967 E146.52966
G1 X54.849 Y101.144 E146.56011
G1 X54.119 Y101.339 E146.59071
G1 X53.396 Y101.553 E146.62124
G1 X52.678 Y101.784 E146.65178
G1 X51.966 Y102.032 E146.68231
G1 X51.261 Y102.297 E146.71281
G1 X50.561 Y102.580 E146.74339
G1 X49.895 Y102.868 E146.77277
G1 X49.445 Y103.031 E146.79215
G1 X48.959 Y103.146 E146.81237
G1 X48.486 Y103.200 E146.83165
G1 X48.242 Y103.206 E146.84153
G1 X47.789 Y103.176 E146.85992
G1 X47.292 Y103.085 E146.88038
G1 X46.629 Y102.857 E146.90877
G1 X46.205 Y102.638 E146.92809
G1 X45.808 Y102.369 E146.94751
G1 X45.449 Y102.060 E146.96669
G1 X45.122 Y101.704 E146.98626
G1 X44.842 Y101.316 E147.00564
G1 X44.609 Y100.894 E147.02516
G1 X44.422 Y100.434 E147.04527
G1 X44.361 Y100.238 E147.05358
G1 X44.255 Y99.736 E147.07435
G1 X44.230 Y99.534 E147.08260
G1 X44.213 Y99.020 E147.10342
G1 X44.225 Y98.801 E147.11230
G1 X44.297 Y98.313 E147.13228
G1 X48.765 Y81.610 E147.83242
G1 X99.156 Y95.113 E149.94490
G0 F10500 X92.580 Y107.132
G1 F1500 X92.036 Y106.903 E149.96881
G1 X91.516 Y106.767 E149.99057
G1 X90.926 Y106.703 E150.01460
G1 X90.337 Y106.734 E150.03848
G1 X89.807 Y106.837 E150.06035
G1 X89.249 Y107.036 E150.08434
G1 X88.747 Y107.310 E150.10750
G1 X88.519 Y107.466 E150.11868
G1 X88.084 Y107.842 E150.14196
G1 X87.703 Y108.294 E150.16590
G1 X87.419 Y108.751 E150.18769
G1 X87.183 Y109.294 E150.21167
G1 X87.036 Y109.867 E150.23562
G1 X86.978 Y110.402 E150.25741
G1 X87.002 Y110.993 E150.28136
G1 X87.116 Y111.574 E150.30534
G1 X87.298 Y112.081 E150.32715
G1 X87.575 Y112.604 E150.35111
G1 X87.930 Y113.076 E150.37503
G1 X88.313 Y113.454 E150.39682
G1 X88.775 Y113.794 E150.42005
G1 X89.067 Y113.959 E150.43363
G1 X89.593 Y114.180 E150.45673
G1 X90.113 Y114.317 E150.47851
G1 X90.704 Y114.381 E150.50258
G1 X91.292 Y114.350 E150.52642
G1 X91.821 Y114.248 E150.54824
G1 X92.381 Y114.048 E150.57232
G1 X92.898 Y113.766 E150.59616
G1 X93.330 Y113.445 E150.61796
G1 X93.746 Y113.022 E150.64198
G1 X94.100 Y112.531 E150.66649
G1 X94.422 Y111.857 E150.69674
G1 X94.594 Y111.224 E150.72330
G1 X94.652 Y110.681 E150.74541
G1 X94.628 Y110.091 E150.76932
G1 X94.514 Y109.510 E150.79330
G1 X94.331 Y109.004 E150.81509
G1 X94.064 Y108.497 E150.83829
G1 X93.872 Y108.221 E150.85191
G1 X93.494 Y107.794 E150.87500
G1 X93.085 Y107.445 E150.89677
G1 X92.580 Y107.132 E150.92083
G0 F10500 X75.551 Y96.980
G1 F1500 X75.785 Y96.437 E150.94477
G1 X75.934 Y95.865 E150.96871
G1 X75.990 Y95.328 E150.99057
G1 X75.968 Y94.738 E151.01448
G1 X75.851 Y94.156 E151.03852
G1 X75.671 Y93.650 E151.06026
G1 X75.394 Y93.127 E151.08423
G1 X75.037 Y92.655 E151.10819
G1 X74.656 Y92.277 E151.12992
G1 X74.195 Y91.937 E151.15312
G1 X73.901 Y91.771 E151.16679
G1 X73.375 Y91.550 E151.18989
G1 X72.855 Y91.414 E151.21166
G1 X72.264 Y91.350 E151.23573
G1 X71.694 Y91.380 E151.25884
G1 X71.442 Y91.419 E151.26917
G1 X71.134 Y91.487 E151.28194
G1 X70.587 Y91.684 E151.30548
G1 X70.071 Y91.965 E151.32928
G1 X69.639 Y92.286 E151.35107
G1 X69.222 Y92.709 E151.37512
G1 X68.869 Y93.201 E151.39964
G1 X68.554 Y93.857 E151.42911
G1 X68.434 Y94.240 E151.44536
G1 X68.335 Y94.808 E151.46871
G1 X68.317 Y95.346 E151.49051
G1 X68.385 Y95.916 E151.51375
G1 X68.461 Y96.238 E151.52715
G1 X68.637 Y96.728 E151.54823
G1 X68.906 Y97.235 E151.57147
G1 X69.282 Y97.735 E151.59681
G1 X69.652 Y98.101 E151.61788
G1 X70.114 Y98.441 E151.64111
G1 X70.406 Y98.606 E151.65469
G1 X70.932 Y98.827 E151.67779
G1 X71.452 Y98.964 E151.69957
G1 X72.043 Y99.028 E151.72364
G1 X72.613 Y98.998 E151.74675
G1 X72.886 Y98.956 E151.75794
G1 X73.443 Y98.806 E151.78129
G1 X73.983 Y98.564 E151.80526
G1 X74.435 Y98.276 E151.82696
G1 X74.884 Y97.889 E151.85096
G1 X75.266 Y97.438 E151.87490
G1 X75.551 Y96.980 E151.89674
G0 F10500 X73.928 Y98.465
G0 X72.047 Y98.915
G0 X70.176 Y98.346
G0 X52.086 Y98.692
G1 F1500 X51.972 Y98.111 E151.92071
G1 X51.790 Y97.604 E151.94253
G1 X51.513 Y97.081 E151.96649
G1 X51.157 Y96.608 E151.99046
G1 X50.774 Y96.231 E152.01223
G1 X50.314 Y95.891 E152.03539
G1 X50.020 Y95.725 E152.04906
G1 X49.494 Y95.505 E152.07215
G1 X48.975 Y95.368 E152.09388
G1 X48.384 Y95.304 E152.11795
G1 X47.796 Y95.335 E152.14180
G1 X47.267 Y95.437 E152.16361
G1 X46.707 Y95.637 E152.18769
G1 X46.190 Y95.919 E152.21154
G1 X45.758 Y96.240 E152.23333
G1 X45.341 Y96.663 E152.25739
G1 X44.987 Y97.155 E152.28193
G1 X44.675 Y97.809 E152.31127
G1 X44.553 Y98.193 E152.32759
G1 X44.454 Y98.762 E152.35097
G1 X44.436 Y99.300 E152.37277
G1 X44.504 Y99.870 E152.39602
G1 X44.580 Y100.192 E152.40941
G1 X44.756 Y100.682 E152.43050
G1 X45.025 Y101.189 E152.45374
G1 X45.205 Y101.448 E152.46651
G1 X45.402 Y101.690 E152.47914
G1 X45.772 Y102.054 E152.50016
G1 X46.232 Y102.394 E152.52332
G1 X46.526 Y102.561 E152.53702
G1 X47.052 Y102.781 E152.56010
G1 X47.571 Y102.918 E152.58184
G1 X48.162 Y102.982 E152.60591
G1 X48.750 Y102.951 E152.62975
G1 X49.279 Y102.849 E152.65157
G1 X49.839 Y102.649 E152.67565
G1 X50.341 Y102.375 E152.69881
G1 X50.569 Y102.218 E152.71002
G1 X51.003 Y101.843 E152.73324
G1 X51.385 Y101.392 E152.75718
G1 X51.669 Y100.934 E152.77900
G1 X51.905 Y100.391 E152.80297
G1 X52.052 Y99.818 E152.82693
G1 X52.110 Y99.283 E152.84872
G1 X52.086 Y98.692 E152.87267
G0 F10500 X51.464 Y98.765
;TYPE:WALL-OUTER
G1 F1500 X51.368 Y98.278 E152.89277
G1 X51.217 Y97.857 E152.91088
G1 X50.984 Y97.418 E152.93100
G1 X50.685 Y97.021 E152.95113
G1 X50.367 Y96.707 E152.96923
G1 X49.973 Y96.417 E152.98904
G1 X49.745 Y96.287 E152.99966
G1 X49.293 Y96.098 E153.01950
G1 X48.862 Y95.984 E153.03756
G1 X48.367 Y95.931 E153.05771
G1 X47.871 Y95.957 E153.07783
G1 X47.432 Y96.041 E153.09593
G1 X46.963 Y96.209 E153.11610
G1 X46.527 Y96.447 E153.13621
G1 X46.170 Y96.713 E153.15424
G1 X45.820 Y97.067 E153.17440
G1 X45.527 Y97.475 E153.19474
G1 X45.257 Y98.040 E153.22010
G1 X45.161 Y98.342 E153.23293
G1 X45.077 Y98.826 E153.25282
G1 X45.062 Y99.273 E153.27093
G1 X45.120 Y99.761 E153.29083
G1 X45.180 Y100.014 E153.30136
G1 X45.329 Y100.429 E153.31921
G1 X45.559 Y100.863 E153.33910
G1 X45.865 Y101.269 E153.35969
G1 X46.179 Y101.578 E153.37753
G1 X46.573 Y101.869 E153.39736
G1 X46.801 Y101.999 E153.40799
G1 X47.253 Y102.188 E153.42783
G1 X47.684 Y102.302 E153.44588
G1 X48.179 Y102.355 E153.46604
G1 X48.675 Y102.329 E153.48615
G1 X49.114 Y102.245 E153.50425
G1 X49.583 Y102.077 E153.52443
G1 X50.014 Y101.842 E153.54430
G1 X50.186 Y101.723 E153.55277
G1 X50.558 Y101.402 E153.57267
G1 X50.878 Y101.023 E153.59276
G1 X51.114 Y100.643 E153.61087
G1 X51.312 Y100.188 E153.63096
G1 X51.436 Y99.706 E153.65112
G1 X51.484 Y99.262 E153.66920
G1 X51.464 Y98.765 E153.68934
G0 F10500 X51.877 Y98.750
G0 X52.736 Y101.988
G0 X52.877 Y102.376
G1 F1500 X52.179 Y102.620 E153.71928
G1 X51.488 Y102.879 E153.74916
G1 X50.802 Y103.156 E153.77912
G1 X50.135 Y103.446 E153.80857
G1 X49.624 Y103.630 E153.83057
G1 X49.073 Y103.761 E153.85350
G1 X48.522 Y103.824 E153.87596
G1 X48.250 Y103.831 E153.88697
G1 X47.973 Y103.820 E153.89820
G1 X47.696 Y103.795 E153.90946
G1 X47.158 Y103.696 E153.93161
G1 X46.884 Y103.620 E153.94313
G1 X46.378 Y103.431 E153.96500
G1 X45.886 Y103.177 E153.98742
G1 X45.430 Y102.869 E154.00970
G1 X45.012 Y102.509 E154.03204
G1 X44.638 Y102.101 E154.05445
G1 X44.313 Y101.651 E154.07693
G1 X44.044 Y101.164 E154.09946
G1 X43.832 Y100.643 E154.12224
G1 X43.754 Y100.391 E154.13292
G1 X43.639 Y99.848 E154.15539
G1 X43.605 Y99.575 E154.16653
G1 X43.588 Y99.019 E154.18906
G1 X43.602 Y98.741 E154.20033
G1 X43.683 Y98.193 E154.22276
G1 X43.807 Y97.694 E154.24358
G1 X48.322 Y80.844 E154.94996
G1 X99.921 Y94.670 E157.11309
G1 X95.407 Y111.519 E157.81942
G1 X95.264 Y112.018 E157.84044
G1 X95.059 Y112.534 E157.86292
G1 X94.796 Y113.016 E157.88516
G1 X94.476 Y113.468 E157.90758
G1 X94.108 Y113.878 E157.92989
G1 X93.683 Y114.249 E157.95274
G1 X93.470 Y114.406 E157.96345
G1 X92.997 Y114.691 E157.98581
G1 X92.489 Y114.921 E158.00839
G1 X91.967 Y115.086 E158.03056
G1 X91.418 Y115.191 E158.05319
G1 X90.871 Y115.229 E158.07540
G1 X90.321 Y115.203 E158.09769
G1 X89.779 Y115.113 E158.11994
G1 X89.239 Y114.957 E158.14270
G1 X88.743 Y114.748 E158.16450
G1 X88.257 Y114.470 E158.18717
G1 X88.030 Y114.312 E158.19837
G1 X87.604 Y113.957 E158.22082
G1 X87.227 Y113.558 E158.24305
G1 X86.629 Y112.769 E158.28314
G1 X86.163 Y112.171 E158.31384
G1 X85.694 Y111.600 E158.34376
G1 X85.225 Y111.057 E158.37282
G1 X84.716 Y110.493 E158.40358
G1 X84.205 Y109.957 E158.43357
G1 X83.684 Y109.435 E158.46343
G1 X83.164 Y108.940 E158.49250
G1 X82.602 Y108.429 E158.52326
G1 X82.043 Y107.946 E158.55318
G1 X81.488 Y107.489 E158.58229
G1 X80.890 Y107.021 E158.61304
G1 X80.297 Y106.580 E158.64296
G1 X79.712 Y106.165 E158.67201
G1 X79.082 Y105.742 E158.70273
G1 X78.476 Y105.357 E158.73181
G1 X77.826 Y104.964 E158.76256
G1 X77.183 Y104.598 E158.79252
G1 X76.550 Y104.258 E158.82162
G1 X75.874 Y103.915 E158.85231
G1 X75.207 Y103.597 E158.88224
G1 X74.551 Y103.305 E158.91131
G1 X73.851 Y103.011 E158.94206
G1 X73.181 Y102.750 E158.97117
G1 X72.468 Y102.491 E159.00189
G1 X71.766 Y102.257 E159.03185
G1 X71.060 Y102.040 E159.06176
G1 X70.349 Y101.840 E159.09167
G1 X69.633 Y101.657 E159.12160
G1 X68.933 Y101.497 E159.15067
G1 X68.189 Y101.345 E159.18142
G1 X67.462 Y101.215 E159.21133
G1 X66.732 Y101.103 E159.24123
G1 X65.999 Y101.009 E159.27116
G1 X65.263 Y100.932 E159.30112
G1 X64.527 Y100.875 E159.33102
G1 X63.789 Y100.834 E159.36095
G1 X63.051 Y100.812 E159.39084
G1 X62.312 Y100.807 E159.42077
G1 X61.573 Y100.821 E159.45070
G1 X60.835 Y100.852 E159.48061
G1 X60.098 Y100.902 E159.51052
G1 X59.363 Y100.970 E159.54041
G1 X58.628 Y101.056 E159.57038
G1 X57.897 Y101.159 E159.60027
G1 X57.168 Y101.280 E159.63019
G1 X56.442 Y101.419 E159.66012
G1 X55.720 Y101.576 E159.69004
G1 X55.003 Y101.750 E159.71992
G1 X54.289 Y101.941 E159.74985
G1 X53.580 Y102.150 E159.77978
G1 X52.877 Y102.376 E159.80968
G0 F10500 X52.736 Y101.988
G0 X68.845 Y96.667
G0 X69.210 Y96.475
G1 F1500 X69.440 Y96.909 E159.82957
G1 X69.745 Y97.315 E159.85013
G1 X70.059 Y97.625 E159.86800
G1 X70.454 Y97.915 E159.88784
G1 X70.682 Y98.045 E159.89847
G1 X71.133 Y98.234 E159.91827
G1 X71.565 Y98.348 E159.93637
G1 X72.060 Y98.401 E159.95652
G1 X72.549 Y98.376 E159.97635
G1 X72.756 Y98.344 E159.98483
G1 X73.232 Y98.216 E160.00479
G1 X73.685 Y98.012 E160.02491
G1 X74.062 Y97.773 E160.04298
G1 X74.438 Y97.448 E160.06311
G1 X74.759 Y97.069 E160.08322
G1 X74.995 Y96.689 E160.10134
G1 X75.192 Y96.234 E160.12141
G1 X75.317 Y95.753 E160.14154
G1 X75.364 Y95.307 E160.15970
G1 X75.345 Y94.811 E160.17980
G1 X75.248 Y94.324 E160.19990
G1 X75.097 Y93.903 E160.21801
G1 X74.865 Y93.464 E160.23812
G1 X74.565 Y93.067 E160.25827
G1 X74.248 Y92.753 E160.27634
G1 X73.854 Y92.463 E160.29615
G1 X73.626 Y92.333 E160.30678
G1 X73.173 Y92.144 E160.32665
G1 X72.742 Y92.030 E160.34471
G1 X72.247 Y91.977 E160.36486
G1 X71.758 Y92.002 E160.38469
G1 X71.308 Y92.089 E160.40325
G1 X70.844 Y92.255 E160.42321
G1 X70.408 Y92.493 E160.44332
G1 X70.051 Y92.759 E160.46135
G1 X69.701 Y93.113 E160.48151
G1 X69.408 Y93.520 E160.50181
G1 X69.137 Y94.087 E160.52726
G1 X69.042 Y94.388 E160.54004
G1 X68.958 Y94.872 E160.55993
G1 X68.943 Y95.319 E160.57804
G1 X69.001 Y95.807 E160.59794
G1 X69.061 Y96.060 E160.60847
G1 X69.210 Y96.475 E160.62633
G0 F10500 X68.845 Y96.667
G0 X69.726 Y98.016
G0 X71.473 Y98.852
G0 X87.895 Y108.397
G0 X88.210 Y108.662
G1 F1500 X87.974 Y109.042 E160.64444
G1 X87.776 Y109.497 E160.66453
G1 X87.652 Y109.979 E160.68469
G1 X87.604 Y110.423 E160.70277
G1 X87.624 Y110.920 E160.72291
G1 X87.720 Y111.407 E160.74301
G1 X87.871 Y111.828 E160.76112
G1 X88.104 Y112.267 E160.78125
G1 X88.402 Y112.664 E160.80135
G1 X88.720 Y112.978 E160.81945
G1 X89.115 Y113.268 E160.83929
G1 X89.343 Y113.398 E160.84992
G1 X89.794 Y113.587 E160.86972
G1 X90.226 Y113.701 E160.88781
G1 X90.721 Y113.754 E160.90797
G1 X91.217 Y113.728 E160.92808
G1 X91.656 Y113.644 E160.94618
G1 X92.125 Y113.476 E160.96635
G1 X92.561 Y113.238 E160.98647
G1 X92.919 Y112.972 E161.00453
G1 X93.267 Y112.618 E161.02463
G1 X93.560 Y112.211 E161.04494
G1 X93.834 Y111.639 E161.07062
G1 X93.978 Y111.108 E161.09290
G1 X94.026 Y110.660 E161.11114
G1 X94.006 Y110.164 E161.13124
G1 X93.910 Y109.677 E161.15134
G1 X93.758 Y109.257 E161.16943
G1 X93.529 Y108.823 E161.18930
G1 X93.380 Y108.608 E161.19989
G1 X93.055 Y108.241 E161.21974
G1 X92.715 Y107.951 E161.23784
G1 X92.292 Y107.689 E161.25799
G1 X91.834 Y107.497 E161.27810
G1 X91.403 Y107.383 E161.29615
G1 X90.909 Y107.330 E161.31627
G1 X90.413 Y107.356 E161.33638
G1 X89.973 Y107.441 E161.35453
G1 X89.505 Y107.608 E161.37465
G1 X89.074 Y107.843 E161.39453
G1 X88.902 Y107.962 E161.40300
G1 X88.529 Y108.283 E161.42292
G1 X88.210 Y108.662 E161.44298
G0 F10500 X87.474 Y108.246
;TYPE:SKIN
G1 F1500 X75.915 Y96.687 E162.10492
G0 F10500 X75.622 Y97.278
G1 F1500 X87.154 Y108.810 E162.76532
G0 F10500 X86.915 Y109.455
G1 F1500 X75.252 Y97.792 E163.43321
G0 F10500 X74.814 Y98.238
G1 F1500 X86.778 Y110.201 E164.11832
G0 F10500 X86.801 Y111.109
G1 F1500 X74.309 Y98.616 E164.83371
G0 F10500 X73.727 Y98.918
G1 F1500 X80.491 Y105.682 E165.22106
G0 F10500 X87.868 Y107.756
G1 F1500 X76.122 Y96.010 E165.89371
G0 F10500 X76.204 Y95.208
G1 F1500 X88.331 Y107.335 E166.58818
G0 F10500 X88.872 Y106.992
G1 F1500 X76.083 Y94.203 E167.32056
G0 F10500 X74.581 Y92.363
G0 X73.141 Y91.261
G1 F1500 X69.188 Y87.308 E167.54693
G0 F10500 X67.981 Y86.985
G1 F1500 X72.132 Y91.136 E167.78464
G0 F10500 X71.330 Y91.218
G1 F1500 X66.773 Y86.661 E168.04560
G0 F10500 X65.566 Y86.338
G1 F1500 X70.653 Y91.425 E168.33692
G0 F10500 X70.062 Y91.718
G1 F1500 X64.358 Y86.014 E168.66356
G0 F10500 X63.150 Y85.690
G1 F1500 X69.543 Y92.083 E169.02967
G0 F10500 X69.098 Y92.522
G1 F1500 X61.943 Y85.367 E169.43941
G0 F10500 X60.736 Y85.043
G1 F1500 X68.723 Y93.030 E169.89679
G0 F10500 X68.426 Y93.618
G1 F1500 X59.529 Y84.720 E170.40632
G0 F10500 X58.321 Y84.396
G1 F1500 X68.205 Y94.280 E170.97234
G0 F10500 X68.107 Y95.066
G1 F1500 X57.113 Y84.072 E171.60192
G0 F10500 X55.906 Y83.749
G1 F1500 X68.187 Y96.030 E172.30521
G0 F10500 X69.007 Y97.734
G1 F1500 X54.698 Y83.425 E173.12463
G0 F10500 X53.491 Y83.102
G1 F1500 X71.761 Y101.372 E174.17088
G0 F10500 X70.516 Y101.011
G1 F1500 X52.284 Y82.778 E175.21499
G0 F10500 X51.077 Y82.455
G1 F1500 X69.346 Y100.725 E176.26121
G0 F10500 X68.232 Y100.495
G1 F1500 X49.869 Y82.131 E177.31282
G0 F10500 X48.880 Y82.026
G1 F1500 X67.169 Y100.315 E178.36016
G0 F10500 X66.144 Y100.175
G1 F1500 X48.693 Y82.723 E179.35954
G0 F10500 X48.506 Y83.420
G1 F1500 X65.162 Y100.076 E180.31337
G0 F10500 X64.213 Y100.011
G1 F1500 X48.320 Y84.118 E181.22350
G0 F10500 X48.134 Y84.816
G1 F1500 X63.291 Y99.973 E182.09148
G0 F10500 X62.396 Y99.962
G1 F1500 X47.947 Y85.513 E182.91892
G0 F10500 X47.760 Y86.210
G1 F1500 X61.527 Y99.977 E183.70731
G0 F10500 X69.628 Y98.355
G1 F1500 X73.090 Y101.817 E183.90556
G0 F10500 X74.541 Y102.384
G1 F1500 X71.309 Y99.152 E184.09065
G0 F10500 X72.274 Y99.233
G1 F1500 X76.151 Y103.111 E184.31270
G0 F10500 X78.037 Y104.112
G1 F1500 X73.060 Y99.135 E184.59771
G0 F10500 X75.174 Y97.371
G0 X75.876 Y95.324
G0 X75.298 Y93.188
G0 X75.225 Y88.926
G1 F1500 X95.227 Y108.928 E185.74315
G0 F10500 X94.646 Y109.231
G1 F1500 X95.040 Y109.625 E185.76571
G0 F10500 X95.414 Y108.231
G1 F1500 X76.433 Y89.250 E186.85268
G0 F10500 X77.640 Y89.573
G1 F1500 X95.601 Y107.534 E187.88124
G0 F10500 X95.788 Y106.837
G1 F1500 X78.848 Y89.897 E188.85133
G0 F10500 X74.018 Y88.603
G1 F1500 X92.110 Y106.695 E189.88739
G0 F10500 X91.023 Y106.491
G1 F1500 X72.810 Y88.279 E190.93035
G0 F10500 X71.603 Y87.956
G1 F1500 X90.186 Y106.539 E191.99453
G0 F10500 X89.482 Y106.719
G1 F1500 X70.396 Y87.632 E193.08754
G0 F10500 X80.055 Y90.221
G1 F1500 X95.974 Y106.140 E193.99916
G0 F10500 X96.161 Y105.443
G1 F1500 X81.262 Y90.544 E194.85237
G0 F10500 X82.470 Y90.868
G1 F1500 X96.348 Y104.745 E195.64708
G0 F10500 X96.534 Y104.048
G1 F1500 X83.677 Y91.191 E196.38335
G0 F10500 X84.885 Y91.515
G1 F1500 X96.721 Y103.351 E197.06116
G0 F10500 X96.908 Y102.654
G1 F1500 X86.093 Y91.839 E197.68049
G0 F10500 X87.300 Y92.162
G1 F1500 X97.095 Y101.957 E198.24141
G0 F10500 X97.282 Y101.260
G1 F1500 X88.507 Y92.486 E198.74389
G0 F10500 X89.714 Y92.809
G1 F1500 X97.469 Y100.563 E199.18797
G0 F10500 X97.655 Y99.866
G1 F1500 X90.922 Y93.133 E199.57354
G0 F10500 X92.129 Y93.456
G1 F1500 X97.842 Y99.168 E199.90067
G0 F10500 X98.029 Y98.471
G1 F1500 X93.337 Y93.780 E200.16934
G0 F10500 X94.545 Y94.103
G1 F1500 X98.215 Y97.774 E200.37953
G0 F10500 X98.403 Y97.077
G1 F1500 X95.752 Y94.427 E200.53132
G0 F10500 X96.959 Y94.750
G1 F1500 X98.589 Y96.380 E200.62466
G0 F10500 X98.776 Y95.683
G1 F1500 X98.166 Y95.074 E200.65956
G0 F10500 X71.473 Y98.852
G0 X60.682 Y100.016
G1 F1500 X47.574 Y86.907 E201.41024
G0 F10500 X47.387 Y87.604
G1 F1500 X59.858 Y100.076 E202.12443
G0 F10500 X59.053 Y100.154
G1 F1500 X47.200 Y88.302 E202.80318
G0 F10500 X47.014 Y88.999
G1 F1500 X58.268 Y100.253 E203.44765
G0 F10500 X57.499 Y100.368
G1 F1500 X46.828 Y89.697 E204.05874
G0 F10500 X46.641 Y90.394
G1 F1500 X56.746 Y100.499 E204.63742
G0 F10500 X56.011 Y100.648
G1 F1500 X46.454 Y91.091 E205.18471
G0 F10500 X46.268 Y91.788
G1 F1500 X49.927 Y95.448 E205.39428
G0 F10500 X48.712 Y95.117
G1 F1500 X46.081 Y92.486 E205.54494
G0 F10500 X45.894 Y93.183
G1 F1500 X47.825 Y95.113 E205.65550
G0 F10500 X47.093 Y95.265
G1 F1500 X45.708 Y93.881 E205.73478
G0 F10500 X45.522 Y94.578
G1 F1500 X46.463 Y95.520 E205.78870
G0 F10500 X45.911 Y95.851
G1 F1500 X45.241 Y95.623 E205.82167
G1 X45.433 Y96.257 E205.84849
G0 F10500 X48.380 Y95.417
G0 X50.252 Y95.987
G0 X51.988 Y97.509
G1 F1500 X55.290 Y100.811 E206.03758
G0 F10500 X54.582 Y100.987
G1 F1500 X52.305 Y98.709 E206.16801
G0 F10500 X52.297 Y99.586
G1 F1500 X53.889 Y101.177 E206.25915
G0 F10500 X53.209 Y101.382
G1 F1500 X52.149 Y100.321 E206.31988
G0 F10500 X51.898 Y100.954
G1 F1500 X52.214 Y101.712 E206.35670
G1 X51.569 Y101.509 E206.38408
;LAYER:1
G1 F420 E204.38408
G1 Z0.525
G0 F10500 X47.333 Y76.414 Z0.775
;TYPE:WALL-INNER
G1 Z0.775
G1 F420 E206.38408
G1 F1560 X35.158 Y64.239 E206.84342
G1 X34.802 Y63.839 E206.85770
G1 X34.520 Y63.433 E206.87089
G1 X34.281 Y62.986 E206.88442
G1 X34.100 Y62.524 E206.89765
G1 X33.974 Y62.040 E206.91100
G1 X33.903 Y61.529 E206.92476
G1 X33.892 Y61.284 E206.93130
G1 X33.912 Y60.800 E206.94422
G1 X33.994 Y60.287 E206.95808
G1 X34.053 Y60.050 E206.96460
G1 X34.218 Y59.580 E206.97789
G1 X34.436 Y59.130 E206.99123
G1 X34.706 Y58.709 E207.00457
G1 X35.024 Y58.322 E207.01793
G1 X35.205 Y58.139 E207.02480
G1 X35.579 Y57.822 E207.03788
G1 X35.993 Y57.546 E207.05115
G1 X36.452 Y57.312 E207.06490
G1 X36.687 Y57.219 E207.07164
G1 X37.162 Y57.076 E207.08487
G1 X38.335 Y56.911 E207.11648
G1 X39.122 Y56.801 E207.13768
G1 X39.862 Y56.679 E207.15768
G1 X40.550 Y56.548 E207.17637
G1 X41.331 Y56.380 E207.19768
G1 X42.060 Y56.204 E207.21769
G1 X42.783 Y56.010 E207.23766
G1 X43.455 Y55.813 E207.25634
G1 X44.216 Y55.571 E207.27764
G1 X44.925 Y55.325 E207.29766
G1 X45.579 Y55.079 E207.31630
G1 X46.320 Y54.781 E207.33761
G1 X47.009 Y54.484 E207.35763
G1 X47.645 Y54.192 E207.37630
G1 X48.362 Y53.840 E207.39761
G1 X48.983 Y53.516 E207.41629
G1 X49.683 Y53.131 E207.43761
G1 X50.331 Y52.752 E207.45763
G1 X50.926 Y52.384 E207.47630
G1 X51.595 Y51.948 E207.49760
G1 X52.213 Y51.524 E207.51759
G1 X52.779 Y51.113 E207.53626
G1 X53.415 Y50.629 E207.55758
G1 X53.962 Y50.192 E207.57625
G1 X54.574 Y49.678 E207.59758
G1 X55.135 Y49.180 E207.61759
G1 X55.684 Y48.670 E207.63758
G1 X56.220 Y48.147 E207.65756
G1 X56.744 Y47.610 E207.67757
G1 X57.220 Y47.098 E207.69622
G1 X57.750 Y46.501 E207.71752
G1 X58.234 Y45.927 E207.73755
G1 X58.703 Y45.342 E207.75756
G1 X59.157 Y44.746 E207.77754
G1 X59.597 Y44.140 E207.79752
G1 X60.022 Y43.521 E207.81755
G1 X60.431 Y42.894 E207.83752
G1 X60.826 Y42.257 E207.85752
G1 X61.204 Y41.610 E207.87751
G1 X61.567 Y40.954 E207.89751
G1 X61.913 Y40.290 E207.91749
G1 X62.243 Y39.616 E207.93751
G1 X62.557 Y38.936 E207.95749
G1 X62.854 Y38.248 E207.97748
G1 X63.135 Y37.553 E207.99748
G1 X63.398 Y36.851 E208.01748
G1 X63.644 Y36.142 E208.03750
G1 X63.873 Y35.429 E208.05748
G1 X64.084 Y34.710 E208.07747
G1 X64.278 Y33.986 E208.09746
G1 X64.453 Y33.257 E208.11747
G1 X64.612 Y32.525 E208.13745
G1 X64.751 Y31.788 E208.15746
G1 X64.874 Y31.049 E208.17744
G1 X64.978 Y30.307 E208.19743
G1 X65.059 Y29.603 E208.21634
G1 X65.149 Y29.095 E208.23010
G1 X65.296 Y28.601 E208.24385
G1 X65.608 Y27.938 E208.26340
G1 X65.891 Y27.509 E208.27711
G1 X66.045 Y27.317 E208.28368
G1 X66.383 Y26.964 E208.29671
G1 X66.770 Y26.643 E208.31013
G1 X67.188 Y26.373 E208.32340
G1 X67.648 Y26.148 E208.33706
G1 X68.109 Y25.985 E208.35011
G1 X68.603 Y25.874 E208.36362
G1 X69.108 Y25.823 E208.37716
G1 X69.355 Y25.819 E208.38375
G1 X69.865 Y25.859 E208.39740
G1 X70.361 Y25.957 E208.41088
G1 X70.835 Y26.111 E208.42418
G1 X71.286 Y26.319 E208.43743
G1 X71.712 Y26.580 E208.45076
G1 X72.112 Y26.895 E208.46434
G1 X72.695 Y27.467 E208.48613
G1 X84.487 Y39.260 E208.93104
G1 X47.333 Y76.414 E210.33280
G0 F10500 X39.735 Y64.104
G1 F1560 X40.278 Y63.729 E210.35040
G1 X40.737 Y63.250 E210.36810
G1 X41.098 Y62.681 E210.38608
G1 X41.253 Y62.309 E210.39683
G1 X41.303 Y62.149 E210.40130
G1 X41.426 Y61.531 E210.41811
G1 X41.441 Y61.228 E210.42621
G1 X41.420 Y60.826 E210.43695
G1 X41.289 Y60.224 E210.45338
G1 X41.224 Y60.032 E210.45879
G1 X40.995 Y59.552 E210.47298
G1 X40.612 Y59.018 E210.49051
G1 X40.121 Y58.567 E210.50829
G1 X39.550 Y58.225 E210.52605
G1 X38.917 Y58.002 E210.54396
G1 X38.520 Y57.932 E210.55471
G1 X38.225 Y57.909 E210.56260
G1 X37.688 Y57.939 E210.57695
G1 X37.057 Y58.091 E210.59427
G1 X36.546 Y58.318 E210.60918
G1 X36.025 Y58.678 E210.62608
G1 X35.809 Y58.875 E210.63388
G1 X35.607 Y59.093 E210.64181
G1 X35.248 Y59.618 E210.65877
G1 X35.031 Y60.104 E210.67297
G1 X34.939 Y60.401 E210.68127
G1 X34.847 Y61.007 E210.69762
G1 X34.840 Y61.199 E210.70275
G1 X34.861 Y61.597 E210.71338
G1 X34.999 Y62.223 E210.73048
G1 X35.209 Y62.729 E210.74510
G1 X35.501 Y63.198 E210.75983
G1 X35.945 Y63.678 E210.77728
G1 X36.384 Y64.006 E210.79190
G1 X36.865 Y64.257 E210.80637
G1 X37.376 Y64.422 E210.82070
G1 X38.057 Y64.512 E210.83902
G1 X38.593 Y64.482 E210.85334
G1 X39.224 Y64.330 E210.87066
G1 X39.735 Y64.104 E210.88557
G0 F10500 X57.914 Y54.384
G1 F1560 X58.293 Y54.913 E210.90293
G1 X58.692 Y55.292 E210.91761
G1 X59.124 Y55.589 E210.93159
G1 X59.746 Y55.868 E210.94978
G1 X60.375 Y56.003 E210.96694
G1 X60.684 Y56.027 E210.97521
G1 X61.221 Y55.997 E210.98956
G1 X61.852 Y55.845 E211.00688
G1 X62.362 Y55.619 E211.02176
G1 X62.885 Y55.258 E211.03871
G1 X63.301 Y54.844 E211.05437
G1 X63.661 Y54.319 E211.07135
G1 X63.878 Y53.832 E211.08557
G1 X63.970 Y53.535 E211.09387
G1 X64.062 Y52.929 E211.11022
G1 X64.069 Y52.737 E211.11535
G1 X64.048 Y52.340 E211.12595
G1 X63.910 Y51.713 E211.14308
G1 X63.700 Y51.207 E211.15770
G1 X63.411 Y50.744 E211.17226
G1 X63.044 Y50.332 E211.18698
G1 X62.531 Y49.933 E211.20431
G1 X62.044 Y49.679 E211.21897
G1 X61.533 Y49.514 E211.23329
G1 X60.852 Y49.424 E211.25162
G1 X60.316 Y49.454 E211.26594
G1 X59.677 Y49.608 E211.28347
G1 X59.080 Y49.887 E211.30105
G1 X58.634 Y50.207 E211.31570
G1 X58.244 Y50.595 E211.33038
G1 X57.875 Y51.133 E211.34778
G1 X57.648 Y51.642 E211.36265
G1 X57.502 Y52.258 E211.37954
G1 X57.473 Y52.544 E211.38721
G1 X57.468 Y52.717 E211.39182
G1 X57.489 Y53.110 E211.40232
G1 X57.620 Y53.712 E211.41876
G1 X57.685 Y53.904 E211.42417
G1 X57.914 Y54.384 E211.43835
G0 F10500 X57.552 Y52.267
G0 X58.284 Y50.629
G0 X59.694 Y49.657
G0 X68.110 Y33.152
G1 F1560 X68.524 Y33.280 E211.44991
G1 X69.200 Y33.369 E211.46810
G1 X69.737 Y33.339 E211.48245
G1 X70.368 Y33.187 E211.49977
G1 X70.879 Y32.960 E211.51469
G1 X71.400 Y32.600 E211.53158
G1 X71.812 Y32.191 E211.54707
G1 X72.125 Y31.754 E211.56141
G1 X72.392 Y31.180 E211.57830
G1 X72.484 Y30.884 E211.58657
G1 X72.571 Y30.378 E211.60026
G1 X72.585 Y30.084 E211.60812
G1 X72.564 Y29.683 E211.61883
G1 X72.433 Y29.081 E211.63526
G1 X72.366 Y28.883 E211.64084
G1 X72.084 Y28.316 E211.65773
G1 X71.755 Y27.875 E211.67241
G1 X71.361 Y27.501 E211.68690
G1 X70.927 Y27.204 E211.70093
G1 X70.307 Y26.925 E211.71907
G1 X69.677 Y26.790 E211.73626
G1 X69.369 Y26.766 E211.74450
G1 X68.832 Y26.796 E211.75885
G1 X68.201 Y26.948 E211.77617
G1 X67.690 Y27.174 E211.79107
G1 X67.147 Y27.549 E211.80868
G1 X66.688 Y28.028 E211.82638
G1 X66.327 Y28.597 E211.84435
G1 X66.172 Y28.970 E211.85513
G1 X66.085 Y29.251 E211.86298
G1 X65.998 Y29.757 E211.87667
G1 X65.984 Y30.051 E211.88453
G1 X66.005 Y30.452 E211.89524
G1 X66.136 Y31.054 E211.91167
G1 X66.201 Y31.246 E211.91708
G1 X66.430 Y31.726 E211.93127
G1 X66.800 Y32.242 E211.94821
G1 X67.021 Y32.470 E211.95668
G1 X67.528 Y32.865 E211.97383
G1 X68.110 Y33.152 E211.99114
G0 F10500 X68.295 Y32.686
;TYPE:WALL-OUTER
G1 F1440 X68.641 Y32.793 E212.00080
G1 X69.205 Y32.868 E212.01598
G1 X69.664 Y32.842 E212.02824
G1 X70.207 Y32.712 E212.04314
G1 X70.633 Y32.522 E212.05558
G1 X71.088 Y32.208 E212.07033
G1 X71.263 Y32.048 E212.07666
G1 X71.424 Y31.874 E212.08298
G1 X71.691 Y31.501 E212.09522
G1 X71.925 Y30.999 E212.11000
G1 X71.997 Y30.767 E212.11648
G1 X72.073 Y30.323 E212.12849
G1 X72.084 Y30.085 E212.13485
G1 X72.067 Y29.750 E212.14380
G1 X71.950 Y29.214 E212.15843
G1 X71.903 Y29.075 E212.16235
G1 X71.657 Y28.579 E212.17712
G1 X71.380 Y28.208 E212.18947
G1 X71.046 Y27.891 E212.20176
G1 X70.682 Y27.642 E212.21352
G1 X70.150 Y27.403 E212.22908
G1 X69.605 Y27.286 E212.24395
G1 X69.364 Y27.267 E212.25040
G1 X68.905 Y27.293 E212.26266
G1 X68.362 Y27.423 E212.27756
G1 X67.935 Y27.612 E212.29002
G1 X67.473 Y27.932 E212.30501
G1 X67.083 Y28.338 E212.32003
G1 X66.772 Y28.828 E212.33551
G1 X66.572 Y29.368 E212.35087
G1 X66.496 Y29.812 E212.36289
G1 X66.485 Y30.050 E212.36925
G1 X66.502 Y30.385 E212.37820
G1 X66.619 Y30.921 E212.39283
G1 X66.665 Y31.058 E212.39669
G1 X66.862 Y31.471 E212.40890
G1 X67.185 Y31.921 E212.42367
G1 X67.356 Y32.097 E212.43022
G1 X67.795 Y32.439 E212.44507
G1 X68.295 Y32.686 E212.45994
G0 F10500 X68.192 Y33.019
G0 X64.604 Y31.752
G0 X64.259 Y31.701
G1 F1440 X64.380 Y30.974 E212.47961
G1 X64.482 Y30.244 E212.49927
G1 X64.564 Y29.529 E212.51847
G1 X64.660 Y28.986 E212.53318
G1 X64.825 Y28.432 E212.54860
G1 X64.927 Y28.175 E212.55598
G1 X65.173 Y27.690 E212.57049
G1 X65.492 Y27.207 E212.58593
G1 X65.661 Y26.996 E212.59314
G1 X66.046 Y26.594 E212.60799
G1 X66.473 Y26.240 E212.62279
G1 X66.943 Y25.936 E212.63772
G1 X67.449 Y25.688 E212.65275
G1 X67.976 Y25.503 E212.66765
G1 X68.519 Y25.381 E212.68250
G1 X69.083 Y25.323 E212.69763
G1 X69.376 Y25.318 E212.70544
G1 X69.933 Y25.362 E212.72035
G1 X70.480 Y25.471 E212.73523
G1 X71.019 Y25.646 E212.75035
G1 X71.520 Y25.876 E212.76505
G1 X72.001 Y26.171 E212.78011
G1 X72.443 Y26.519 E212.79512
G1 X73.048 Y27.114 E212.81775
G1 X85.193 Y39.260 E213.27598
G1 X47.333 Y77.120 E214.70438
G1 X34.782 Y64.569 E215.17791
G1 X34.410 Y64.150 E215.19285
G1 X34.093 Y63.696 E215.20763
G1 X33.826 Y63.195 E215.22277
G1 X33.623 Y62.677 E215.23761
G1 X33.483 Y62.138 E215.25247
G1 X33.405 Y61.577 E215.26758
G1 X33.392 Y61.287 E215.27532
G1 X33.414 Y60.743 E215.28985
G1 X33.503 Y60.191 E215.30477
G1 X33.575 Y59.901 E215.31274
G1 X33.755 Y59.390 E215.32719
G1 X34.000 Y58.885 E215.34216
G1 X34.298 Y58.419 E215.35692
G1 X34.656 Y57.984 E215.37195
G1 X34.861 Y57.776 E215.37974
G1 X35.280 Y57.421 E215.39439
G1 X35.745 Y57.110 E215.40932
G1 X36.246 Y56.856 E215.42430
G1 X37.037 Y56.591 E215.44656
G1 X38.269 Y56.415 E215.47976
G1 X39.047 Y56.306 E215.50072
G1 X39.775 Y56.186 E215.52040
G1 X40.451 Y56.058 E215.53875
G1 X41.220 Y55.893 E215.55974
G1 X41.937 Y55.719 E215.57942
G1 X42.648 Y55.529 E215.59905
G1 X43.309 Y55.335 E215.61743
G1 X44.058 Y55.096 E215.63841
G1 X44.755 Y54.854 E215.65809
G1 X45.398 Y54.613 E215.67641
G1 X46.128 Y54.320 E215.69739
G1 X46.806 Y54.027 E215.71710
G1 X47.430 Y53.740 E215.73542
G1 X48.137 Y53.394 E215.75642
G1 X48.747 Y53.075 E215.77478
G1 X49.436 Y52.696 E215.79576
G1 X50.073 Y52.323 E215.81546
G1 X50.658 Y51.962 E215.83379
G1 X51.317 Y51.533 E215.85477
G1 X51.924 Y51.115 E215.87443
G1 X52.481 Y50.712 E215.89278
G1 X53.108 Y50.235 E215.91379
G1 X53.645 Y49.805 E215.93215
G1 X54.247 Y49.299 E215.95313
G1 X54.799 Y48.810 E215.97280
G1 X55.339 Y48.308 E215.99247
G1 X55.867 Y47.794 E216.01213
G1 X56.382 Y47.265 E216.03182
G1 X56.850 Y46.762 E216.05015
G1 X57.372 Y46.174 E216.07113
G1 X57.848 Y45.610 E216.09082
G1 X58.309 Y45.034 E216.11050
G1 X58.756 Y44.448 E216.13016
G1 X59.188 Y43.851 E216.14982
G1 X59.607 Y43.243 E216.16952
G1 X60.009 Y42.626 E216.18916
G1 X60.397 Y41.999 E216.20884
G1 X60.769 Y41.363 E216.22849
G1 X61.126 Y40.717 E216.24818
G1 X61.467 Y40.064 E216.26784
G1 X61.792 Y39.401 E216.28753
G1 X62.100 Y38.732 E216.30718
G1 X62.393 Y38.055 E216.32686
G1 X62.669 Y37.372 E216.34651
G1 X62.928 Y36.681 E216.36620
G1 X63.170 Y35.984 E216.38588
G1 X63.395 Y35.282 E216.40555
G1 X63.603 Y34.575 E216.42521
G1 X63.793 Y33.863 E216.44487
G1 X63.966 Y33.146 E216.46455
G1 X64.122 Y32.426 E216.48420
G1 X64.259 Y31.701 E216.50389
G0 F10500 X64.604 Y31.752
G0 X61.474 Y49.657
G0 X61.413 Y50.001
G1 F1440 X60.847 Y49.925 E216.51912
G1 X60.389 Y49.951 E216.53136
G1 X59.843 Y50.082 E216.54634
G1 X59.334 Y50.320 E216.56133
G1 X58.958 Y50.590 E216.57368
G1 X58.630 Y50.916 E216.58602
G1 X58.313 Y51.378 E216.60096
G1 X58.124 Y51.803 E216.61337
G1 X57.996 Y52.341 E216.62812
G1 X57.972 Y52.575 E216.63440
G1 X57.969 Y52.710 E216.63800
G1 X57.986 Y53.043 E216.64690
G1 X58.103 Y53.579 E216.66153
G1 X58.149 Y53.716 E216.66539
G1 X58.346 Y54.129 E216.67760
G1 X58.672 Y54.583 E216.69251
G1 X59.007 Y54.902 E216.70485
G1 X59.370 Y55.151 E216.71659
G1 X59.903 Y55.390 E216.73218
G1 X60.447 Y55.507 E216.74702
G1 X60.689 Y55.526 E216.75350
G1 X61.148 Y55.500 E216.76576
G1 X61.691 Y55.370 E216.78066
G1 X62.117 Y55.181 E216.79309
G1 X62.572 Y54.866 E216.80785
G1 X62.747 Y54.706 E216.81418
G1 X62.910 Y54.531 E216.82056
G1 X63.223 Y54.074 E216.83534
G1 X63.409 Y53.656 E216.84754
G1 X63.481 Y53.423 E216.85405
G1 X63.563 Y52.883 E216.86862
G1 X63.568 Y52.742 E216.87238
G1 X63.551 Y52.407 E216.88133
G1 X63.431 Y51.864 E216.89617
G1 X63.254 Y51.436 E216.90852
G1 X63.010 Y51.045 E216.92082
G1 X62.701 Y50.699 E216.93319
G1 X62.260 Y50.356 E216.94810
G1 X61.850 Y50.142 E216.96044
G1 X61.413 Y50.001 E216.97269
G0 F10500 X61.474 Y49.657
G0 X59.694 Y49.657
G0 X58.284 Y50.629
G0 X41.076 Y60.070
G0 X40.760 Y60.220
G1 F1440 X40.563 Y59.807 E216.98489
G1 X40.236 Y59.351 E216.99986
G1 X39.820 Y58.970 E217.01491
G1 X39.337 Y58.680 E217.02994
G1 X38.790 Y58.487 E217.04542
G1 X38.457 Y58.429 E217.05444
G1 X38.220 Y58.410 E217.06078
G1 X37.761 Y58.436 E217.07304
G1 X37.218 Y58.566 E217.08794
G1 X36.792 Y58.756 E217.10038
G1 X36.337 Y59.070 E217.11513
G1 X35.999 Y59.406 E217.12785
G1 X35.686 Y59.863 E217.14262
G1 X35.500 Y60.281 E217.15483
G1 X35.428 Y60.513 E217.16131
G1 X35.346 Y61.053 E217.17588
G1 X35.341 Y61.194 E217.17964
G1 X35.358 Y61.530 E217.18862
G1 X35.478 Y62.072 E217.20343
G1 X35.655 Y62.500 E217.21578
G1 X35.900 Y62.893 E217.22814
G1 X36.281 Y63.305 E217.24311
G1 X36.651 Y63.581 E217.25542
G1 X37.059 Y63.794 E217.26770
G1 X37.496 Y63.935 E217.27995
G1 X38.062 Y64.011 E217.29519
G1 X38.520 Y63.985 E217.30743
G1 X39.063 Y63.855 E217.32232
G1 X39.490 Y63.666 E217.33478
G1 X39.952 Y63.346 E217.34977
G1 X40.342 Y62.940 E217.36479
G1 X40.653 Y62.450 E217.38027
G1 X40.818 Y62.025 E217.39244
G1 X40.929 Y61.470 E217.40754
G1 X40.940 Y61.229 E217.41397
G1 X40.923 Y60.893 E217.42295
G1 X40.806 Y60.357 E217.43758
G1 X40.760 Y60.220 E217.44144
G0 F10500 X41.416 Y60.053
;TYPE:SKIN
G1 F1440 X46.635 Y54.834 E217.63834
G0 F10500 X45.447 Y55.314
G1 F1440 X41.196 Y59.566 E217.79875
G0 F10500 X40.916 Y59.139
G1 F1440 X44.346 Y55.709 E217.92815
G0 F10500 X43.313 Y56.035
G1 F1440 X40.589 Y58.759 E218.03093
G0 F10500 X40.219 Y58.421
G1 F1440 X42.328 Y56.312 E218.11049
G0 F10500 X41.389 Y56.544
G1 F1440 X39.776 Y58.157 E218.17135
G0 F10500 X39.281 Y57.945
G1 F1440 X40.491 Y56.736 E218.21698
G0 F10500 X41.555 Y60.621
G1 F1440 X47.930 Y54.246 E218.45750
G0 F10500 X49.398 Y53.485
G1 F1440 X41.613 Y61.270 E218.75122
G0 F10500 X41.491 Y62.099
G1 F1440 X51.135 Y52.455 E219.11507
G0 F10500 X53.571 Y50.727
G1 F1440 X37.732 Y66.565 E219.71263
G0 F10500 X37.379 Y66.212
G1 F1440 X39.036 Y64.554 E219.77516
G0 F10500 X38.205 Y64.678
G1 F1440 X37.025 Y65.858 E219.81968
G0 F10500 X36.671 Y65.504
G1 F1440 X37.555 Y64.621 E219.85302
G0 F10500 X36.989 Y64.480
G1 F1440 X36.141 Y64.974 E219.87831
G1 X36.284 Y64.124 E219.89850
G1 X35.435 Y64.266 E219.91572
G1 X35.520 Y63.473 E219.93193
G1 X34.785 Y63.501 E219.94790
G1 X34.973 Y62.607 E219.96438
G1 X34.313 Y62.559 E219.98175
G1 X34.414 Y61.751 E220.00065
G1 X34.371 Y61.087 E220.02181
G1 X34.779 Y60.326 E220.04485
G0 F10500 X34.195 Y60.203
G1 F1440 X37.131 Y57.267 E220.15562
G0 F10500 X37.239 Y57.866
G1 F1440 X37.966 Y57.139 E220.18305
G0 F10500 X38.071 Y57.741
G1 F1440 X38.789 Y57.023 E220.21013
G0 F10500 X38.728 Y57.791
G1 F1440 X39.626 Y56.893 E220.24401
G0 F10500 X35.819 Y57.871
G1 F1440 X34.786 Y58.904 E220.28299
G0 F10500 X35.048 Y62.208
G0 X36.412 Y63.963
G0 X38.086 Y66.919
G1 F1440 X74.989 Y30.015 E221.67529
G0 F10500 X75.342 Y30.369
G1 F1440 X38.439 Y67.272 E223.06758
G0 F10500 X38.793 Y67.626
G1 F1440 X75.696 Y30.723 E224.45987
G0 F10500 X76.050 Y31.076
G1 F1440 X39.146 Y67.979 E225.85218
G0 F10500 X39.500 Y68.333
G1 F1440 X76.403 Y31.430 E227.24447
G0 F10500 X76.757 Y31.783
G1 F1440 X39.853 Y68.686 E228.63677
G0 F10500 X40.207 Y69.040
G1 F1440 X57.423 Y51.824 E229.28630
G0 F10500 X57.294 Y52.661
G1 F1440 X40.561 Y69.394 E229.91761
G0 F10500 X40.914 Y69.747
G1 F1440 X57.352 Y53.310 E230.53777
G0 F10500 X57.490 Y53.878
G1 F1440 X41.268 Y70.101 E231.14982
G0 F10500 X41.621 Y70.454
G1 F1440 X57.710 Y54.365 E231.75683
G0 F10500 X57.991 Y54.792
G1 F1440 X41.975 Y70.808 E232.36109
G0 F10500 X42.328 Y71.161
G1 F1440 X58.315 Y55.174 E232.96425
G0 F10500 X58.692 Y55.505
G1 F1440 X42.682 Y71.515 E233.56828
G0 F10500 X43.035 Y71.868
G1 F1440 X59.124 Y55.780 E234.17527
G0 F10500 X59.611 Y56.000
G1 F1440 X43.389 Y72.222 E234.78730
G0 F10500 X43.743 Y72.576
G1 F1440 X60.179 Y56.140 E235.40740
G0 F10500 X60.832 Y56.193
G1 F1440 X44.096 Y72.929 E236.03882
G0 F10500 X44.450 Y73.283
G1 F1440 X61.662 Y56.070 E236.68822
G0 F10500 X63.262 Y54.811
G0 X64.131 Y53.601
G1 F1440 X81.354 Y36.378 E237.33802
G0 F10500 X81.001 Y36.024
G1 F1440 X64.242 Y52.784 E237.97033
G0 F10500 X64.182 Y52.136
G1 F1440 X80.647 Y35.671 E238.59152
G0 F10500 X80.294 Y35.317
G1 F1440 X64.040 Y51.571 E239.20476
G0 F10500 X63.825 Y51.079
G1 F1440 X79.940 Y34.964 E239.81275
G0 F10500 X79.586 Y34.610
G1 F1440 X63.554 Y50.643 E240.41763
G0 F10500 X63.221 Y50.268
G1 F1440 X79.232 Y34.257 E241.02170
G0 F10500 X78.879 Y33.904
G1 F1440 X62.834 Y49.948 E241.62703
G0 F10500 X62.405 Y49.671
G1 F1440 X78.525 Y33.550 E242.23523
G0 F10500 X78.172 Y33.197
G1 F1440 X61.915 Y49.453 E242.84856
G0 F10500 X61.348 Y49.313
G1 F1440 X77.818 Y32.843 E243.46995
G0 F10500 X77.464 Y32.490
G1 F1440 X60.697 Y49.257 E244.10254
G0 F10500 X60.531 Y43.059
G1 F1440 X70.178 Y33.412 E244.46650
G0 F10500 X69.348 Y33.535
G1 F1440 X61.562 Y41.321 E244.76025
G0 F10500 X62.318 Y39.858
G1 F1440 X68.697 Y33.479 E245.00092
G0 F10500 X68.129 Y33.340
G1 F1440 X62.909 Y38.560 E245.19787
G0 F10500 X63.388 Y37.374
G1 F1440 X67.644 Y33.118 E245.35844
G0 F10500 X67.213 Y32.842
G1 F1440 X63.782 Y36.273 E245.48788
G0 F10500 X64.111 Y35.236
G1 F1440 X66.825 Y32.522 E245.59028
G0 F10500 X66.506 Y32.134
G1 F1440 X64.387 Y34.254 E245.67024
G0 F10500 X64.618 Y33.315
G1 F1440 X66.226 Y31.708 E245.73089
G0 F10500 X66.007 Y31.220
G1 F1440 X64.809 Y32.417 E245.77607
G0 F10500 X64.966 Y31.553
G1 F1440 X65.868 Y30.651 E245.81010
G0 F10500 X65.810 Y30.002
G1 F1440 X65.096 Y30.716 E245.83704
G0 F10500 X65.199 Y29.906
G1 F1440 X65.921 Y29.184 E245.86428
G0 F10500 X65.343 Y29.055
G1 F1440 X68.270 Y26.128 E245.97471
G0 F10500 X68.381 Y26.724
G1 F1440 X69.106 Y25.999 E246.00206
G0 F10500 X69.213 Y26.599
G1 F1440 X70.080 Y26.085 E246.02363
G1 X70.151 Y26.721 E246.04278
G1 X71.129 Y26.450 E246.06011
G1 X71.138 Y27.148 E246.07672
G1 X71.971 Y27.023 E246.09281
G1 X71.897 Y27.803 E246.10891
G1 X72.690 Y27.718 E246.12593
G1 X72.447 Y28.668 E246.14597
G1 X73.220 Y28.248 E246.16944
G0 F10500 X73.574 Y28.602
G1 F1440 X72.699 Y29.477 E246.20245
G0 F10500 X72.757 Y30.126
G1 F1440 X73.928 Y28.956 E246.24661
G0 F10500 X74.281 Y29.309
G1 F1440 X72.648 Y30.942 E246.30822
G0 F10500 X74.635 Y29.662
G1 F1440 X58.805 Y45.492 E246.90546
G0 F10500 X59.865 Y49.382
G1 F1440 X77.111 Y32.136 E247.55612
G0 F10500 X70.291 Y26.974
G0 X68.217 Y26.996
G0 X66.973 Y26.718
G1 F1440 X65.940 Y27.751 E247.59510
G0 F10500 X69.669 Y26.841
G0 X71.328 Y27.541
G0 X72.384 Y29.095
G0 X72.344 Y31.162
G0 X81.708 Y36.732
G1 F1440 X44.803 Y73.636 E248.98744
G0 F10500 X45.157 Y73.990
G1 F1440 X82.062 Y37.084 E250.37982
G0 F10500 X82.416 Y37.438
G1 F1440 X45.510 Y74.343 E251.77221
G0 F10500 X45.864 Y74.697
G1 F1440 X82.769 Y37.792 E253.16457
G0 F10500 X83.123 Y38.145
G1 F1440 X46.217 Y75.050 E254.55695
G0 F10500 X46.571 Y75.404
G1 F1440 X83.476 Y38.499 E255.94932
G0 F10500 X83.830 Y38.852
G1 F1440 X46.925 Y75.758 E257.34170
G0 F10500 X47.278 Y76.111
G1 F1440 X84.183 Y39.206 E258.73406
G1 F420 E256.73406
G1 Z0.875
G0 F10500 X72.758 Y91.942
;TYPE:WALL-INNER
G1 Z0.775
G1 F420 E258.73406
G1 F1560 X72.191 Y91.888 E258.74926
G1 X71.808 Y91.906 E258.75949
G1 X71.412 Y91.973 E258.77020
G1 X70.910 Y92.131 E258.78424
G1 X70.518 Y92.321 E258.79586
G1 X70.122 Y92.591 E258.80865
G1 X69.982 Y92.701 E258.81340
G1 X69.777 Y92.897 E258.82096
G1 X69.517 Y93.203 E258.83168
G1 X69.184 Y93.749 E258.84874
G1 X68.982 Y94.270 E258.86365
G1 X68.863 Y94.924 E258.88138
G1 X68.855 Y95.352 E258.89280
G1 X68.949 Y95.989 E258.90998
G1 X69.127 Y96.509 E258.92464
G1 X69.387 Y96.995 E258.93934
G1 X69.796 Y97.502 E258.95672
G1 X70.200 Y97.850 E258.97095
G1 X70.459 Y98.023 E258.97926
G1 X71.040 Y98.299 E258.99642
G1 X71.661 Y98.451 E259.01347
G1 X72.117 Y98.490 E259.02568
G1 X72.506 Y98.472 E259.03607
G1 X73.040 Y98.371 E259.05057
G1 X73.642 Y98.137 E259.06780
G1 X74.116 Y97.841 E259.08271
G1 X74.343 Y97.661 E259.09044
G1 X74.777 Y97.194 E259.10745
G1 X75.077 Y96.725 E259.12230
G1 X75.321 Y96.122 E259.13965
G1 X75.432 Y95.585 E259.15428
G1 X75.453 Y95.033 E259.16902
G1 X75.358 Y94.389 E259.18638
G1 X75.180 Y93.869 E259.20105
G1 X74.927 Y93.396 E259.21536
G1 X74.691 Y93.079 E259.22590
G1 X74.490 Y92.857 E259.23389
G1 X73.993 Y92.446 E259.25110
G1 X73.385 Y92.123 E259.26946
G1 X72.758 Y91.942 E259.28687
G0 F10500 X70.544 Y92.365
G0 X51.401 Y98.083
G1 F1560 X51.179 Y97.570 E259.30179
G1 X50.821 Y97.046 E259.31872
G1 X50.610 Y96.810 E259.32716
G1 X50.140 Y96.423 E259.34340
G1 X49.966 Y96.308 E259.34897
G1 X49.385 Y96.033 E259.36612
G1 X48.766 Y95.881 E259.38312
G1 X48.310 Y95.842 E259.39533
G1 X47.927 Y95.860 E259.40556
G1 X47.531 Y95.927 E259.41627
G1 X47.029 Y96.085 E259.43031
G1 X46.637 Y96.275 E259.44193
G1 X46.089 Y96.665 E259.45988
G1 X45.736 Y97.031 E259.47344
G1 X45.628 Y97.170 E259.47814
G1 X45.303 Y97.703 E259.49479
G1 X45.101 Y98.224 E259.50970
G1 X44.982 Y98.878 E259.52744
G1 X44.974 Y99.307 E259.53888
G1 X45.069 Y99.942 E259.55601
G1 X45.248 Y100.471 E259.57091
G1 X45.565 Y101.030 E259.58805
G1 X45.940 Y101.476 E259.60360
G1 X46.319 Y101.804 E259.61697
G1 X46.578 Y101.977 E259.62528
G1 X47.161 Y102.253 E259.64249
G1 X47.780 Y102.405 E259.65949
G1 X48.236 Y102.444 E259.67170
G1 X48.626 Y102.426 E259.68212
G1 X49.159 Y102.325 E259.69659
G1 X49.760 Y102.091 E259.71380
G1 X50.131 Y101.870 E259.72532
G1 X50.458 Y101.620 E259.73630
G1 X50.892 Y101.153 E259.75331
G1 X51.139 Y100.781 E259.76522
G1 X51.399 Y100.209 E259.78198
G1 X51.487 Y99.902 E259.79050
G1 X51.573 Y99.272 E259.80746
G1 X51.548 Y98.715 E259.82234
G1 X51.401 Y98.083 E259.83965
G0 F10500 X52.738 Y101.961
G1 F1560 X52.030 Y102.208 E259.85965
G1 X51.329 Y102.471 E259.87963
G1 X50.633 Y102.752 E259.89965
G1 X49.974 Y103.038 E259.91882
G1 X49.503 Y103.208 E259.93217
G1 X49.014 Y103.326 E259.94559
G1 X48.509 Y103.385 E259.95916
G1 X48.237 Y103.393 E259.96642
G1 X48.011 Y103.384 E259.97245
G1 X47.760 Y103.361 E259.97918
G1 X47.271 Y103.272 E259.99244
G1 X46.801 Y103.129 E260.00554
G1 X46.334 Y102.923 E260.01916
G1 X45.907 Y102.672 E260.03237
G1 X45.505 Y102.366 E260.04585
G1 X45.148 Y102.022 E260.05908
G1 X44.823 Y101.623 E260.07281
G1 X44.565 Y101.214 E260.08571
G1 X44.336 Y100.740 E260.09975
G1 X44.177 Y100.271 E260.11296
G1 X44.069 Y99.763 E260.12682
G1 X44.043 Y99.552 E260.13249
G1 X44.026 Y99.027 E260.14650
G1 X44.068 Y98.537 E260.15962
G1 X44.173 Y98.023 E260.17362
G1 X48.633 Y81.380 E260.63329
G1 X99.385 Y94.980 E262.03501
G1 X94.933 Y111.599 E262.49401
G1 X94.759 Y112.122 E262.50871
G1 X94.550 Y112.569 E262.52188
G1 X94.279 Y113.003 E262.53553
G1 X93.794 Y113.571 E262.55545
G1 X93.415 Y113.904 E262.56891
G1 X92.792 Y114.303 E262.58865
G1 X92.339 Y114.508 E262.60191
G1 X91.860 Y114.660 E262.61532
G1 X91.349 Y114.758 E262.62920
G1 X91.118 Y114.781 E262.63539
G1 X90.864 Y114.791 E262.64218
G1 X90.369 Y114.767 E262.65540
G1 X89.872 Y114.685 E262.66883
G1 X89.393 Y114.546 E262.68214
G1 X88.932 Y114.352 E262.69548
G1 X88.500 Y114.105 E262.70876
G1 X88.093 Y113.804 E262.72226
G1 X87.731 Y113.465 E262.73550
G1 X87.390 Y113.059 E262.74964
G1 X86.996 Y112.528 E262.76728
G1 X86.505 Y111.897 E262.78861
G1 X86.029 Y111.318 E262.80861
G1 X85.572 Y110.788 E262.82728
G1 X85.037 Y110.195 E262.84858
G1 X84.519 Y109.651 E262.86862
G1 X83.990 Y109.121 E262.88860
G1 X83.483 Y108.639 E262.90726
G1 X82.893 Y108.101 E262.92856
G1 X82.326 Y107.611 E262.94856
G1 X81.785 Y107.165 E262.96726
G1 X81.156 Y106.673 E262.98856
G1 X80.554 Y106.225 E263.00858
G1 X79.984 Y105.822 E263.02721
G1 X79.322 Y105.375 E263.04852
G1 X78.731 Y105.001 E263.06718
G1 X78.048 Y104.586 E263.08850
G1 X77.395 Y104.214 E263.10855
G1 X76.778 Y103.884 E263.12721
G1 X76.068 Y103.522 E263.14847
G1 X75.390 Y103.199 E263.16851
G1 X74.751 Y102.914 E263.18717
G1 X74.016 Y102.605 E263.20845
G1 X73.362 Y102.350 E263.22717
G1 X72.612 Y102.078 E263.24846
G1 X71.900 Y101.840 E263.26848
G1 X71.184 Y101.619 E263.28847
G1 X70.462 Y101.417 E263.30848
G1 X69.736 Y101.231 E263.32847
G1 X69.054 Y101.075 E263.34713
G1 X68.271 Y100.914 E263.36846
G1 X67.534 Y100.783 E263.38843
G1 X66.793 Y100.669 E263.40843
G1 X66.050 Y100.574 E263.42841
G1 X65.303 Y100.496 E263.44845
G1 X64.556 Y100.438 E263.46844
G1 X63.808 Y100.397 E263.48842
G1 X63.059 Y100.374 E263.50841
G1 X62.309 Y100.369 E263.52842
G1 X61.560 Y100.383 E263.54841
G1 X60.811 Y100.415 E263.56841
G1 X60.063 Y100.465 E263.58841
G1 X59.317 Y100.534 E263.60840
G1 X58.572 Y100.621 E263.62841
G1 X57.830 Y100.726 E263.64840
G1 X57.091 Y100.849 E263.66838
G1 X56.355 Y100.990 E263.68838
G1 X55.622 Y101.149 E263.70839
G1 X54.895 Y101.325 E263.72834
G1 X54.170 Y101.519 E263.74836
G1 X53.451 Y101.731 E263.76836
G1 X52.738 Y101.961 E263.78835
G0 F10500 X59.323 Y100.585
G0 X66.044 Y100.624
G0 X72.595 Y102.126
G0 X78.705 Y105.043
G0 X82.859 Y108.139
G0 X87.601 Y109.783
G1 F1560 X87.515 Y110.413 E263.80531
G1 X87.539 Y110.954 E263.81976
G1 X87.615 Y111.356 E263.83067
G1 X87.788 Y111.862 E263.84494
G1 X88.045 Y112.342 E263.85946
G1 X88.362 Y112.749 E263.87323
G1 X88.482 Y112.879 E263.87795
G1 X88.948 Y113.262 E263.89404
G1 X89.122 Y113.377 E263.89960
G1 X89.701 Y113.652 E263.91670
G1 X90.322 Y113.804 E263.93376
G1 X90.778 Y113.843 E263.94597
G1 X91.168 Y113.825 E263.95638
G1 X91.701 Y113.724 E263.97086
G1 X92.315 Y113.485 E263.98843
G1 X92.840 Y113.145 E264.00512
G1 X92.999 Y113.020 E264.01052
G1 X93.352 Y112.654 E264.02408
G1 X93.460 Y112.515 E264.02878
G1 X93.790 Y111.975 E264.04566
G1 X94.024 Y111.327 E264.06404
G1 X94.115 Y110.672 E264.08168
G1 X94.090 Y110.115 E264.09656
G1 X93.943 Y109.482 E264.11389
G1 X93.720 Y108.970 E264.12879
G1 X93.363 Y108.445 E264.14573
G1 X93.156 Y108.216 E264.15396
G1 X92.769 Y107.881 E264.16762
G1 X92.510 Y107.708 E264.17593
G1 X91.927 Y107.432 E264.19314
G1 X91.308 Y107.280 E264.21014
G1 X90.852 Y107.241 E264.22235
G1 X90.467 Y107.259 E264.23263
G1 X90.072 Y107.327 E264.24333
G1 X89.572 Y107.484 E264.25731
G1 X89.179 Y107.674 E264.26895
G1 X88.782 Y107.946 E264.28179
G1 X88.625 Y108.070 E264.28713
G1 X88.196 Y108.532 E264.30395
G1 X87.949 Y108.904 E264.31586
G1 X87.689 Y109.476 E264.33262
G1 X87.601 Y109.783 E264.34114
G0 F10500 X88.092 Y109.886
;TYPE:WALL-OUTER
G1 F1440 X88.016 Y110.436 E264.35595
G1 X88.037 Y110.896 E264.36824
G1 X88.100 Y111.228 E264.37725
G1 X88.248 Y111.662 E264.38949
G1 X88.466 Y112.069 E264.40180
G1 X88.826 Y112.514 E264.41707
G1 X89.245 Y112.859 E264.43155
G1 X89.368 Y112.940 E264.43548
G1 X89.870 Y113.179 E264.45032
G1 X90.409 Y113.311 E264.46512
G1 X90.777 Y113.342 E264.47497
G1 X91.110 Y113.327 E264.48387
G1 X91.563 Y113.241 E264.49617
G1 X92.086 Y113.038 E264.51113
G1 X92.549 Y112.738 E264.52585
G1 X92.662 Y112.649 E264.52969
G1 X92.974 Y112.325 E264.54169
G1 X93.049 Y112.230 E264.54492
G1 X93.337 Y111.758 E264.55967
G1 X93.536 Y111.206 E264.57532
G1 X93.614 Y110.649 E264.59033
G1 X93.593 Y110.184 E264.60274
G1 X93.466 Y109.640 E264.61765
G1 X93.280 Y109.212 E264.63010
G1 X92.969 Y108.754 E264.64487
G1 X92.806 Y108.574 E264.65134
G1 X92.466 Y108.280 E264.66334
G1 X92.263 Y108.144 E264.66985
G1 X91.759 Y107.905 E264.68474
G1 X91.221 Y107.773 E264.69951
G1 X90.853 Y107.742 E264.70937
G1 X90.522 Y107.757 E264.71821
G1 X90.190 Y107.814 E264.72719
G1 X89.757 Y107.950 E264.73930
G1 X89.430 Y108.108 E264.74899
G1 X88.966 Y108.438 E264.76418
G1 X88.590 Y108.843 E264.77892
G1 X88.388 Y109.147 E264.78866
G1 X88.160 Y109.649 E264.80337
G1 X88.092 Y109.886 E264.80995
G0 F10500 X87.746 Y109.837
G0 X85.907 Y111.407
G0 X85.646 Y111.640
G1 F1440 X85.197 Y111.119 E264.82829
G1 X84.670 Y110.535 E264.84928
G1 X84.161 Y110.000 E264.86898
G1 X83.641 Y109.479 E264.88862
G1 X83.142 Y109.005 E264.90698
G1 X82.561 Y108.475 E264.92796
G1 X82.003 Y107.993 E264.94763
G1 X81.472 Y107.555 E264.96599
G1 X80.853 Y107.070 E264.98697
G1 X80.261 Y106.630 E265.00665
G1 X79.700 Y106.233 E265.02499
G1 X79.048 Y105.794 E265.04595
G1 X78.468 Y105.426 E265.06428
G1 X77.795 Y105.017 E265.08529
G1 X77.153 Y104.652 E265.10499
G1 X76.547 Y104.327 E265.12334
G1 X75.847 Y103.971 E265.14429
G1 X75.181 Y103.653 E265.16398
G1 X74.552 Y103.373 E265.18234
G1 X73.828 Y103.068 E265.20330
G1 X73.186 Y102.818 E265.22168
G1 X72.447 Y102.550 E265.24265
